%O13030
(Quad DOE Prints)
(GCode File generated by the ORNL Slicer Version 1.10.05 distributed to Hybrid Manufacturing Technologies)
(ORNL Slicer GCode File)
(GCODE Syntax: Hybrid-Haas)
(Filename: Hexagon Pyramid Test Article)

(Sliced by: April G)
(Slicing notes: 130 130)
(Sliced on: 4/2/2019)
(Layer count: 60)
(Expected Weight: 0.6lbs)
(Expected Build Time: 0 days, 0 hours, 14 minutes)
(Minimum Layer Time: 0 minutes, 8 seconds)
(Maximum Layer Time: 0 minutes, 18 seconds)
(XYZ Translation Data: -5.5,-2.11,-1)
(Slicing Parameters)
(Nozzle Diameter: 0.12in)
(Layer Height: 0.05in)
(Printer Base Offset: 0.0000in)
(Minimum Table Value: 0.0000in)
(Default Extrusion Width: 0.210in)
(Inset Extrusion Width: 0.210in)
(Infill Extrusion Width: 0.000in)
(Skin Extrusion Width: 0.000in)
(Downskin Count: 0)
(Upskin Count: 0)
(Number of Insets: 1)

T9M6
G90G00G54X0.5Y0.5F50
G43H9
(Layer count: 60)
(BEGINNING LAYER: 1)
G00 X1.3713 Y0.0000 (TRAVEL)
G01 Z0.3000 F59.0551 (TRAVEL-Lift Tip For Travel)
G00 X1.3713 Y0.0000 (TRAVEL)
G1 Z0.0500 (TRAVEL-Lower Tip)
(TYPE:VOLUME)
M03 S40 (Turn Spindle ON)
G04 P80 (Dwell)
M03 S75 (Change Spindle Speed)
G1 F115.7480 X2.5605 Y-2.0599 (VOLUME-WALL_OUTER)
G1 X4.9395 Y-2.0599 (VOLUME-WALL_OUTER)
G1 X6.1287 Y0.0000 (VOLUME-WALL_OUTER)
G1 X4.9395 Y2.0599 (VOLUME-WALL_OUTER)
G1 X2.5605 Y2.0599 (VOLUME-WALL_OUTER)
G1 X1.3713 Y0.0000 (VOLUME-WALL_OUTER)
M05 (Stop Spindle)
G1 F132.2835 X1.8713 Y-0.8661 (VOLUME-WALL_OUTER-FORWARD TIP WIPE)
G01 Z0.3000 F59.0551 (TRAVEL-Lift Tip For Travel)
G00 X-1.2930 Y-1.1743 (TRAVEL)
G1 Z0.0500 (TRAVEL-Lower Tip)
(TYPE:VOLUME)
M03 S40 (Turn Spindle ON)
G04 P80 (Dwell)
M03 S75 (Change Spindle Speed)
G1 F115.7480 X-1.2930 Y1.1838 (VOLUME-WALL_OUTER)
G1 X-3.3349 Y2.3626 (VOLUME-WALL_OUTER)
G1 X-5.3768 Y1.1838 (VOLUME-WALL_OUTER)
G1 X-5.3768 Y-1.1743 (VOLUME-WALL_OUTER)
G1 X-3.3349 Y-2.3531 (VOLUME-WALL_OUTER)
G1 X-1.2930 Y-1.1743 (VOLUME-WALL_OUTER)
M05 (Stop Spindle)
G1 F132.2835 X-1.2930 Y-0.1743 (VOLUME-WALL_OUTER-FORWARD TIP WIPE)
(BEGINNING LAYER: 2)
G01 Z0.3500 F59.0551 (TRAVEL-Lift Tip For Travel)
G00 X1.3713 Y0.0000 (TRAVEL)
G1 Z0.1000 (TRAVEL-Lower Tip)
(TYPE:VOLUME)
M03 S40 (Turn Spindle ON)
G04 P80 (Dwell)
M03 S75 (Change Spindle Speed)
G1 F115.7480 X2.5605 Y-2.0599 (VOLUME-WALL_OUTER)
G1 X4.9395 Y-2.0599 (VOLUME-WALL_OUTER)
G1 X6.1287 Y0.0000 (VOLUME-WALL_OUTER)
G1 X4.9395 Y2.0599 (VOLUME-WALL_OUTER)
G1 X2.5605 Y2.0599 (VOLUME-WALL_OUTER)
G1 X1.3713 Y0.0000 (VOLUME-WALL_OUTER)
M05 (Stop Spindle)
G1 F132.2835 X1.8713 Y-0.8661 (VOLUME-WALL_OUTER-FORWARD TIP WIPE)
G01 Z0.3500 F59.0551 (TRAVEL-Lift Tip For Travel)
G00 X-1.3291 Y-1.1535 (TRAVEL)
G1 Z0.1000 (TRAVEL-Lower Tip)
(TYPE:VOLUME)
M03 S40 (Turn Spindle ON)
G04 P80 (Dwell)
M03 S75 (Change Spindle Speed)
G1 F115.7480 X-1.3291 Y1.1630 (VOLUME-WALL_OUTER)
G1 X-3.3349 Y2.3209 (VOLUME-WALL_OUTER)
G1 X-5.3407 Y1.1630 (VOLUME-WALL_OUTER)
G1 X-5.3407 Y-1.1535 (VOLUME-WALL_OUTER)
G1 X-3.3349 Y-2.3114 (VOLUME-WALL_OUTER)
G1 X-1.3291 Y-1.1535 (VOLUME-WALL_OUTER)
M05 (Stop Spindle)
G1 F132.2835 X-1.3291 Y-0.1535 (VOLUME-WALL_OUTER-FORWARD TIP WIPE)
(BEGINNING LAYER: 3)
G01 Z0.4000 F59.0551 (TRAVEL-Lift Tip For Travel)
G00 X1.3713 Y0.0000 (TRAVEL)
G1 Z0.1500 (TRAVEL-Lower Tip)
(TYPE:VOLUME)
M03 S40 (Turn Spindle ON)
G04 P80 (Dwell)
M03 S75 (Change Spindle Speed)
G1 F115.7480 X2.5605 Y-2.0599 (VOLUME-WALL_OUTER)
G1 X4.9395 Y-2.0599 (VOLUME-WALL_OUTER)
G1 X6.1287 Y0.0000 (VOLUME-WALL_OUTER)
G1 X4.9395 Y2.0599 (VOLUME-WALL_OUTER)
G1 X2.5605 Y2.0599 (VOLUME-WALL_OUTER)
G1 X1.3713 Y0.0000 (VOLUME-WALL_OUTER)
M05 (Stop Spindle)
G1 F132.2835 X1.8713 Y-0.8661 (VOLUME-WALL_OUTER-FORWARD TIP WIPE)
G01 Z0.4000 F59.0551 (TRAVEL-Lift Tip For Travel)
G00 X-1.3652 Y-1.1326 (TRAVEL)
G1 Z0.1500 (TRAVEL-Lower Tip)
(TYPE:VOLUME)
M03 S40 (Turn Spindle ON)
G04 P80 (Dwell)
M03 S75 (Change Spindle Speed)
G1 F115.7480 X-1.3652 Y1.1421 (VOLUME-WALL_OUTER)
G1 X-3.3349 Y2.2793 (VOLUME-WALL_OUTER)
G1 X-5.3046 Y1.1421 (VOLUME-WALL_OUTER)
G1 X-5.3046 Y-1.1326 (VOLUME-WALL_OUTER)
G1 X-3.3349 Y-2.2698 (VOLUME-WALL_OUTER)
G1 X-1.3652 Y-1.1326 (VOLUME-WALL_OUTER)
M05 (Stop Spindle)
G1 F132.2835 X-1.3652 Y-0.1326 (VOLUME-WALL_OUTER-FORWARD TIP WIPE)
(BEGINNING LAYER: 4)
G01 Z0.4500 F59.0551 (TRAVEL-Lift Tip For Travel)
G00 X1.3713 Y0.0000 (TRAVEL)
G1 Z0.2000 (TRAVEL-Lower Tip)
(TYPE:VOLUME)
M03 S40 (Turn Spindle ON)
G04 P80 (Dwell)
M03 S75 (Change Spindle Speed)
G1 F115.7480 X2.5605 Y-2.0599 (VOLUME-WALL_OUTER)
G1 X4.9395 Y-2.0599 (VOLUME-WALL_OUTER)
G1 X6.1287 Y0.0000 (VOLUME-WALL_OUTER)
G1 X4.9395 Y2.0599 (VOLUME-WALL_OUTER)
G1 X2.5605 Y2.0599 (VOLUME-WALL_OUTER)
G1 X1.3713 Y0.0000 (VOLUME-WALL_OUTER)
M05 (Stop Spindle)
G1 F132.2835 X1.8713 Y-0.8661 (VOLUME-WALL_OUTER-FORWARD TIP WIPE)
G01 Z0.4500 F59.0551 (TRAVEL-Lift Tip For Travel)
G00 X-1.4013 Y-1.1118 (TRAVEL)
G1 Z0.2000 (TRAVEL-Lower Tip)
(TYPE:VOLUME)
M03 S40 (Turn Spindle ON)
G04 P80 (Dwell)
M03 S75 (Change Spindle Speed)
G1 F115.7480 X-1.4013 Y1.1213 (VOLUME-WALL_OUTER)
G1 X-3.3349 Y2.2376 (VOLUME-WALL_OUTER)
G1 X-5.2685 Y1.1213 (VOLUME-WALL_OUTER)
G1 X-5.2685 Y-1.1118 (VOLUME-WALL_OUTER)
G1 X-3.3349 Y-2.2281 (VOLUME-WALL_OUTER)
G1 X-1.4013 Y-1.1118 (VOLUME-WALL_OUTER)
M05 (Stop Spindle)
G1 F132.2835 X-1.4013 Y-0.1118 (VOLUME-WALL_OUTER-FORWARD TIP WIPE)
(BEGINNING LAYER: 5)
G01 Z0.5000 F59.0551 (TRAVEL-Lift Tip For Travel)
G00 X1.3713 Y0.0000 (TRAVEL)
G1 Z0.2500 (TRAVEL-Lower Tip)
(TYPE:VOLUME)
M03 S40 (Turn Spindle ON)
G04 P80 (Dwell)
M03 S75 (Change Spindle Speed)
G1 F115.7480 X2.5605 Y-2.0599 (VOLUME-WALL_OUTER)
G1 X4.9395 Y-2.0599 (VOLUME-WALL_OUTER)
G1 X6.1287 Y0.0000 (VOLUME-WALL_OUTER)
G1 X4.9395 Y2.0599 (VOLUME-WALL_OUTER)
G1 X2.5605 Y2.0599 (VOLUME-WALL_OUTER)
G1 X1.3713 Y0.0000 (VOLUME-WALL_OUTER)
M05 (Stop Spindle)
G1 F132.2835 X1.8713 Y-0.8661 (VOLUME-WALL_OUTER-FORWARD TIP WIPE)
G01 Z0.5000 F59.0551 (TRAVEL-Lift Tip For Travel)
G00 X-1.4374 Y-1.0909 (TRAVEL)
G1 Z0.2500 (TRAVEL-Lower Tip)
(TYPE:VOLUME)
M03 S40 (Turn Spindle ON)
G04 P80 (Dwell)
M03 S75 (Change Spindle Speed)
G1 F115.7480 X-1.4374 Y1.1004 (VOLUME-WALL_OUTER)
G1 X-3.3349 Y2.1959 (VOLUME-WALL_OUTER)
G1 X-5.2324 Y1.1004 (VOLUME-WALL_OUTER)
G1 X-5.2324 Y-1.0909 (VOLUME-WALL_OUTER)
G1 X-3.3349 Y-2.1864 (VOLUME-WALL_OUTER)
G1 X-1.4374 Y-1.0909 (VOLUME-WALL_OUTER)
M05 (Stop Spindle)
G1 F132.2835 X-1.4374 Y-0.0909 (VOLUME-WALL_OUTER-FORWARD TIP WIPE)
(BEGINNING LAYER: 6)
G01 Z0.5500 F59.0551 (TRAVEL-Lift Tip For Travel)
G00 X1.3713 Y0.0000 (TRAVEL)
G1 Z0.3000 (TRAVEL-Lower Tip)
(TYPE:VOLUME)
M03 S40 (Turn Spindle ON)
G04 P80 (Dwell)
M03 S75 (Change Spindle Speed)
G1 F115.7480 X2.5605 Y-2.0599 (VOLUME-WALL_OUTER)
G1 X4.9395 Y-2.0599 (VOLUME-WALL_OUTER)
G1 X6.1287 Y0.0000 (VOLUME-WALL_OUTER)
G1 X4.9395 Y2.0599 (VOLUME-WALL_OUTER)
G1 X2.5605 Y2.0599 (VOLUME-WALL_OUTER)
G1 X1.3713 Y0.0000 (VOLUME-WALL_OUTER)
M05 (Stop Spindle)
G1 F132.2835 X1.8713 Y-0.8661 (VOLUME-WALL_OUTER-FORWARD TIP WIPE)
G01 Z0.5500 F59.0551 (TRAVEL-Lift Tip For Travel)
G00 X-1.4735 Y-1.0701 (TRAVEL)
G1 Z0.3000 (TRAVEL-Lower Tip)
(TYPE:VOLUME)
M03 S40 (Turn Spindle ON)
G04 P80 (Dwell)
M03 S75 (Change Spindle Speed)
G1 F115.7480 X-1.4735 Y1.0796 (VOLUME-WALL_OUTER)
G1 X-3.3349 Y2.1542 (VOLUME-WALL_OUTER)
G1 X-5.1964 Y1.0796 (VOLUME-WALL_OUTER)
G1 X-5.1964 Y-1.0701 (VOLUME-WALL_OUTER)
G1 X-3.3349 Y-2.1447 (VOLUME-WALL_OUTER)
G1 X-1.4735 Y-1.0701 (VOLUME-WALL_OUTER)
M05 (Stop Spindle)
G1 F132.2835 X-1.4735 Y-0.0701 (VOLUME-WALL_OUTER-FORWARD TIP WIPE)
(BEGINNING LAYER: 7)
G01 Z0.6000 F59.0551 (TRAVEL-Lift Tip For Travel)
G00 X1.3713 Y0.0000 (TRAVEL)
G1 Z0.3500 (TRAVEL-Lower Tip)
(TYPE:VOLUME)
M03 S40 (Turn Spindle ON)
G04 P80 (Dwell)
M03 S75 (Change Spindle Speed)
G1 F115.7480 X2.5605 Y-2.0599 (VOLUME-WALL_OUTER)
G1 X4.9395 Y-2.0599 (VOLUME-WALL_OUTER)
G1 X6.1287 Y0.0000 (VOLUME-WALL_OUTER)
G1 X4.9395 Y2.0599 (VOLUME-WALL_OUTER)
G1 X2.5605 Y2.0599 (VOLUME-WALL_OUTER)
G1 X1.3713 Y0.0000 (VOLUME-WALL_OUTER)
M05 (Stop Spindle)
G1 F132.2835 X1.8713 Y-0.8661 (VOLUME-WALL_OUTER-FORWARD TIP WIPE)
G01 Z0.6000 F59.0551 (TRAVEL-Lift Tip For Travel)
G00 X-1.5095 Y-1.0493 (TRAVEL)
G1 Z0.3500 (TRAVEL-Lower Tip)
(TYPE:VOLUME)
M03 S40 (Turn Spindle ON)
G04 P80 (Dwell)
M03 S75 (Change Spindle Speed)
G1 F115.7480 X-1.5095 Y1.0588 (VOLUME-WALL_OUTER)
G1 X-3.3349 Y2.1126 (VOLUME-WALL_OUTER)
G1 X-5.1603 Y1.0588 (VOLUME-WALL_OUTER)
G1 X-5.1603 Y-1.0493 (VOLUME-WALL_OUTER)
G1 X-3.3349 Y-2.1031 (VOLUME-WALL_OUTER)
G1 X-1.5095 Y-1.0493 (VOLUME-WALL_OUTER)
M05 (Stop Spindle)
G1 F132.2835 X-1.5095 Y-0.0493 (VOLUME-WALL_OUTER-FORWARD TIP WIPE)
(BEGINNING LAYER: 8)
G01 Z0.6500 F59.0551 (TRAVEL-Lift Tip For Travel)
G00 X1.3713 Y0.0000 (TRAVEL)
G1 Z0.4000 (TRAVEL-Lower Tip)
(TYPE:VOLUME)
M03 S40 (Turn Spindle ON)
G04 P80 (Dwell)
M03 S75 (Change Spindle Speed)
G1 F115.7480 X2.5605 Y-2.0599 (VOLUME-WALL_OUTER)
G1 X4.9395 Y-2.0599 (VOLUME-WALL_OUTER)
G1 X6.1287 Y0.0000 (VOLUME-WALL_OUTER)
G1 X4.9395 Y2.0599 (VOLUME-WALL_OUTER)
G1 X2.5605 Y2.0599 (VOLUME-WALL_OUTER)
G1 X1.3713 Y0.0000 (VOLUME-WALL_OUTER)
M05 (Stop Spindle)
G1 F132.2835 X1.8713 Y-0.8661 (VOLUME-WALL_OUTER-FORWARD TIP WIPE)
G01 Z0.6500 F59.0551 (TRAVEL-Lift Tip For Travel)
G00 X-1.5456 Y-1.0285 (TRAVEL)
G1 Z0.4000 (TRAVEL-Lower Tip)
(TYPE:VOLUME)
M03 S40 (Turn Spindle ON)
G04 P80 (Dwell)
M03 S75 (Change Spindle Speed)
G1 F115.7480 X-1.5456 Y1.0380 (VOLUME-WALL_OUTER)
G1 X-3.3349 Y2.0709 (VOLUME-WALL_OUTER)
G1 X-5.1242 Y1.0380 (VOLUME-WALL_OUTER)
G1 X-5.1242 Y-1.0285 (VOLUME-WALL_OUTER)
G1 X-3.3349 Y-2.0614 (VOLUME-WALL_OUTER)
G1 X-1.5456 Y-1.0285 (VOLUME-WALL_OUTER)
M05 (Stop Spindle)
G1 F132.2835 X-1.5456 Y-0.0285 (VOLUME-WALL_OUTER-FORWARD TIP WIPE)
(BEGINNING LAYER: 9)
G01 Z0.7000 F59.0551 (TRAVEL-Lift Tip For Travel)
G00 X1.3713 Y0.0000 (TRAVEL)
G1 Z0.4500 (TRAVEL-Lower Tip)
(TYPE:VOLUME)
M03 S40 (Turn Spindle ON)
G04 P80 (Dwell)
M03 S75 (Change Spindle Speed)
G1 F115.7480 X2.5605 Y-2.0599 (VOLUME-WALL_OUTER)
G1 X4.9395 Y-2.0599 (VOLUME-WALL_OUTER)
G1 X6.1287 Y0.0000 (VOLUME-WALL_OUTER)
G1 X4.9395 Y2.0599 (VOLUME-WALL_OUTER)
G1 X2.5605 Y2.0599 (VOLUME-WALL_OUTER)
G1 X1.3713 Y0.0000 (VOLUME-WALL_OUTER)
M05 (Stop Spindle)
G1 F132.2835 X1.8713 Y-0.8661 (VOLUME-WALL_OUTER-FORWARD TIP WIPE)
G01 Z0.7000 F59.0551 (TRAVEL-Lift Tip For Travel)
G00 X-1.5817 Y-1.0076 (TRAVEL)
G1 Z0.4500 (TRAVEL-Lower Tip)
(TYPE:VOLUME)
M03 S40 (Turn Spindle ON)
G04 P80 (Dwell)
M03 S75 (Change Spindle Speed)
G1 F115.7480 X-1.5817 Y1.0171 (VOLUME-WALL_OUTER)
G1 X-3.3349 Y2.0293 (VOLUME-WALL_OUTER)
G1 X-5.0881 Y1.0171 (VOLUME-WALL_OUTER)
G1 X-5.0881 Y-1.0076 (VOLUME-WALL_OUTER)
G1 X-3.3349 Y-2.0198 (VOLUME-WALL_OUTER)
G1 X-1.5817 Y-1.0076 (VOLUME-WALL_OUTER)
M05 (Stop Spindle)
G1 F132.2835 X-1.5817 Y-0.0076 (VOLUME-WALL_OUTER-FORWARD TIP WIPE)
(BEGINNING LAYER: 10)
G01 Z0.7500 F59.0551 (TRAVEL-Lift Tip For Travel)
G00 X1.3713 Y0.0000 (TRAVEL)
G1 Z0.5000 (TRAVEL-Lower Tip)
(TYPE:VOLUME)
M03 S40 (Turn Spindle ON)
G04 P80 (Dwell)
M03 S75 (Change Spindle Speed)
G1 F115.7480 X2.5605 Y-2.0599 (VOLUME-WALL_OUTER)
G1 X4.9395 Y-2.0599 (VOLUME-WALL_OUTER)
G1 X6.1287 Y0.0000 (VOLUME-WALL_OUTER)
G1 X4.9395 Y2.0599 (VOLUME-WALL_OUTER)
G1 X2.5605 Y2.0599 (VOLUME-WALL_OUTER)
G1 X1.3713 Y0.0000 (VOLUME-WALL_OUTER)
M05 (Stop Spindle)
G1 F132.2835 X1.8713 Y-0.8661 (VOLUME-WALL_OUTER-FORWARD TIP WIPE)
G01 Z0.7500 F59.0551 (TRAVEL-Lift Tip For Travel)
G00 X-1.6178 Y-0.9868 (TRAVEL)
G1 Z0.5000 (TRAVEL-Lower Tip)
(TYPE:VOLUME)
M03 S40 (Turn Spindle ON)
G04 P80 (Dwell)
M03 S75 (Change Spindle Speed)
G1 F115.7480 X-1.6178 Y0.9963 (VOLUME-WALL_OUTER)
G1 X-3.3349 Y1.9876 (VOLUME-WALL_OUTER)
G1 X-5.0520 Y0.9963 (VOLUME-WALL_OUTER)
G1 X-5.0520 Y-0.9868 (VOLUME-WALL_OUTER)
G1 X-3.3349 Y-1.9781 (VOLUME-WALL_OUTER)
G1 X-1.6178 Y-0.9868 (VOLUME-WALL_OUTER)
M05 (Stop Spindle)
G1 F132.2835 X-1.6178 Y0.0132 (VOLUME-WALL_OUTER-FORWARD TIP WIPE)
(BEGINNING LAYER: 11)
G01 Z0.8000 F59.0551 (TRAVEL-Lift Tip For Travel)
G00 X1.3713 Y0.0000 (TRAVEL)
G1 Z0.5500 (TRAVEL-Lower Tip)
(TYPE:VOLUME)
M03 S40 (Turn Spindle ON)
G04 P80 (Dwell)
M03 S75 (Change Spindle Speed)
G1 F115.7480 X2.5605 Y-2.0599 (VOLUME-WALL_OUTER)
G1 X4.9395 Y-2.0599 (VOLUME-WALL_OUTER)
G1 X6.1287 Y0.0000 (VOLUME-WALL_OUTER)
G1 X4.9395 Y2.0599 (VOLUME-WALL_OUTER)
G1 X2.5605 Y2.0599 (VOLUME-WALL_OUTER)
G1 X1.3713 Y0.0000 (VOLUME-WALL_OUTER)
M05 (Stop Spindle)
G1 F132.2835 X1.8713 Y-0.8661 (VOLUME-WALL_OUTER-FORWARD TIP WIPE)
G01 Z0.8000 F59.0551 (TRAVEL-Lift Tip For Travel)
G00 X-1.6539 Y-0.9659 (TRAVEL)
G1 Z0.5500 (TRAVEL-Lower Tip)
(TYPE:VOLUME)
M03 S40 (Turn Spindle ON)
G04 P80 (Dwell)
M03 S75 (Change Spindle Speed)
G1 F115.7480 X-1.6539 Y0.9754 (VOLUME-WALL_OUTER)
G1 X-3.3349 Y1.9459 (VOLUME-WALL_OUTER)
G1 X-5.0159 Y0.9754 (VOLUME-WALL_OUTER)
G1 X-5.0159 Y-0.9659 (VOLUME-WALL_OUTER)
G1 X-3.3349 Y-1.9364 (VOLUME-WALL_OUTER)
G1 X-1.6539 Y-0.9659 (VOLUME-WALL_OUTER)
M05 (Stop Spindle)
G1 F132.2835 X-1.6539 Y0.0341 (VOLUME-WALL_OUTER-FORWARD TIP WIPE)
(BEGINNING LAYER: 12)
G01 Z0.8500 F59.0551 (TRAVEL-Lift Tip For Travel)
G00 X1.3713 Y0.0000 (TRAVEL)
G1 Z0.6000 (TRAVEL-Lower Tip)
(TYPE:VOLUME)
M03 S40 (Turn Spindle ON)
G04 P80 (Dwell)
M03 S75 (Change Spindle Speed)
G1 F115.7480 X2.5605 Y-2.0599 (VOLUME-WALL_OUTER)
G1 X4.9395 Y-2.0599 (VOLUME-WALL_OUTER)
G1 X6.1287 Y0.0000 (VOLUME-WALL_OUTER)
G1 X4.9395 Y2.0599 (VOLUME-WALL_OUTER)
G1 X2.5605 Y2.0599 (VOLUME-WALL_OUTER)
G1 X1.3713 Y0.0000 (VOLUME-WALL_OUTER)
M05 (Stop Spindle)
G1 F132.2835 X1.8713 Y-0.8661 (VOLUME-WALL_OUTER-FORWARD TIP WIPE)
G01 Z0.8500 F59.0551 (TRAVEL-Lift Tip For Travel)
G00 X-1.6900 Y-0.9451 (TRAVEL)
G1 Z0.6000 (TRAVEL-Lower Tip)
(TYPE:VOLUME)
M03 S40 (Turn Spindle ON)
G04 P80 (Dwell)
M03 S75 (Change Spindle Speed)
G1 F115.7480 X-1.6900 Y0.9546 (VOLUME-WALL_OUTER)
G1 X-3.3349 Y1.9042 (VOLUME-WALL_OUTER)
G1 X-4.9798 Y0.9546 (VOLUME-WALL_OUTER)
G1 X-4.9798 Y-0.9451 (VOLUME-WALL_OUTER)
G1 X-3.3349 Y-1.8947 (VOLUME-WALL_OUTER)
G1 X-1.6900 Y-0.9451 (VOLUME-WALL_OUTER)
M05 (Stop Spindle)
G1 F132.2835 X-1.6900 Y0.0549 (VOLUME-WALL_OUTER-FORWARD TIP WIPE)
(BEGINNING LAYER: 13)
G01 Z0.9000 F59.0551 (TRAVEL-Lift Tip For Travel)
G00 X1.3713 Y0.0000 (TRAVEL)
G1 Z0.6500 (TRAVEL-Lower Tip)
(TYPE:VOLUME)
M03 S40 (Turn Spindle ON)
G04 P80 (Dwell)
M03 S75 (Change Spindle Speed)
G1 F115.7480 X2.5605 Y-2.0599 (VOLUME-WALL_OUTER)
G1 X4.9395 Y-2.0599 (VOLUME-WALL_OUTER)
G1 X6.1287 Y0.0000 (VOLUME-WALL_OUTER)
G1 X4.9395 Y2.0599 (VOLUME-WALL_OUTER)
G1 X2.5605 Y2.0599 (VOLUME-WALL_OUTER)
G1 X1.3713 Y0.0000 (VOLUME-WALL_OUTER)
M05 (Stop Spindle)
G1 F132.2835 X1.8713 Y-0.8661 (VOLUME-WALL_OUTER-FORWARD TIP WIPE)
G01 Z0.9000 F59.0551 (TRAVEL-Lift Tip For Travel)
G00 X-1.7260 Y-0.9243 (TRAVEL)
G1 Z0.6500 (TRAVEL-Lower Tip)
(TYPE:VOLUME)
M03 S40 (Turn Spindle ON)
G04 P80 (Dwell)
M03 S75 (Change Spindle Speed)
G1 F115.7480 X-1.7260 Y0.9338 (VOLUME-WALL_OUTER)
G1 X-3.3349 Y1.8626 (VOLUME-WALL_OUTER)
G1 X-4.9438 Y0.9338 (VOLUME-WALL_OUTER)
G1 X-4.9438 Y-0.9243 (VOLUME-WALL_OUTER)
G1 X-3.3349 Y-1.8531 (VOLUME-WALL_OUTER)
G1 X-1.7260 Y-0.9243 (VOLUME-WALL_OUTER)
M05 (Stop Spindle)
G1 F132.2835 X-1.7260 Y0.0757 (VOLUME-WALL_OUTER-FORWARD TIP WIPE)
(BEGINNING LAYER: 14)
G01 Z0.9500 F59.0551 (TRAVEL-Lift Tip For Travel)
G00 X1.3713 Y0.0000 (TRAVEL)
G1 Z0.7000 (TRAVEL-Lower Tip)
(TYPE:VOLUME)
M03 S40 (Turn Spindle ON)
G04 P80 (Dwell)
M03 S75 (Change Spindle Speed)
G1 F115.7480 X2.5605 Y-2.0599 (VOLUME-WALL_OUTER)
G1 X4.9395 Y-2.0599 (VOLUME-WALL_OUTER)
G1 X6.1287 Y0.0000 (VOLUME-WALL_OUTER)
G1 X4.9395 Y2.0599 (VOLUME-WALL_OUTER)
G1 X2.5605 Y2.0599 (VOLUME-WALL_OUTER)
G1 X1.3713 Y0.0000 (VOLUME-WALL_OUTER)
M05 (Stop Spindle)
G1 F132.2835 X1.8713 Y-0.8661 (VOLUME-WALL_OUTER-FORWARD TIP WIPE)
G01 Z0.9500 F59.0551 (TRAVEL-Lift Tip For Travel)
G00 X-1.7621 Y-0.9035 (TRAVEL)
G1 Z0.7000 (TRAVEL-Lower Tip)
(TYPE:VOLUME)
M03 S40 (Turn Spindle ON)
G04 P80 (Dwell)
M03 S75 (Change Spindle Speed)
G1 F115.7480 X-1.7621 Y0.9130 (VOLUME-WALL_OUTER)
G1 X-3.3349 Y1.8209 (VOLUME-WALL_OUTER)
G1 X-4.9077 Y0.9130 (VOLUME-WALL_OUTER)
G1 X-4.9077 Y-0.9035 (VOLUME-WALL_OUTER)
G1 X-3.3349 Y-1.8114 (VOLUME-WALL_OUTER)
G1 X-1.7621 Y-0.9035 (VOLUME-WALL_OUTER)
M05 (Stop Spindle)
G1 F132.2835 X-1.7621 Y0.0965 (VOLUME-WALL_OUTER-FORWARD TIP WIPE)
(BEGINNING LAYER: 15)
G01 Z1.0000 F59.0551 (TRAVEL-Lift Tip For Travel)
G00 X1.3713 Y0.0000 (TRAVEL)
G1 Z0.7500 (TRAVEL-Lower Tip)
(TYPE:VOLUME)
M03 S40 (Turn Spindle ON)
G04 P80 (Dwell)
M03 S75 (Change Spindle Speed)
G1 F115.7480 X2.5605 Y-2.0599 (VOLUME-WALL_OUTER)
G1 X4.9395 Y-2.0599 (VOLUME-WALL_OUTER)
G1 X6.1287 Y0.0000 (VOLUME-WALL_OUTER)
G1 X4.9395 Y2.0599 (VOLUME-WALL_OUTER)
G1 X2.5605 Y2.0599 (VOLUME-WALL_OUTER)
G1 X1.3713 Y0.0000 (VOLUME-WALL_OUTER)
M05 (Stop Spindle)
G1 F132.2835 X1.8713 Y-0.8661 (VOLUME-WALL_OUTER-FORWARD TIP WIPE)
G01 Z1.0000 F59.0551 (TRAVEL-Lift Tip For Travel)
G00 X-1.7982 Y-0.8826 (TRAVEL)
G1 Z0.7500 (TRAVEL-Lower Tip)
(TYPE:VOLUME)
M03 S40 (Turn Spindle ON)
G04 P80 (Dwell)
M03 S75 (Change Spindle Speed)
G1 F115.7480 X-1.7982 Y0.8921 (VOLUME-WALL_OUTER)
G1 X-3.3349 Y1.7793 (VOLUME-WALL_OUTER)
G1 X-4.8716 Y0.8921 (VOLUME-WALL_OUTER)
G1 X-4.8716 Y-0.8826 (VOLUME-WALL_OUTER)
G1 X-3.3349 Y-1.7698 (VOLUME-WALL_OUTER)
G1 X-1.7982 Y-0.8826 (VOLUME-WALL_OUTER)
M05 (Stop Spindle)
G1 F132.2835 X-1.7982 Y0.1174 (VOLUME-WALL_OUTER-FORWARD TIP WIPE)
(BEGINNING LAYER: 16)
G01 Z1.0500 F59.0551 (TRAVEL-Lift Tip For Travel)
G00 X1.3713 Y0.0000 (TRAVEL)
G1 Z0.8000 (TRAVEL-Lower Tip)
(TYPE:VOLUME)
M03 S40 (Turn Spindle ON)
G04 P80 (Dwell)
M03 S75 (Change Spindle Speed)
G1 F115.7480 X2.5605 Y-2.0599 (VOLUME-WALL_OUTER)
G1 X4.9395 Y-2.0599 (VOLUME-WALL_OUTER)
G1 X6.1287 Y0.0000 (VOLUME-WALL_OUTER)
G1 X4.9395 Y2.0599 (VOLUME-WALL_OUTER)
G1 X2.5605 Y2.0599 (VOLUME-WALL_OUTER)
G1 X1.3713 Y0.0000 (VOLUME-WALL_OUTER)
M05 (Stop Spindle)
G1 F132.2835 X1.8713 Y-0.8661 (VOLUME-WALL_OUTER-FORWARD TIP WIPE)
G01 Z1.0500 F59.0551 (TRAVEL-Lift Tip For Travel)
G00 X-1.8343 Y-0.8618 (TRAVEL)
G1 Z0.8000 (TRAVEL-Lower Tip)
(TYPE:VOLUME)
M03 S40 (Turn Spindle ON)
G04 P80 (Dwell)
M03 S75 (Change Spindle Speed)
G1 F115.7480 X-1.8343 Y0.8713 (VOLUME-WALL_OUTER)
G1 X-3.3349 Y1.7376 (VOLUME-WALL_OUTER)
G1 X-4.8355 Y0.8713 (VOLUME-WALL_OUTER)
G1 X-4.8355 Y-0.8618 (VOLUME-WALL_OUTER)
G1 X-3.3349 Y-1.7281 (VOLUME-WALL_OUTER)
G1 X-1.8343 Y-0.8618 (VOLUME-WALL_OUTER)
M05 (Stop Spindle)
G1 F132.2835 X-1.8343 Y0.1382 (VOLUME-WALL_OUTER-FORWARD TIP WIPE)
(BEGINNING LAYER: 17)
G01 Z1.1000 F59.0551 (TRAVEL-Lift Tip For Travel)
G00 X1.3713 Y0.0000 (TRAVEL)
G1 Z0.8500 (TRAVEL-Lower Tip)
(TYPE:VOLUME)
M03 S40 (Turn Spindle ON)
G04 P80 (Dwell)
M03 S75 (Change Spindle Speed)
G1 F115.7480 X2.5605 Y-2.0599 (VOLUME-WALL_OUTER)
G1 X4.9395 Y-2.0599 (VOLUME-WALL_OUTER)
G1 X6.1287 Y0.0000 (VOLUME-WALL_OUTER)
G1 X4.9395 Y2.0599 (VOLUME-WALL_OUTER)
G1 X2.5605 Y2.0599 (VOLUME-WALL_OUTER)
G1 X1.3713 Y0.0000 (VOLUME-WALL_OUTER)
M05 (Stop Spindle)
G1 F132.2835 X1.8713 Y-0.8661 (VOLUME-WALL_OUTER-FORWARD TIP WIPE)
G01 Z1.1000 F59.0551 (TRAVEL-Lift Tip For Travel)
G00 X-1.8704 Y-0.8410 (TRAVEL)
G1 Z0.8500 (TRAVEL-Lower Tip)
(TYPE:VOLUME)
M03 S40 (Turn Spindle ON)
G04 P80 (Dwell)
M03 S75 (Change Spindle Speed)
G1 F115.7480 X-1.8704 Y0.8504 (VOLUME-WALL_OUTER)
G1 X-3.3349 Y1.6959 (VOLUME-WALL_OUTER)
G1 X-4.7994 Y0.8504 (VOLUME-WALL_OUTER)
G1 X-4.7994 Y-0.8410 (VOLUME-WALL_OUTER)
G1 X-3.3349 Y-1.6864 (VOLUME-WALL_OUTER)
G1 X-1.8704 Y-0.8410 (VOLUME-WALL_OUTER)
M05 (Stop Spindle)
G1 F132.2835 X-1.8704 Y0.1590 (VOLUME-WALL_OUTER-FORWARD TIP WIPE)
(BEGINNING LAYER: 18)
G01 Z1.1500 F59.0551 (TRAVEL-Lift Tip For Travel)
G00 X1.3713 Y0.0000 (TRAVEL)
G1 Z0.9000 (TRAVEL-Lower Tip)
(TYPE:VOLUME)
M03 S40 (Turn Spindle ON)
G04 P80 (Dwell)
M03 S75 (Change Spindle Speed)
G1 F115.7480 X2.5605 Y-2.0599 (VOLUME-WALL_OUTER)
G1 X4.9395 Y-2.0599 (VOLUME-WALL_OUTER)
G1 X6.1287 Y0.0000 (VOLUME-WALL_OUTER)
G1 X4.9395 Y2.0599 (VOLUME-WALL_OUTER)
G1 X2.5605 Y2.0599 (VOLUME-WALL_OUTER)
G1 X1.3713 Y0.0000 (VOLUME-WALL_OUTER)
M05 (Stop Spindle)
G1 F132.2835 X1.8713 Y-0.8661 (VOLUME-WALL_OUTER-FORWARD TIP WIPE)
G01 Z1.1500 F59.0551 (TRAVEL-Lift Tip For Travel)
G00 X-1.9065 Y-0.8201 (TRAVEL)
G1 Z0.9000 (TRAVEL-Lower Tip)
(TYPE:VOLUME)
M03 S40 (Turn Spindle ON)
G04 P80 (Dwell)
M03 S75 (Change Spindle Speed)
G1 F115.7480 X-1.9065 Y0.8296 (VOLUME-WALL_OUTER)
G1 X-3.3349 Y1.6543 (VOLUME-WALL_OUTER)
G1 X-4.7633 Y0.8296 (VOLUME-WALL_OUTER)
G1 X-4.7633 Y-0.8201 (VOLUME-WALL_OUTER)
G1 X-3.3349 Y-1.6448 (VOLUME-WALL_OUTER)
G1 X-1.9065 Y-0.8201 (VOLUME-WALL_OUTER)
M05 (Stop Spindle)
G1 F132.2835 X-1.9065 Y0.1799 (VOLUME-WALL_OUTER-FORWARD TIP WIPE)
(BEGINNING LAYER: 19)
G01 Z1.2000 F59.0551 (TRAVEL-Lift Tip For Travel)
G00 X1.3713 Y0.0000 (TRAVEL)
G1 Z0.9500 (TRAVEL-Lower Tip)
(TYPE:VOLUME)
M03 S40 (Turn Spindle ON)
G04 P80 (Dwell)
M03 S75 (Change Spindle Speed)
G1 F115.7480 X2.5605 Y-2.0599 (VOLUME-WALL_OUTER)
G1 X4.9395 Y-2.0599 (VOLUME-WALL_OUTER)
G1 X6.1287 Y0.0000 (VOLUME-WALL_OUTER)
G1 X4.9395 Y2.0599 (VOLUME-WALL_OUTER)
G1 X2.5605 Y2.0599 (VOLUME-WALL_OUTER)
G1 X1.3713 Y0.0000 (VOLUME-WALL_OUTER)
M05 (Stop Spindle)
G1 F132.2835 X1.8713 Y-0.8661 (VOLUME-WALL_OUTER-FORWARD TIP WIPE)
G01 Z1.2000 F59.0551 (TRAVEL-Lift Tip For Travel)
G00 X-1.9426 Y-0.7993 (TRAVEL)
G1 Z0.9500 (TRAVEL-Lower Tip)
(TYPE:VOLUME)
M03 S40 (Turn Spindle ON)
G04 P80 (Dwell)
M03 S75 (Change Spindle Speed)
G1 F115.7480 X-1.9426 Y0.8088 (VOLUME-WALL_OUTER)
G1 X-3.3349 Y1.6126 (VOLUME-WALL_OUTER)
G1 X-4.7273 Y0.8088 (VOLUME-WALL_OUTER)
G1 X-4.7273 Y-0.7993 (VOLUME-WALL_OUTER)
G1 X-3.3349 Y-1.6031 (VOLUME-WALL_OUTER)
G1 X-1.9426 Y-0.7993 (VOLUME-WALL_OUTER)
M05 (Stop Spindle)
G1 F132.2835 X-1.9426 Y0.2007 (VOLUME-WALL_OUTER-FORWARD TIP WIPE)
(BEGINNING LAYER: 20)
G01 Z1.2500 F59.0551 (TRAVEL-Lift Tip For Travel)
G00 X1.3713 Y0.0000 (TRAVEL)
G1 Z1.0000 (TRAVEL-Lower Tip)
(TYPE:VOLUME)
M03 S40 (Turn Spindle ON)
G04 P80 (Dwell)
M03 S75 (Change Spindle Speed)
G1 F115.7480 X2.5605 Y-2.0599 (VOLUME-WALL_OUTER)
G1 X4.9395 Y-2.0599 (VOLUME-WALL_OUTER)
G1 X6.1287 Y0.0000 (VOLUME-WALL_OUTER)
G1 X4.9395 Y2.0599 (VOLUME-WALL_OUTER)
G1 X2.5605 Y2.0599 (VOLUME-WALL_OUTER)
G1 X1.3713 Y0.0000 (VOLUME-WALL_OUTER)
M05 (Stop Spindle)
G1 F132.2835 X1.8713 Y-0.8661 (VOLUME-WALL_OUTER-FORWARD TIP WIPE)
G01 Z1.2500 F59.0551 (TRAVEL-Lift Tip For Travel)
G00 X-1.9786 Y-0.7785 (TRAVEL)
G1 Z1.0000 (TRAVEL-Lower Tip)
(TYPE:VOLUME)
M03 S40 (Turn Spindle ON)
G04 P80 (Dwell)
M03 S75 (Change Spindle Speed)
G1 F115.7480 X-1.9786 Y0.7880 (VOLUME-WALL_OUTER)
G1 X-3.3349 Y1.5709 (VOLUME-WALL_OUTER)
G1 X-4.6912 Y0.7880 (VOLUME-WALL_OUTER)
G1 X-4.6912 Y-0.7785 (VOLUME-WALL_OUTER)
G1 X-3.3349 Y-1.5614 (VOLUME-WALL_OUTER)
G1 X-1.9786 Y-0.7785 (VOLUME-WALL_OUTER)
M05 (Stop Spindle)
G1 F132.2835 X-1.9786 Y0.2215 (VOLUME-WALL_OUTER-FORWARD TIP WIPE)
(BEGINNING LAYER: 21)
G01 Z1.3000 F59.0551 (TRAVEL-Lift Tip For Travel)
G00 X1.3713 Y0.0000 (TRAVEL)
G1 Z1.0500 (TRAVEL-Lower Tip)
(TYPE:VOLUME)
M03 S40 (Turn Spindle ON)
G04 P80 (Dwell)
M03 S75 (Change Spindle Speed)
G1 F115.7480 X2.5605 Y-2.0599 (VOLUME-WALL_OUTER)
G1 X4.9395 Y-2.0599 (VOLUME-WALL_OUTER)
G1 X6.1287 Y0.0000 (VOLUME-WALL_OUTER)
G1 X4.9395 Y2.0599 (VOLUME-WALL_OUTER)
G1 X2.5605 Y2.0599 (VOLUME-WALL_OUTER)
G1 X1.3713 Y0.0000 (VOLUME-WALL_OUTER)
M05 (Stop Spindle)
G1 F132.2835 X1.8713 Y-0.8661 (VOLUME-WALL_OUTER-FORWARD TIP WIPE)
G01 Z1.3000 F59.0551 (TRAVEL-Lift Tip For Travel)
G00 X-2.0147 Y-0.7576 (TRAVEL)
G1 Z1.0500 (TRAVEL-Lower Tip)
(TYPE:VOLUME)
M03 S40 (Turn Spindle ON)
G04 P80 (Dwell)
M03 S75 (Change Spindle Speed)
G1 F115.7480 X-2.0147 Y0.7671 (VOLUME-WALL_OUTER)
G1 X-3.3349 Y1.5293 (VOLUME-WALL_OUTER)
G1 X-4.6551 Y0.7671 (VOLUME-WALL_OUTER)
G1 X-4.6551 Y-0.7576 (VOLUME-WALL_OUTER)
G1 X-3.3349 Y-1.5198 (VOLUME-WALL_OUTER)
G1 X-2.0147 Y-0.7576 (VOLUME-WALL_OUTER)
M05 (Stop Spindle)
G1 F132.2835 X-2.0147 Y0.2424 (VOLUME-WALL_OUTER-FORWARD TIP WIPE)
(BEGINNING LAYER: 22)
G01 Z1.3500 F59.0551 (TRAVEL-Lift Tip For Travel)
G00 X1.3713 Y0.0000 (TRAVEL)
G1 Z1.1000 (TRAVEL-Lower Tip)
(TYPE:VOLUME)
M03 S40 (Turn Spindle ON)
G04 P80 (Dwell)
M03 S75 (Change Spindle Speed)
G1 F115.7480 X2.5605 Y-2.0599 (VOLUME-WALL_OUTER)
G1 X4.9395 Y-2.0599 (VOLUME-WALL_OUTER)
G1 X6.1287 Y0.0000 (VOLUME-WALL_OUTER)
G1 X4.9395 Y2.0599 (VOLUME-WALL_OUTER)
G1 X2.5605 Y2.0599 (VOLUME-WALL_OUTER)
G1 X1.3713 Y0.0000 (VOLUME-WALL_OUTER)
M05 (Stop Spindle)
G1 F132.2835 X1.8713 Y-0.8661 (VOLUME-WALL_OUTER-FORWARD TIP WIPE)
G01 Z1.3500 F59.0551 (TRAVEL-Lift Tip For Travel)
G00 X-2.0508 Y-0.7368 (TRAVEL)
G1 Z1.1000 (TRAVEL-Lower Tip)
(TYPE:VOLUME)
M03 S40 (Turn Spindle ON)
G04 P80 (Dwell)
M03 S75 (Change Spindle Speed)
G1 F115.7480 X-2.0508 Y0.7463 (VOLUME-WALL_OUTER)
G1 X-3.3349 Y1.4876 (VOLUME-WALL_OUTER)
G1 X-4.6190 Y0.7463 (VOLUME-WALL_OUTER)
G1 X-4.6190 Y-0.7368 (VOLUME-WALL_OUTER)
G1 X-3.3349 Y-1.4781 (VOLUME-WALL_OUTER)
G1 X-2.0508 Y-0.7368 (VOLUME-WALL_OUTER)
M05 (Stop Spindle)
G1 F132.2835 X-2.0508 Y0.2632 (VOLUME-WALL_OUTER-FORWARD TIP WIPE)
(BEGINNING LAYER: 23)
G01 Z1.4000 F59.0551 (TRAVEL-Lift Tip For Travel)
G00 X1.3713 Y0.0000 (TRAVEL)
G1 Z1.1500 (TRAVEL-Lower Tip)
(TYPE:VOLUME)
M03 S40 (Turn Spindle ON)
G04 P80 (Dwell)
M03 S75 (Change Spindle Speed)
G1 F115.7480 X2.5605 Y-2.0599 (VOLUME-WALL_OUTER)
G1 X4.9395 Y-2.0599 (VOLUME-WALL_OUTER)
G1 X6.1287 Y0.0000 (VOLUME-WALL_OUTER)
G1 X4.9395 Y2.0599 (VOLUME-WALL_OUTER)
G1 X2.5605 Y2.0599 (VOLUME-WALL_OUTER)
G1 X1.3713 Y0.0000 (VOLUME-WALL_OUTER)
M05 (Stop Spindle)
G1 F132.2835 X1.8713 Y-0.8661 (VOLUME-WALL_OUTER-FORWARD TIP WIPE)
G01 Z1.4000 F59.0551 (TRAVEL-Lift Tip For Travel)
G00 X-2.0869 Y-0.7160 (TRAVEL)
G1 Z1.1500 (TRAVEL-Lower Tip)
(TYPE:VOLUME)
M03 S40 (Turn Spindle ON)
G04 P80 (Dwell)
M03 S75 (Change Spindle Speed)
G1 F115.7480 X-2.0869 Y0.7254 (VOLUME-WALL_OUTER)
G1 X-3.3349 Y1.4459 (VOLUME-WALL_OUTER)
G1 X-4.5830 Y0.7254 (VOLUME-WALL_OUTER)
G1 X-4.5830 Y-0.7160 (VOLUME-WALL_OUTER)
G1 X-3.3349 Y-1.4365 (VOLUME-WALL_OUTER)
G1 X-2.0869 Y-0.7160 (VOLUME-WALL_OUTER)
M05 (Stop Spindle)
G1 F132.2835 X-2.0869 Y0.2840 (VOLUME-WALL_OUTER-FORWARD TIP WIPE)
(BEGINNING LAYER: 24)
G01 Z1.4500 F59.0551 (TRAVEL-Lift Tip For Travel)
G00 X1.3713 Y0.0000 (TRAVEL)
G1 Z1.2000 (TRAVEL-Lower Tip)
(TYPE:VOLUME)
M03 S40 (Turn Spindle ON)
G04 P80 (Dwell)
M03 S75 (Change Spindle Speed)
G1 F115.7480 X2.5605 Y-2.0599 (VOLUME-WALL_OUTER)
G1 X4.9395 Y-2.0599 (VOLUME-WALL_OUTER)
G1 X6.1287 Y0.0000 (VOLUME-WALL_OUTER)
G1 X4.9395 Y2.0599 (VOLUME-WALL_OUTER)
G1 X2.5605 Y2.0599 (VOLUME-WALL_OUTER)
G1 X1.3713 Y0.0000 (VOLUME-WALL_OUTER)
M05 (Stop Spindle)
G1 F132.2835 X1.8713 Y-0.8661 (VOLUME-WALL_OUTER-FORWARD TIP WIPE)
G01 Z1.4500 F59.0551 (TRAVEL-Lift Tip For Travel)
G00 X-2.1230 Y-0.6951 (TRAVEL)
G1 Z1.2000 (TRAVEL-Lower Tip)
(TYPE:VOLUME)
M03 S40 (Turn Spindle ON)
G04 P80 (Dwell)
M03 S75 (Change Spindle Speed)
G1 F115.7480 X-2.1230 Y0.7046 (VOLUME-WALL_OUTER)
G1 X-3.3349 Y1.4043 (VOLUME-WALL_OUTER)
G1 X-4.5469 Y0.7046 (VOLUME-WALL_OUTER)
G1 X-4.5469 Y-0.6951 (VOLUME-WALL_OUTER)
G1 X-3.3349 Y-1.3948 (VOLUME-WALL_OUTER)
G1 X-2.1230 Y-0.6951 (VOLUME-WALL_OUTER)
M05 (Stop Spindle)
G1 F132.2835 X-2.1230 Y0.3049 (VOLUME-WALL_OUTER-FORWARD TIP WIPE)
(BEGINNING LAYER: 25)
G01 Z1.5000 F59.0551 (TRAVEL-Lift Tip For Travel)
G00 X1.3713 Y0.0000 (TRAVEL)
G1 Z1.2500 (TRAVEL-Lower Tip)
(TYPE:VOLUME)
M03 S40 (Turn Spindle ON)
G04 P80 (Dwell)
M03 S75 (Change Spindle Speed)
G1 F115.7480 X2.5605 Y-2.0599 (VOLUME-WALL_OUTER)
G1 X4.9395 Y-2.0599 (VOLUME-WALL_OUTER)
G1 X6.1287 Y0.0000 (VOLUME-WALL_OUTER)
G1 X4.9395 Y2.0599 (VOLUME-WALL_OUTER)
G1 X2.5605 Y2.0599 (VOLUME-WALL_OUTER)
G1 X1.3713 Y0.0000 (VOLUME-WALL_OUTER)
M05 (Stop Spindle)
G1 F132.2835 X1.8713 Y-0.8661 (VOLUME-WALL_OUTER-FORWARD TIP WIPE)
G01 Z1.5000 F59.0551 (TRAVEL-Lift Tip For Travel)
G00 X-2.1591 Y-0.6743 (TRAVEL)
G1 Z1.2500 (TRAVEL-Lower Tip)
(TYPE:VOLUME)
M03 S40 (Turn Spindle ON)
G04 P80 (Dwell)
M03 S75 (Change Spindle Speed)
G1 F115.7480 X-2.1591 Y0.6838 (VOLUME-WALL_OUTER)
G1 X-3.3349 Y1.3626 (VOLUME-WALL_OUTER)
G1 X-4.5107 Y0.6838 (VOLUME-WALL_OUTER)
G1 X-4.5107 Y-0.6743 (VOLUME-WALL_OUTER)
G1 X-3.3349 Y-1.3531 (VOLUME-WALL_OUTER)
G1 X-2.1591 Y-0.6743 (VOLUME-WALL_OUTER)
M05 (Stop Spindle)
G1 F132.2835 X-2.1591 Y0.3257 (VOLUME-WALL_OUTER-FORWARD TIP WIPE)
(BEGINNING LAYER: 26)
G01 Z1.5500 F59.0551 (TRAVEL-Lift Tip For Travel)
G00 X1.3713 Y0.0000 (TRAVEL)
G1 Z1.3000 (TRAVEL-Lower Tip)
(TYPE:VOLUME)
M03 S40 (Turn Spindle ON)
G04 P80 (Dwell)
M03 S75 (Change Spindle Speed)
G1 F115.7480 X2.5605 Y-2.0599 (VOLUME-WALL_OUTER)
G1 X4.9395 Y-2.0599 (VOLUME-WALL_OUTER)
G1 X6.1287 Y0.0000 (VOLUME-WALL_OUTER)
G1 X4.9395 Y2.0599 (VOLUME-WALL_OUTER)
G1 X2.5605 Y2.0599 (VOLUME-WALL_OUTER)
G1 X1.3713 Y0.0000 (VOLUME-WALL_OUTER)
M05 (Stop Spindle)
G1 F132.2835 X1.8713 Y-0.8661 (VOLUME-WALL_OUTER-FORWARD TIP WIPE)
G01 Z1.5500 F59.0551 (TRAVEL-Lift Tip For Travel)
G00 X-2.1952 Y-0.6535 (TRAVEL)
G1 Z1.3000 (TRAVEL-Lower Tip)
(TYPE:VOLUME)
M03 S40 (Turn Spindle ON)
G04 P80 (Dwell)
M03 S75 (Change Spindle Speed)
G1 F115.7480 X-2.1952 Y0.6630 (VOLUME-WALL_OUTER)
G1 X-3.3349 Y1.3209 (VOLUME-WALL_OUTER)
G1 X-4.4747 Y0.6630 (VOLUME-WALL_OUTER)
G1 X-4.4747 Y-0.6535 (VOLUME-WALL_OUTER)
G1 X-3.3349 Y-1.3114 (VOLUME-WALL_OUTER)
G1 X-2.1952 Y-0.6535 (VOLUME-WALL_OUTER)
M05 (Stop Spindle)
G1 F132.2835 X-2.1952 Y0.3465 (VOLUME-WALL_OUTER-FORWARD TIP WIPE)
(BEGINNING LAYER: 27)
G01 Z1.6000 F59.0551 (TRAVEL-Lift Tip For Travel)
G00 X1.3713 Y0.0000 (TRAVEL)
G1 Z1.3500 (TRAVEL-Lower Tip)
(TYPE:VOLUME)
M03 S40 (Turn Spindle ON)
G04 P80 (Dwell)
M03 S75 (Change Spindle Speed)
G1 F115.7480 X2.5605 Y-2.0599 (VOLUME-WALL_OUTER)
G1 X4.9395 Y-2.0599 (VOLUME-WALL_OUTER)
G1 X6.1287 Y0.0000 (VOLUME-WALL_OUTER)
G1 X4.9395 Y2.0599 (VOLUME-WALL_OUTER)
G1 X2.5605 Y2.0599 (VOLUME-WALL_OUTER)
G1 X1.3713 Y0.0000 (VOLUME-WALL_OUTER)
M05 (Stop Spindle)
G1 F132.2835 X1.8713 Y-0.8661 (VOLUME-WALL_OUTER-FORWARD TIP WIPE)
G01 Z1.6000 F59.0551 (TRAVEL-Lift Tip For Travel)
G00 X-2.2312 Y-0.6326 (TRAVEL)
G1 Z1.3500 (TRAVEL-Lower Tip)
(TYPE:VOLUME)
M03 S40 (Turn Spindle ON)
G04 P80 (Dwell)
M03 S75 (Change Spindle Speed)
G1 F115.7480 X-2.2312 Y0.6421 (VOLUME-WALL_OUTER)
G1 X-3.3349 Y1.2793 (VOLUME-WALL_OUTER)
G1 X-4.4386 Y0.6421 (VOLUME-WALL_OUTER)
G1 X-4.4386 Y-0.6326 (VOLUME-WALL_OUTER)
G1 X-3.3349 Y-1.2698 (VOLUME-WALL_OUTER)
G1 X-2.2312 Y-0.6326 (VOLUME-WALL_OUTER)
M05 (Stop Spindle)
G1 F132.2835 X-2.2312 Y0.3674 (VOLUME-WALL_OUTER-FORWARD TIP WIPE)
(BEGINNING LAYER: 28)
G01 Z1.6500 F59.0551 (TRAVEL-Lift Tip For Travel)
G00 X1.3713 Y0.0000 (TRAVEL)
G1 Z1.4000 (TRAVEL-Lower Tip)
(TYPE:VOLUME)
M03 S40 (Turn Spindle ON)
G04 P80 (Dwell)
M03 S75 (Change Spindle Speed)
G1 F115.7480 X2.5605 Y-2.0599 (VOLUME-WALL_OUTER)
G1 X4.9395 Y-2.0599 (VOLUME-WALL_OUTER)
G1 X6.1287 Y0.0000 (VOLUME-WALL_OUTER)
G1 X4.9395 Y2.0599 (VOLUME-WALL_OUTER)
G1 X2.5605 Y2.0599 (VOLUME-WALL_OUTER)
G1 X1.3713 Y0.0000 (VOLUME-WALL_OUTER)
M05 (Stop Spindle)
G1 F132.2835 X1.8713 Y-0.8661 (VOLUME-WALL_OUTER-FORWARD TIP WIPE)
G01 Z1.6500 F59.0551 (TRAVEL-Lift Tip For Travel)
G00 X-2.2673 Y-0.6118 (TRAVEL)
G1 Z1.4000 (TRAVEL-Lower Tip)
(TYPE:VOLUME)
M03 S40 (Turn Spindle ON)
G04 P80 (Dwell)
M03 S75 (Change Spindle Speed)
G1 F115.7480 X-2.2673 Y0.6213 (VOLUME-WALL_OUTER)
G1 X-3.3349 Y1.2376 (VOLUME-WALL_OUTER)
G1 X-4.4025 Y0.6213 (VOLUME-WALL_OUTER)
G1 X-4.4025 Y-0.6118 (VOLUME-WALL_OUTER)
G1 X-3.3349 Y-1.2281 (VOLUME-WALL_OUTER)
G1 X-2.2673 Y-0.6118 (VOLUME-WALL_OUTER)
M05 (Stop Spindle)
G1 F132.2835 X-2.2673 Y0.3882 (VOLUME-WALL_OUTER-FORWARD TIP WIPE)
(BEGINNING LAYER: 29)
G01 Z1.7000 F59.0551 (TRAVEL-Lift Tip For Travel)
G00 X1.3713 Y0.0000 (TRAVEL)
G1 Z1.4500 (TRAVEL-Lower Tip)
(TYPE:VOLUME)
M03 S40 (Turn Spindle ON)
G04 P80 (Dwell)
M03 S75 (Change Spindle Speed)
G1 F115.7480 X2.5605 Y-2.0599 (VOLUME-WALL_OUTER)
G1 X4.9395 Y-2.0599 (VOLUME-WALL_OUTER)
G1 X6.1287 Y0.0000 (VOLUME-WALL_OUTER)
G1 X4.9395 Y2.0599 (VOLUME-WALL_OUTER)
G1 X2.5605 Y2.0599 (VOLUME-WALL_OUTER)
G1 X1.3713 Y0.0000 (VOLUME-WALL_OUTER)
M05 (Stop Spindle)
G1 F132.2835 X1.8713 Y-0.8661 (VOLUME-WALL_OUTER-FORWARD TIP WIPE)
G01 Z1.7000 F59.0551 (TRAVEL-Lift Tip For Travel)
G00 X-2.3034 Y-0.5910 (TRAVEL)
G1 Z1.4500 (TRAVEL-Lower Tip)
(TYPE:VOLUME)
M03 S40 (Turn Spindle ON)
G04 P80 (Dwell)
M03 S75 (Change Spindle Speed)
G1 F115.7480 X-2.3034 Y0.6004 (VOLUME-WALL_OUTER)
G1 X-3.3349 Y1.1959 (VOLUME-WALL_OUTER)
G1 X-4.3664 Y0.6004 (VOLUME-WALL_OUTER)
G1 X-4.3664 Y-0.5910 (VOLUME-WALL_OUTER)
G1 X-3.3349 Y-1.1865 (VOLUME-WALL_OUTER)
G1 X-2.3034 Y-0.5910 (VOLUME-WALL_OUTER)
M05 (Stop Spindle)
G1 F132.2835 X-2.3034 Y0.4090 (VOLUME-WALL_OUTER-FORWARD TIP WIPE)
(BEGINNING LAYER: 30)
G01 Z1.7500 F59.0551 (TRAVEL-Lift Tip For Travel)
G00 X1.3713 Y0.0000 (TRAVEL)
G1 Z1.5000 (TRAVEL-Lower Tip)
(TYPE:VOLUME)
M03 S40 (Turn Spindle ON)
G04 P80 (Dwell)
M03 S75 (Change Spindle Speed)
G1 F115.7480 X2.5605 Y-2.0599 (VOLUME-WALL_OUTER)
G1 X4.9395 Y-2.0599 (VOLUME-WALL_OUTER)
G1 X6.1287 Y0.0000 (VOLUME-WALL_OUTER)
G1 X4.9395 Y2.0599 (VOLUME-WALL_OUTER)
G1 X2.5605 Y2.0599 (VOLUME-WALL_OUTER)
G1 X1.3713 Y0.0000 (VOLUME-WALL_OUTER)
M05 (Stop Spindle)
G1 F132.2835 X1.8713 Y-0.8661 (VOLUME-WALL_OUTER-FORWARD TIP WIPE)
G01 Z1.7500 F59.0551 (TRAVEL-Lift Tip For Travel)
G00 X-2.3395 Y-0.5702 (TRAVEL)
G1 Z1.5000 (TRAVEL-Lower Tip)
(TYPE:VOLUME)
M03 S40 (Turn Spindle ON)
G04 P80 (Dwell)
M03 S75 (Change Spindle Speed)
G1 F115.7480 X-2.3395 Y0.5796 (VOLUME-WALL_OUTER)
G1 X-3.3349 Y1.1543 (VOLUME-WALL_OUTER)
G1 X-4.3304 Y0.5796 (VOLUME-WALL_OUTER)
G1 X-4.3304 Y-0.5702 (VOLUME-WALL_OUTER)
G1 X-3.3349 Y-1.1448 (VOLUME-WALL_OUTER)
G1 X-2.3395 Y-0.5702 (VOLUME-WALL_OUTER)
M05 (Stop Spindle)
G1 F132.2835 X-2.3395 Y0.4298 (VOLUME-WALL_OUTER-FORWARD TIP WIPE)
(BEGINNING LAYER: 31)
G01 Z1.8000 F59.0551 (TRAVEL-Lift Tip For Travel)
G00 X1.3713 Y0.0000 (TRAVEL)
G1 Z1.5500 (TRAVEL-Lower Tip)
(TYPE:VOLUME)
M03 S40 (Turn Spindle ON)
G04 P80 (Dwell)
M03 S75 (Change Spindle Speed)
G1 F115.7480 X2.5605 Y-2.0599 (VOLUME-WALL_OUTER)
G1 X4.9395 Y-2.0599 (VOLUME-WALL_OUTER)
G1 X6.1287 Y0.0000 (VOLUME-WALL_OUTER)
G1 X4.9395 Y2.0599 (VOLUME-WALL_OUTER)
G1 X2.5605 Y2.0599 (VOLUME-WALL_OUTER)
G1 X1.3713 Y0.0000 (VOLUME-WALL_OUTER)
M05 (Stop Spindle)
G1 F132.2835 X1.8713 Y-0.8661 (VOLUME-WALL_OUTER-FORWARD TIP WIPE)
G01 Z1.8000 F59.0551 (TRAVEL-Lift Tip For Travel)
G00 X-2.3756 Y-0.5493 (TRAVEL)
G1 Z1.5500 (TRAVEL-Lower Tip)
(TYPE:VOLUME)
M03 S40 (Turn Spindle ON)
G04 P80 (Dwell)
M03 S75 (Change Spindle Speed)
G1 F115.7480 X-2.3756 Y0.5588 (VOLUME-WALL_OUTER)
G1 X-3.3349 Y1.1126 (VOLUME-WALL_OUTER)
G1 X-4.2943 Y0.5588 (VOLUME-WALL_OUTER)
G1 X-4.2943 Y-0.5493 (VOLUME-WALL_OUTER)
G1 X-3.3349 Y-1.1031 (VOLUME-WALL_OUTER)
G1 X-2.3756 Y-0.5493 (VOLUME-WALL_OUTER)
M05 (Stop Spindle)
G1 F132.2835 X-2.3756 Y0.4507 (VOLUME-WALL_OUTER-FORWARD TIP WIPE)
(BEGINNING LAYER: 32)
G01 Z1.8500 F59.0551 (TRAVEL-Lift Tip For Travel)
G00 X1.3713 Y0.0000 (TRAVEL)
G1 Z1.6000 (TRAVEL-Lower Tip)
(TYPE:VOLUME)
M03 S40 (Turn Spindle ON)
G04 P80 (Dwell)
M03 S75 (Change Spindle Speed)
G1 F115.7480 X2.5605 Y-2.0599 (VOLUME-WALL_OUTER)
G1 X4.9395 Y-2.0599 (VOLUME-WALL_OUTER)
G1 X6.1287 Y0.0000 (VOLUME-WALL_OUTER)
G1 X4.9395 Y2.0599 (VOLUME-WALL_OUTER)
G1 X2.5605 Y2.0599 (VOLUME-WALL_OUTER)
G1 X1.3713 Y0.0000 (VOLUME-WALL_OUTER)
M05 (Stop Spindle)
G1 F132.2835 X1.8713 Y-0.8661 (VOLUME-WALL_OUTER-FORWARD TIP WIPE)
G01 Z1.8500 F59.0551 (TRAVEL-Lift Tip For Travel)
G00 X-2.4117 Y-0.5285 (TRAVEL)
G1 Z1.6000 (TRAVEL-Lower Tip)
(TYPE:VOLUME)
M03 S40 (Turn Spindle ON)
G04 P80 (Dwell)
M03 S75 (Change Spindle Speed)
G1 F115.7480 X-2.4117 Y0.5380 (VOLUME-WALL_OUTER)
G1 X-3.3349 Y1.0709 (VOLUME-WALL_OUTER)
G1 X-4.2582 Y0.5380 (VOLUME-WALL_OUTER)
G1 X-4.2582 Y-0.5285 (VOLUME-WALL_OUTER)
G1 X-3.3349 Y-1.0615 (VOLUME-WALL_OUTER)
G1 X-2.4117 Y-0.5285 (VOLUME-WALL_OUTER)
M05 (Stop Spindle)
G1 F132.2835 X-2.4117 Y0.4715 (VOLUME-WALL_OUTER-FORWARD TIP WIPE)
(BEGINNING LAYER: 33)
G01 Z1.9000 F59.0551 (TRAVEL-Lift Tip For Travel)
G00 X1.3713 Y0.0000 (TRAVEL)
G1 Z1.6500 (TRAVEL-Lower Tip)
(TYPE:VOLUME)
M03 S40 (Turn Spindle ON)
G04 P80 (Dwell)
M03 S75 (Change Spindle Speed)
G1 F115.7480 X2.5605 Y-2.0599 (VOLUME-WALL_OUTER)
G1 X4.9395 Y-2.0599 (VOLUME-WALL_OUTER)
G1 X6.1287 Y0.0000 (VOLUME-WALL_OUTER)
G1 X4.9395 Y2.0599 (VOLUME-WALL_OUTER)
G1 X2.5605 Y2.0599 (VOLUME-WALL_OUTER)
G1 X1.3713 Y0.0000 (VOLUME-WALL_OUTER)
M05 (Stop Spindle)
G1 F132.2835 X1.8713 Y-0.8661 (VOLUME-WALL_OUTER-FORWARD TIP WIPE)
G01 Z1.9000 F59.0551 (TRAVEL-Lift Tip For Travel)
G00 X-2.4477 Y-0.5076 (TRAVEL)
G1 Z1.6500 (TRAVEL-Lower Tip)
(TYPE:VOLUME)
M03 S40 (Turn Spindle ON)
G04 P80 (Dwell)
M03 S75 (Change Spindle Speed)
G1 F115.7480 X-2.4477 Y0.5171 (VOLUME-WALL_OUTER)
G1 X-3.3349 Y1.0293 (VOLUME-WALL_OUTER)
G1 X-4.2221 Y0.5171 (VOLUME-WALL_OUTER)
G1 X-4.2221 Y-0.5076 (VOLUME-WALL_OUTER)
G1 X-3.3349 Y-1.0198 (VOLUME-WALL_OUTER)
G1 X-2.4477 Y-0.5076 (VOLUME-WALL_OUTER)
M05 (Stop Spindle)
G1 F132.2835 X-2.4477 Y0.4924 (VOLUME-WALL_OUTER-FORWARD TIP WIPE)
(BEGINNING LAYER: 34)
G01 Z1.9500 F59.0551 (TRAVEL-Lift Tip For Travel)
G00 X1.3713 Y0.0000 (TRAVEL)
G1 Z1.7000 (TRAVEL-Lower Tip)
(TYPE:VOLUME)
M03 S40 (Turn Spindle ON)
G04 P80 (Dwell)
M03 S75 (Change Spindle Speed)
G1 F115.7480 X2.5605 Y-2.0599 (VOLUME-WALL_OUTER)
G1 X4.9395 Y-2.0599 (VOLUME-WALL_OUTER)
G1 X6.1287 Y0.0000 (VOLUME-WALL_OUTER)
G1 X4.9395 Y2.0599 (VOLUME-WALL_OUTER)
G1 X2.5605 Y2.0599 (VOLUME-WALL_OUTER)
G1 X1.3713 Y0.0000 (VOLUME-WALL_OUTER)
M05 (Stop Spindle)
G1 F132.2835 X1.8713 Y-0.8661 (VOLUME-WALL_OUTER-FORWARD TIP WIPE)
G01 Z1.9500 F59.0551 (TRAVEL-Lift Tip For Travel)
G00 X-2.4838 Y-0.4868 (TRAVEL)
G1 Z1.7000 (TRAVEL-Lower Tip)
(TYPE:VOLUME)
M03 S40 (Turn Spindle ON)
G04 P80 (Dwell)
M03 S75 (Change Spindle Speed)
G1 F115.7480 X-2.4838 Y0.4963 (VOLUME-WALL_OUTER)
G1 X-3.3349 Y0.9876 (VOLUME-WALL_OUTER)
G1 X-4.1860 Y0.4963 (VOLUME-WALL_OUTER)
G1 X-4.1860 Y-0.4868 (VOLUME-WALL_OUTER)
G1 X-3.3349 Y-0.9781 (VOLUME-WALL_OUTER)
G1 X-2.4838 Y-0.4868 (VOLUME-WALL_OUTER)
M05 (Stop Spindle)
G1 F132.2835 X-2.4838 Y0.4963 (VOLUME-WALL_OUTER-FORWARD TIP WIPE)
G1 X-2.4985 Y0.5048 (VOLUME-WALL_OUTER-FORWARD TIP WIPE)
(BEGINNING LAYER: 35)
G01 Z2.0000 F59.0551 (TRAVEL-Lift Tip For Travel)
G00 X1.3713 Y0.0000 (TRAVEL)
G1 Z1.7500 (TRAVEL-Lower Tip)
(TYPE:VOLUME)
M03 S40 (Turn Spindle ON)
G04 P80 (Dwell)
M03 S75 (Change Spindle Speed)
G1 F115.7480 X2.5605 Y-2.0599 (VOLUME-WALL_OUTER)
G1 X4.9395 Y-2.0599 (VOLUME-WALL_OUTER)
G1 X6.1287 Y0.0000 (VOLUME-WALL_OUTER)
G1 X4.9395 Y2.0599 (VOLUME-WALL_OUTER)
G1 X2.5605 Y2.0599 (VOLUME-WALL_OUTER)
G1 X1.3713 Y0.0000 (VOLUME-WALL_OUTER)
M05 (Stop Spindle)
G1 F132.2835 X1.8713 Y-0.8661 (VOLUME-WALL_OUTER-FORWARD TIP WIPE)
G01 Z2.0000 F59.0551 (TRAVEL-Lift Tip For Travel)
G00 X-2.5199 Y-0.4660 (TRAVEL)
G1 Z1.7500 (TRAVEL-Lower Tip)
(TYPE:VOLUME)
M03 S40 (Turn Spindle ON)
G04 P80 (Dwell)
M03 S75 (Change Spindle Speed)
G1 F115.7480 X-2.5199 Y0.4754 (VOLUME-WALL_OUTER)
G1 X-3.3349 Y0.9459 (VOLUME-WALL_OUTER)
G1 X-4.1499 Y0.4754 (VOLUME-WALL_OUTER)
G1 X-4.1499 Y-0.4660 (VOLUME-WALL_OUTER)
G1 X-3.3349 Y-0.9365 (VOLUME-WALL_OUTER)
G1 X-2.5199 Y-0.4660 (VOLUME-WALL_OUTER)
M05 (Stop Spindle)
G1 F132.2835 X-2.5199 Y0.4754 (VOLUME-WALL_OUTER-FORWARD TIP WIPE)
G1 X-2.5707 Y0.5048 (VOLUME-WALL_OUTER-FORWARD TIP WIPE)
(BEGINNING LAYER: 36)
G01 Z2.0500 F59.0551 (TRAVEL-Lift Tip For Travel)
G00 X1.3713 Y0.0000 (TRAVEL)
G1 Z1.8000 (TRAVEL-Lower Tip)
(TYPE:VOLUME)
M03 S40 (Turn Spindle ON)
G04 P80 (Dwell)
M03 S75 (Change Spindle Speed)
G1 F115.7480 X2.5605 Y-2.0599 (VOLUME-WALL_OUTER)
G1 X4.9395 Y-2.0599 (VOLUME-WALL_OUTER)
G1 X6.1287 Y0.0000 (VOLUME-WALL_OUTER)
G1 X4.9395 Y2.0599 (VOLUME-WALL_OUTER)
G1 X2.5605 Y2.0599 (VOLUME-WALL_OUTER)
G1 X1.3713 Y0.0000 (VOLUME-WALL_OUTER)
M05 (Stop Spindle)
G1 F132.2835 X1.8713 Y-0.8661 (VOLUME-WALL_OUTER-FORWARD TIP WIPE)
G01 Z2.0500 F59.0551 (TRAVEL-Lift Tip For Travel)
G00 X-2.5560 Y-0.4452 (TRAVEL)
G1 Z1.8000 (TRAVEL-Lower Tip)
(TYPE:VOLUME)
M03 S40 (Turn Spindle ON)
G04 P80 (Dwell)
M03 S75 (Change Spindle Speed)
G1 F115.7480 X-2.5560 Y0.4546 (VOLUME-WALL_OUTER)
G1 X-3.3349 Y0.9043 (VOLUME-WALL_OUTER)
G1 X-4.1139 Y0.4546 (VOLUME-WALL_OUTER)
G1 X-4.1139 Y-0.4452 (VOLUME-WALL_OUTER)
G1 X-3.3349 Y-0.8948 (VOLUME-WALL_OUTER)
G1 X-2.5560 Y-0.4452 (VOLUME-WALL_OUTER)
M05 (Stop Spindle)
G1 F132.2835 X-2.5560 Y0.4546 (VOLUME-WALL_OUTER-FORWARD TIP WIPE)
G1 X-2.6428 Y0.5048 (VOLUME-WALL_OUTER-FORWARD TIP WIPE)
(BEGINNING LAYER: 37)
G01 Z2.1000 F59.0551 (TRAVEL-Lift Tip For Travel)
G00 X1.3713 Y0.0000 (TRAVEL)
G1 Z1.8500 (TRAVEL-Lower Tip)
(TYPE:VOLUME)
M03 S40 (Turn Spindle ON)
G04 P80 (Dwell)
M03 S75 (Change Spindle Speed)
G1 F115.7480 X2.5605 Y-2.0599 (VOLUME-WALL_OUTER)
G1 X4.9395 Y-2.0599 (VOLUME-WALL_OUTER)
G1 X6.1287 Y0.0000 (VOLUME-WALL_OUTER)
G1 X4.9395 Y2.0599 (VOLUME-WALL_OUTER)
G1 X2.5605 Y2.0599 (VOLUME-WALL_OUTER)
G1 X1.3713 Y0.0000 (VOLUME-WALL_OUTER)
M05 (Stop Spindle)
G1 F132.2835 X1.8713 Y-0.8661 (VOLUME-WALL_OUTER-FORWARD TIP WIPE)
G01 Z2.1000 F59.0551 (TRAVEL-Lift Tip For Travel)
G00 X-2.5921 Y-0.4243 (TRAVEL)
G1 Z1.8500 (TRAVEL-Lower Tip)
(TYPE:VOLUME)
M03 S40 (Turn Spindle ON)
G04 P80 (Dwell)
M03 S75 (Change Spindle Speed)
G1 F115.7480 X-2.5921 Y0.4338 (VOLUME-WALL_OUTER)
G1 X-3.3349 Y0.8626 (VOLUME-WALL_OUTER)
G1 X-4.0778 Y0.4338 (VOLUME-WALL_OUTER)
G1 X-4.0778 Y-0.4243 (VOLUME-WALL_OUTER)
G1 X-3.3349 Y-0.8531 (VOLUME-WALL_OUTER)
G1 X-2.5921 Y-0.4243 (VOLUME-WALL_OUTER)
M05 (Stop Spindle)
G1 F132.2835 X-2.5921 Y0.4338 (VOLUME-WALL_OUTER-FORWARD TIP WIPE)
G1 X-2.7150 Y0.5047 (VOLUME-WALL_OUTER-FORWARD TIP WIPE)
(BEGINNING LAYER: 38)
G01 Z2.1500 F59.0551 (TRAVEL-Lift Tip For Travel)
G00 X1.3713 Y0.0000 (TRAVEL)
G1 Z1.9000 (TRAVEL-Lower Tip)
(TYPE:VOLUME)
M03 S40 (Turn Spindle ON)
G04 P80 (Dwell)
M03 S75 (Change Spindle Speed)
G1 F115.7480 X2.5605 Y-2.0599 (VOLUME-WALL_OUTER)
G1 X4.9395 Y-2.0599 (VOLUME-WALL_OUTER)
G1 X6.1287 Y0.0000 (VOLUME-WALL_OUTER)
G1 X4.9395 Y2.0599 (VOLUME-WALL_OUTER)
G1 X2.5605 Y2.0599 (VOLUME-WALL_OUTER)
G1 X1.3713 Y0.0000 (VOLUME-WALL_OUTER)
M05 (Stop Spindle)
G1 F132.2835 X1.8713 Y-0.8661 (VOLUME-WALL_OUTER-FORWARD TIP WIPE)
G01 Z2.1500 F59.0551 (TRAVEL-Lift Tip For Travel)
G00 X-2.6281 Y-0.4035 (TRAVEL)
G1 Z1.9000 (TRAVEL-Lower Tip)
(TYPE:VOLUME)
M03 S40 (Turn Spindle ON)
G04 P80 (Dwell)
M03 S75 (Change Spindle Speed)
G1 F115.7480 X-2.6281 Y0.4130 (VOLUME-WALL_OUTER)
G1 X-3.3349 Y0.8209 (VOLUME-WALL_OUTER)
G1 X-4.0417 Y0.4130 (VOLUME-WALL_OUTER)
G1 X-4.0417 Y-0.4035 (VOLUME-WALL_OUTER)
G1 X-3.3349 Y-0.8115 (VOLUME-WALL_OUTER)
G1 X-2.6281 Y-0.4035 (VOLUME-WALL_OUTER)
M05 (Stop Spindle)
G1 F132.2835 X-2.6281 Y0.4130 (VOLUME-WALL_OUTER-FORWARD TIP WIPE)
G1 X-2.7872 Y0.5048 (VOLUME-WALL_OUTER-FORWARD TIP WIPE)
(BEGINNING LAYER: 39)
G01 Z2.2000 F59.0551 (TRAVEL-Lift Tip For Travel)
G00 X1.3713 Y0.0000 (TRAVEL)
G1 Z1.9500 (TRAVEL-Lower Tip)
(TYPE:VOLUME)
M03 S40 (Turn Spindle ON)
G04 P80 (Dwell)
M03 S75 (Change Spindle Speed)
G1 F115.7480 X2.5605 Y-2.0599 (VOLUME-WALL_OUTER)
G1 X4.9395 Y-2.0599 (VOLUME-WALL_OUTER)
G1 X6.1287 Y0.0000 (VOLUME-WALL_OUTER)
G1 X4.9395 Y2.0599 (VOLUME-WALL_OUTER)
G1 X2.5605 Y2.0599 (VOLUME-WALL_OUTER)
G1 X1.3713 Y0.0000 (VOLUME-WALL_OUTER)
M05 (Stop Spindle)
G1 F132.2835 X1.8713 Y-0.8661 (VOLUME-WALL_OUTER-FORWARD TIP WIPE)
G01 Z2.2000 F59.0551 (TRAVEL-Lift Tip For Travel)
G00 X-2.6643 Y-0.3826 (TRAVEL)
G1 Z1.9500 (TRAVEL-Lower Tip)
(TYPE:VOLUME)
M03 S40 (Turn Spindle ON)
G04 P80 (Dwell)
M03 S75 (Change Spindle Speed)
G1 F115.7480 X-2.6643 Y0.3921 (VOLUME-WALL_OUTER)
G1 X-3.3349 Y0.7793 (VOLUME-WALL_OUTER)
G1 X-4.0056 Y0.3921 (VOLUME-WALL_OUTER)
G1 X-4.0056 Y-0.3826 (VOLUME-WALL_OUTER)
G1 X-3.3349 Y-0.7698 (VOLUME-WALL_OUTER)
G1 X-2.6643 Y-0.3826 (VOLUME-WALL_OUTER)
M05 (Stop Spindle)
G1 F132.2835 X-2.6643 Y0.3921 (VOLUME-WALL_OUTER-FORWARD TIP WIPE)
G1 X-2.8594 Y0.5048 (VOLUME-WALL_OUTER-FORWARD TIP WIPE)
(BEGINNING LAYER: 40)
G01 Z2.2500 F59.0551 (TRAVEL-Lift Tip For Travel)
G00 X1.3713 Y0.0000 (TRAVEL)
G1 Z2.0000 (TRAVEL-Lower Tip)
(TYPE:VOLUME)
M03 S40 (Turn Spindle ON)
G04 P80 (Dwell)
M03 S75 (Change Spindle Speed)
G1 F115.7480 X2.5605 Y-2.0599 (VOLUME-WALL_OUTER)
G1 X4.9395 Y-2.0599 (VOLUME-WALL_OUTER)
G1 X6.1287 Y0.0000 (VOLUME-WALL_OUTER)
G1 X4.9395 Y2.0599 (VOLUME-WALL_OUTER)
G1 X2.5605 Y2.0599 (VOLUME-WALL_OUTER)
G1 X1.3713 Y0.0000 (VOLUME-WALL_OUTER)
M05 (Stop Spindle)
G1 F132.2835 X1.8713 Y-0.8661 (VOLUME-WALL_OUTER-FORWARD TIP WIPE)
G01 Z2.2500 F59.0551 (TRAVEL-Lift Tip For Travel)
G00 X-2.7003 Y-0.3618 (TRAVEL)
G1 Z2.0000 (TRAVEL-Lower Tip)
(TYPE:VOLUME)
M03 S40 (Turn Spindle ON)
G04 P80 (Dwell)
M03 S75 (Change Spindle Speed)
G1 F115.7480 X-2.7003 Y0.3713 (VOLUME-WALL_OUTER)
G1 X-3.3349 Y0.7376 (VOLUME-WALL_OUTER)
G1 X-3.9695 Y0.3713 (VOLUME-WALL_OUTER)
G1 X-3.9695 Y-0.3618 (VOLUME-WALL_OUTER)
G1 X-3.3349 Y-0.7281 (VOLUME-WALL_OUTER)
G1 X-2.7003 Y-0.3618 (VOLUME-WALL_OUTER)
M05 (Stop Spindle)
G1 F132.2835 X-2.7003 Y0.3713 (VOLUME-WALL_OUTER-FORWARD TIP WIPE)
G1 X-2.9315 Y0.5047 (VOLUME-WALL_OUTER-FORWARD TIP WIPE)
(BEGINNING LAYER: 41)
G01 Z2.3000 F59.0551 (TRAVEL-Lift Tip For Travel)
G00 X1.3713 Y0.0000 (TRAVEL)
G1 Z2.0500 (TRAVEL-Lower Tip)
(TYPE:VOLUME)
M03 S40 (Turn Spindle ON)
G04 P80 (Dwell)
M03 S75 (Change Spindle Speed)
G1 F115.7480 X2.5605 Y-2.0599 (VOLUME-WALL_OUTER)
G1 X4.9395 Y-2.0599 (VOLUME-WALL_OUTER)
G1 X6.1287 Y0.0000 (VOLUME-WALL_OUTER)
G1 X4.9395 Y2.0599 (VOLUME-WALL_OUTER)
G1 X2.5605 Y2.0599 (VOLUME-WALL_OUTER)
G1 X1.3713 Y0.0000 (VOLUME-WALL_OUTER)
M05 (Stop Spindle)
G1 F132.2835 X1.8713 Y-0.8661 (VOLUME-WALL_OUTER-FORWARD TIP WIPE)
G01 Z2.3000 F59.0551 (TRAVEL-Lift Tip For Travel)
G00 X-2.7364 Y-0.3410 (TRAVEL)
G1 Z2.0500 (TRAVEL-Lower Tip)
(TYPE:VOLUME)
M03 S40 (Turn Spindle ON)
G04 P80 (Dwell)
M03 S75 (Change Spindle Speed)
G1 F115.7480 X-2.7364 Y0.3504 (VOLUME-WALL_OUTER)
G1 X-3.3349 Y0.6959 (VOLUME-WALL_OUTER)
G1 X-3.9334 Y0.3504 (VOLUME-WALL_OUTER)
G1 X-3.9334 Y-0.3410 (VOLUME-WALL_OUTER)
G1 X-3.3349 Y-0.6865 (VOLUME-WALL_OUTER)
G1 X-2.7364 Y-0.3410 (VOLUME-WALL_OUTER)
M05 (Stop Spindle)
G1 F132.2835 X-2.7364 Y0.3504 (VOLUME-WALL_OUTER-FORWARD TIP WIPE)
G1 X-3.0037 Y0.5047 (VOLUME-WALL_OUTER-FORWARD TIP WIPE)
(BEGINNING LAYER: 42)
G01 Z2.3500 F59.0551 (TRAVEL-Lift Tip For Travel)
G00 X1.3713 Y0.0000 (TRAVEL)
G1 Z2.1000 (TRAVEL-Lower Tip)
(TYPE:VOLUME)
M03 S40 (Turn Spindle ON)
G04 P80 (Dwell)
M03 S75 (Change Spindle Speed)
G1 F115.7480 X2.5605 Y-2.0599 (VOLUME-WALL_OUTER)
G1 X4.9395 Y-2.0599 (VOLUME-WALL_OUTER)
G1 X6.1287 Y0.0000 (VOLUME-WALL_OUTER)
G1 X4.9395 Y2.0599 (VOLUME-WALL_OUTER)
G1 X2.5605 Y2.0599 (VOLUME-WALL_OUTER)
G1 X1.3713 Y0.0000 (VOLUME-WALL_OUTER)
M05 (Stop Spindle)
G1 F132.2835 X1.8713 Y-0.8661 (VOLUME-WALL_OUTER-FORWARD TIP WIPE)
G01 Z2.3500 F59.0551 (TRAVEL-Lift Tip For Travel)
G00 X-2.7725 Y-0.3202 (TRAVEL)
G1 Z2.1000 (TRAVEL-Lower Tip)
(TYPE:VOLUME)
M03 S40 (Turn Spindle ON)
G04 P80 (Dwell)
M03 S75 (Change Spindle Speed)
G1 F115.7480 X-2.7725 Y0.3296 (VOLUME-WALL_OUTER)
G1 X-3.3349 Y0.6543 (VOLUME-WALL_OUTER)
G1 X-3.8973 Y0.3296 (VOLUME-WALL_OUTER)
G1 X-3.8973 Y-0.3202 (VOLUME-WALL_OUTER)
G1 X-3.3349 Y-0.6448 (VOLUME-WALL_OUTER)
G1 X-2.7725 Y-0.3202 (VOLUME-WALL_OUTER)
M05 (Stop Spindle)
G1 F132.2835 X-2.7725 Y0.3296 (VOLUME-WALL_OUTER-FORWARD TIP WIPE)
G1 X-3.0758 Y0.5047 (VOLUME-WALL_OUTER-FORWARD TIP WIPE)
(BEGINNING LAYER: 43)
G01 Z2.4000 F59.0551 (TRAVEL-Lift Tip For Travel)
G00 X1.3713 Y0.0000 (TRAVEL)
G1 Z2.1500 (TRAVEL-Lower Tip)
(TYPE:VOLUME)
M03 S40 (Turn Spindle ON)
G04 P80 (Dwell)
M03 S75 (Change Spindle Speed)
G1 F115.7480 X2.5605 Y-2.0599 (VOLUME-WALL_OUTER)
G1 X4.9395 Y-2.0599 (VOLUME-WALL_OUTER)
G1 X6.1287 Y0.0000 (VOLUME-WALL_OUTER)
G1 X4.9395 Y2.0599 (VOLUME-WALL_OUTER)
G1 X2.5605 Y2.0599 (VOLUME-WALL_OUTER)
G1 X1.3713 Y0.0000 (VOLUME-WALL_OUTER)
M05 (Stop Spindle)
G1 F132.2835 X1.8713 Y-0.8661 (VOLUME-WALL_OUTER-FORWARD TIP WIPE)
G01 Z2.4000 F59.0551 (TRAVEL-Lift Tip For Travel)
G00 X-2.8086 Y-0.2993 (TRAVEL)
G1 Z2.1500 (TRAVEL-Lower Tip)
(TYPE:VOLUME)
M03 S40 (Turn Spindle ON)
G04 P80 (Dwell)
M03 S75 (Change Spindle Speed)
G1 F115.7480 X-2.8086 Y0.3088 (VOLUME-WALL_OUTER)
G1 X-3.3349 Y0.6126 (VOLUME-WALL_OUTER)
G1 X-3.8613 Y0.3088 (VOLUME-WALL_OUTER)
G1 X-3.8613 Y-0.2993 (VOLUME-WALL_OUTER)
G1 X-3.3349 Y-0.6031 (VOLUME-WALL_OUTER)
G1 X-2.8086 Y-0.2993 (VOLUME-WALL_OUTER)
M05 (Stop Spindle)
G1 F132.2835 X-2.8086 Y0.3088 (VOLUME-WALL_OUTER-FORWARD TIP WIPE)
G1 X-3.1480 Y0.5047 (VOLUME-WALL_OUTER-FORWARD TIP WIPE)
(BEGINNING LAYER: 44)
G01 Z2.4500 F59.0551 (TRAVEL-Lift Tip For Travel)
G00 X1.3713 Y0.0000 (TRAVEL)
G1 Z2.2000 (TRAVEL-Lower Tip)
(TYPE:VOLUME)
M03 S40 (Turn Spindle ON)
G04 P80 (Dwell)
M03 S75 (Change Spindle Speed)
G1 F115.7480 X2.5605 Y-2.0599 (VOLUME-WALL_OUTER)
G1 X4.9395 Y-2.0599 (VOLUME-WALL_OUTER)
G1 X6.1287 Y0.0000 (VOLUME-WALL_OUTER)
G1 X4.9395 Y2.0599 (VOLUME-WALL_OUTER)
G1 X2.5605 Y2.0599 (VOLUME-WALL_OUTER)
G1 X1.3713 Y0.0000 (VOLUME-WALL_OUTER)
M05 (Stop Spindle)
G1 F132.2835 X1.8713 Y-0.8661 (VOLUME-WALL_OUTER-FORWARD TIP WIPE)
G01 Z2.4500 F59.0551 (TRAVEL-Lift Tip For Travel)
G00 X-2.8446 Y-0.2782 (TRAVEL)
G1 Z2.2000 (TRAVEL-Lower Tip)
(TYPE:VOLUME)
M03 S40 (Turn Spindle ON)
G04 P80 (Dwell)
M03 S75 (Change Spindle Speed)
G1 F115.7480 X-2.8446 Y0.2880 (VOLUME-WALL_OUTER)
G1 X-3.3349 Y0.5709 (VOLUME-WALL_OUTER)
G1 X-3.8252 Y0.2880 (VOLUME-WALL_OUTER)
G1 X-3.8252 Y-0.2782 (VOLUME-WALL_OUTER)
G1 X-3.3349 Y-0.5614 (VOLUME-WALL_OUTER)
G1 X-2.8446 Y-0.2782 (VOLUME-WALL_OUTER)
M05 (Stop Spindle)
G1 F132.2835 X-2.8446 Y0.2880 (VOLUME-WALL_OUTER-FORWARD TIP WIPE)
G1 X-3.2204 Y0.5048 (VOLUME-WALL_OUTER-FORWARD TIP WIPE)
(BEGINNING LAYER: 45)
G01 Z2.5000 F59.0551 (TRAVEL-Lift Tip For Travel)
G00 X1.3713 Y0.0000 (TRAVEL)
G1 Z2.2500 (TRAVEL-Lower Tip)
(TYPE:VOLUME)
M03 S40 (Turn Spindle ON)
G04 P80 (Dwell)
M03 S75 (Change Spindle Speed)
G1 F115.7480 X2.5605 Y-2.0599 (VOLUME-WALL_OUTER)
G1 X4.9395 Y-2.0599 (VOLUME-WALL_OUTER)
G1 X6.1287 Y0.0000 (VOLUME-WALL_OUTER)
G1 X4.9395 Y2.0599 (VOLUME-WALL_OUTER)
G1 X2.5605 Y2.0599 (VOLUME-WALL_OUTER)
G1 X1.3713 Y0.0000 (VOLUME-WALL_OUTER)
M05 (Stop Spindle)
G1 F132.2835 X1.8713 Y-0.8661 (VOLUME-WALL_OUTER-FORWARD TIP WIPE)
G01 Z2.5000 F59.0551 (TRAVEL-Lift Tip For Travel)
G00 X-2.8807 Y-0.2576 (TRAVEL)
G1 Z2.2500 (TRAVEL-Lower Tip)
(TYPE:VOLUME)
M03 S40 (Turn Spindle ON)
G04 P80 (Dwell)
M03 S75 (Change Spindle Speed)
G1 F115.7480 X-2.8807 Y0.2671 (VOLUME-WALL_OUTER)
G1 X-3.3349 Y0.5293 (VOLUME-WALL_OUTER)
G1 X-3.7891 Y0.2671 (VOLUME-WALL_OUTER)
G1 X-3.7891 Y-0.2576 (VOLUME-WALL_OUTER)
G1 X-3.3349 Y-0.5198 (VOLUME-WALL_OUTER)
G1 X-2.8807 Y-0.2576 (VOLUME-WALL_OUTER)
M05 (Stop Spindle)
G1 F132.2835 X-2.8807 Y0.2671 (VOLUME-WALL_OUTER-FORWARD TIP WIPE)
G1 X-3.2924 Y0.5048 (VOLUME-WALL_OUTER-FORWARD TIP WIPE)
(BEGINNING LAYER: 46)
G01 Z2.5500 F59.0551 (TRAVEL-Lift Tip For Travel)
G00 X1.3713 Y0.0000 (TRAVEL)
G1 Z2.3000 (TRAVEL-Lower Tip)
(TYPE:VOLUME)
M03 S40 (Turn Spindle ON)
G04 P80 (Dwell)
M03 S75 (Change Spindle Speed)
G1 F115.7480 X2.5605 Y-2.0599 (VOLUME-WALL_OUTER)
G1 X4.9395 Y-2.0599 (VOLUME-WALL_OUTER)
G1 X6.1287 Y0.0000 (VOLUME-WALL_OUTER)
G1 X4.9395 Y2.0599 (VOLUME-WALL_OUTER)
G1 X2.5605 Y2.0599 (VOLUME-WALL_OUTER)
G1 X1.3713 Y0.0000 (VOLUME-WALL_OUTER)
M05 (Stop Spindle)
G1 F132.2835 X1.8713 Y-0.8661 (VOLUME-WALL_OUTER-FORWARD TIP WIPE)
G01 Z2.5500 F59.0551 (TRAVEL-Lift Tip For Travel)
G00 X-2.9169 Y-0.2368 (TRAVEL)
G1 Z2.3000 (TRAVEL-Lower Tip)
(TYPE:VOLUME)
M03 S40 (Turn Spindle ON)
G04 P80 (Dwell)
M03 S75 (Change Spindle Speed)
G1 F115.7480 X-2.9169 Y0.2463 (VOLUME-WALL_OUTER)
G1 X-3.3349 Y0.4876 (VOLUME-WALL_OUTER)
G1 X-3.7530 Y0.2463 (VOLUME-WALL_OUTER)
G1 X-3.7530 Y-0.2368 (VOLUME-WALL_OUTER)
G1 X-3.3349 Y-0.4781 (VOLUME-WALL_OUTER)
G1 X-2.9169 Y-0.2368 (VOLUME-WALL_OUTER)
M05 (Stop Spindle)
G1 F132.2835 X-2.9169 Y0.2463 (VOLUME-WALL_OUTER-FORWARD TIP WIPE)
G1 X-3.3349 Y0.4876 (VOLUME-WALL_OUTER-FORWARD TIP WIPE)
G1 X-3.3646 Y0.4705 (VOLUME-WALL_OUTER-FORWARD TIP WIPE)
(BEGINNING LAYER: 47)
G01 Z2.6000 F59.0551 (TRAVEL-Lift Tip For Travel)
G00 X1.3713 Y0.0000 (TRAVEL)
G1 Z2.3500 (TRAVEL-Lower Tip)
(TYPE:VOLUME)
M03 S40 (Turn Spindle ON)
G04 P80 (Dwell)
M03 S75 (Change Spindle Speed)
G1 F115.7480 X2.5605 Y-2.0599 (VOLUME-WALL_OUTER)
G1 X4.9395 Y-2.0599 (VOLUME-WALL_OUTER)
G1 X6.1287 Y0.0000 (VOLUME-WALL_OUTER)
G1 X4.9395 Y2.0599 (VOLUME-WALL_OUTER)
G1 X2.5605 Y2.0599 (VOLUME-WALL_OUTER)
G1 X1.3713 Y0.0000 (VOLUME-WALL_OUTER)
M05 (Stop Spindle)
G1 F132.2835 X1.8713 Y-0.8661 (VOLUME-WALL_OUTER-FORWARD TIP WIPE)
G01 Z2.6000 F59.0551 (TRAVEL-Lift Tip For Travel)
G00 X-2.9529 Y-0.2160 (TRAVEL)
G1 Z2.3500 (TRAVEL-Lower Tip)
(TYPE:VOLUME)
M03 S40 (Turn Spindle ON)
G04 P80 (Dwell)
M03 S75 (Change Spindle Speed)
G1 F115.7480 X-2.9529 Y0.2254 (VOLUME-WALL_OUTER)
G1 X-3.3349 Y0.4459 (VOLUME-WALL_OUTER)
G1 X-3.7169 Y0.2254 (VOLUME-WALL_OUTER)
G1 X-3.7169 Y-0.2160 (VOLUME-WALL_OUTER)
G1 X-3.3349 Y-0.4365 (VOLUME-WALL_OUTER)
G1 X-2.9529 Y-0.2160 (VOLUME-WALL_OUTER)
M05 (Stop Spindle)
G1 F132.2835 X-2.9529 Y0.2254 (VOLUME-WALL_OUTER-FORWARD TIP WIPE)
G1 X-3.3349 Y0.4459 (VOLUME-WALL_OUTER-FORWARD TIP WIPE)
G1 X-3.4367 Y0.3872 (VOLUME-WALL_OUTER-FORWARD TIP WIPE)
(BEGINNING LAYER: 48)
G01 Z2.6500 F59.0551 (TRAVEL-Lift Tip For Travel)
G00 X1.3713 Y0.0000 (TRAVEL)
G1 Z2.4000 (TRAVEL-Lower Tip)
(TYPE:VOLUME)
M03 S40 (Turn Spindle ON)
G04 P80 (Dwell)
M03 S75 (Change Spindle Speed)
G1 F115.7480 X2.5605 Y-2.0599 (VOLUME-WALL_OUTER)
G1 X4.9395 Y-2.0599 (VOLUME-WALL_OUTER)
G1 X6.1287 Y0.0000 (VOLUME-WALL_OUTER)
G1 X4.9395 Y2.0599 (VOLUME-WALL_OUTER)
G1 X2.5605 Y2.0599 (VOLUME-WALL_OUTER)
G1 X1.3713 Y0.0000 (VOLUME-WALL_OUTER)
M05 (Stop Spindle)
G1 F132.2835 X1.8713 Y-0.8661 (VOLUME-WALL_OUTER-FORWARD TIP WIPE)
G01 Z2.6500 F59.0551 (TRAVEL-Lift Tip For Travel)
G00 X-2.9890 Y-0.1952 (TRAVEL)
G1 Z2.4000 (TRAVEL-Lower Tip)
(TYPE:VOLUME)
M03 S40 (Turn Spindle ON)
G04 P80 (Dwell)
M03 S75 (Change Spindle Speed)
G1 F115.7480 X-2.9890 Y0.2044 (VOLUME-WALL_OUTER)
G1 X-3.3349 Y0.4042 (VOLUME-WALL_OUTER)
G1 X-3.6808 Y0.2044 (VOLUME-WALL_OUTER)
G1 X-3.6808 Y-0.1952 (VOLUME-WALL_OUTER)
G1 X-3.3349 Y-0.3948 (VOLUME-WALL_OUTER)
G1 X-2.9890 Y-0.1952 (VOLUME-WALL_OUTER)
M05 (Stop Spindle)
G1 F132.2835 X-2.9890 Y0.2044 (VOLUME-WALL_OUTER-FORWARD TIP WIPE)
G1 X-3.3349 Y0.4042 (VOLUME-WALL_OUTER-FORWARD TIP WIPE)
G1 X-3.5090 Y0.3036 (VOLUME-WALL_OUTER-FORWARD TIP WIPE)
(BEGINNING LAYER: 49)
G01 Z2.7000 F59.0551 (TRAVEL-Lift Tip For Travel)
G00 X1.3713 Y0.0000 (TRAVEL)
G1 Z2.4500 (TRAVEL-Lower Tip)
(TYPE:VOLUME)
M03 S40 (Turn Spindle ON)
G04 P80 (Dwell)
M03 S75 (Change Spindle Speed)
G1 F115.7480 X2.5605 Y-2.0599 (VOLUME-WALL_OUTER)
G1 X4.9395 Y-2.0599 (VOLUME-WALL_OUTER)
G1 X6.1287 Y0.0000 (VOLUME-WALL_OUTER)
G1 X4.9395 Y2.0599 (VOLUME-WALL_OUTER)
G1 X2.5605 Y2.0599 (VOLUME-WALL_OUTER)
G1 X1.3713 Y0.0000 (VOLUME-WALL_OUTER)
M05 (Stop Spindle)
G1 F132.2835 X1.8713 Y-0.8661 (VOLUME-WALL_OUTER-FORWARD TIP WIPE)
G01 Z2.7000 F59.0551 (TRAVEL-Lift Tip For Travel)
G00 X-3.0251 Y-0.1743 (TRAVEL)
G1 Z2.4500 (TRAVEL-Lower Tip)
(TYPE:VOLUME)
M03 S40 (Turn Spindle ON)
G04 P80 (Dwell)
M03 S75 (Change Spindle Speed)
G1 F115.7480 X-3.0251 Y0.1838 (VOLUME-WALL_OUTER)
G1 X-3.3349 Y0.3626 (VOLUME-WALL_OUTER)
G1 X-3.6448 Y0.1838 (VOLUME-WALL_OUTER)
G1 X-3.6448 Y-0.1743 (VOLUME-WALL_OUTER)
G1 X-3.3349 Y-0.3532 (VOLUME-WALL_OUTER)
G1 X-3.0251 Y-0.1743 (VOLUME-WALL_OUTER)
M05 (Stop Spindle)
G1 F132.2835 X-3.0251 Y0.1838 (VOLUME-WALL_OUTER-FORWARD TIP WIPE)
G1 X-3.3349 Y0.3626 (VOLUME-WALL_OUTER-FORWARD TIP WIPE)
G1 X-3.5810 Y0.2206 (VOLUME-WALL_OUTER-FORWARD TIP WIPE)
(BEGINNING LAYER: 50)
G01 Z2.7500 F59.0551 (TRAVEL-Lift Tip For Travel)
G00 X1.3713 Y0.0000 (TRAVEL)
G1 Z2.5000 (TRAVEL-Lower Tip)
(TYPE:VOLUME)
M03 S40 (Turn Spindle ON)
G04 P80 (Dwell)
M03 S75 (Change Spindle Speed)
G1 F115.7480 X2.5605 Y-2.0599 (VOLUME-WALL_OUTER)
G1 X4.9395 Y-2.0599 (VOLUME-WALL_OUTER)
G1 X6.1287 Y0.0000 (VOLUME-WALL_OUTER)
G1 X4.9395 Y2.0599 (VOLUME-WALL_OUTER)
G1 X2.5605 Y2.0599 (VOLUME-WALL_OUTER)
G1 X1.3713 Y0.0000 (VOLUME-WALL_OUTER)
M05 (Stop Spindle)
G1 F132.2835 X1.8713 Y-0.8661 (VOLUME-WALL_OUTER-FORWARD TIP WIPE)
G01 Z2.7500 F59.0551 (TRAVEL-Lift Tip For Travel)
G00 X-3.0612 Y-0.1535 (TRAVEL)
G1 Z2.5000 (TRAVEL-Lower Tip)
(TYPE:VOLUME)
M03 S40 (Turn Spindle ON)
G04 P80 (Dwell)
M03 S75 (Change Spindle Speed)
G1 F115.7480 X-3.0612 Y0.1629 (VOLUME-WALL_OUTER)
G1 X-3.3349 Y0.3209 (VOLUME-WALL_OUTER)
G1 X-3.6087 Y0.1629 (VOLUME-WALL_OUTER)
G1 X-3.6087 Y-0.1535 (VOLUME-WALL_OUTER)
G1 X-3.3349 Y-0.3115 (VOLUME-WALL_OUTER)
G1 X-3.0612 Y-0.1535 (VOLUME-WALL_OUTER)
M05 (Stop Spindle)
G1 F132.2835 X-3.0612 Y0.1629 (VOLUME-WALL_OUTER-FORWARD TIP WIPE)
G1 X-3.3349 Y0.3209 (VOLUME-WALL_OUTER-FORWARD TIP WIPE)
G1 X-3.6087 Y0.1629 (VOLUME-WALL_OUTER-FORWARD TIP WIPE)
G1 X-3.6087 Y0.1113 (VOLUME-WALL_OUTER-FORWARD TIP WIPE)
(BEGINNING LAYER: 51)
G01 Z2.8000 F59.0551 (TRAVEL-Lift Tip For Travel)
G00 X1.3713 Y0.0000 (TRAVEL)
G1 Z2.5500 (TRAVEL-Lower Tip)
(TYPE:VOLUME)
M03 S40 (Turn Spindle ON)
G04 P80 (Dwell)
M03 S75 (Change Spindle Speed)
G1 F115.7480 X2.5605 Y-2.0599 (VOLUME-WALL_OUTER)
G1 X4.9395 Y-2.0599 (VOLUME-WALL_OUTER)
G1 X6.1287 Y0.0000 (VOLUME-WALL_OUTER)
G1 X4.9395 Y2.0599 (VOLUME-WALL_OUTER)
G1 X2.5605 Y2.0599 (VOLUME-WALL_OUTER)
G1 X1.3713 Y0.0000 (VOLUME-WALL_OUTER)
M05 (Stop Spindle)
G1 F132.2835 X1.8713 Y-0.8661 (VOLUME-WALL_OUTER-FORWARD TIP WIPE)
G01 Z2.8000 F59.0551 (TRAVEL-Lift Tip For Travel)
G00 X-3.0972 Y-0.1324 (TRAVEL)
G1 Z2.5500 (TRAVEL-Lower Tip)
(TYPE:VOLUME)
M03 S40 (Turn Spindle ON)
G04 P80 (Dwell)
M03 S75 (Change Spindle Speed)
G1 F115.7480 X-3.0972 Y0.1421 (VOLUME-WALL_OUTER)
G1 X-3.3349 Y0.2793 (VOLUME-WALL_OUTER)
G1 X-3.5726 Y0.1421 (VOLUME-WALL_OUTER)
G1 X-3.5726 Y-0.1324 (VOLUME-WALL_OUTER)
G1 X-3.3349 Y-0.2697 (VOLUME-WALL_OUTER)
G1 X-3.0972 Y-0.1324 (VOLUME-WALL_OUTER)
M05 (Stop Spindle)
G1 F132.2835 X-3.0972 Y0.1421 (VOLUME-WALL_OUTER-FORWARD TIP WIPE)
G1 X-3.3349 Y0.2793 (VOLUME-WALL_OUTER-FORWARD TIP WIPE)
G1 X-3.5726 Y0.1421 (VOLUME-WALL_OUTER-FORWARD TIP WIPE)
G1 X-3.5726 Y-0.0345 (VOLUME-WALL_OUTER-FORWARD TIP WIPE)
(BEGINNING LAYER: 52)
G01 Z2.8500 F59.0551 (TRAVEL-Lift Tip For Travel)
G00 X1.3713 Y0.0000 (TRAVEL)
G1 Z2.6000 (TRAVEL-Lower Tip)
(TYPE:VOLUME)
M03 S40 (Turn Spindle ON)
G04 P80 (Dwell)
M03 S75 (Change Spindle Speed)
G1 F115.7480 X2.5605 Y-2.0599 (VOLUME-WALL_OUTER)
G1 X4.9395 Y-2.0599 (VOLUME-WALL_OUTER)
G1 X6.1287 Y0.0000 (VOLUME-WALL_OUTER)
G1 X4.9395 Y2.0599 (VOLUME-WALL_OUTER)
G1 X2.5605 Y2.0599 (VOLUME-WALL_OUTER)
G1 X1.3713 Y0.0000 (VOLUME-WALL_OUTER)
M05 (Stop Spindle)
G1 F132.2835 X1.8713 Y-0.8661 (VOLUME-WALL_OUTER-FORWARD TIP WIPE)
G01 Z2.8500 F59.0551 (TRAVEL-Lift Tip For Travel)
G00 X-3.1333 Y-0.1116 (TRAVEL)
G1 Z2.6000 (TRAVEL-Lower Tip)
(TYPE:VOLUME)
M03 S40 (Turn Spindle ON)
G04 P80 (Dwell)
M03 S75 (Change Spindle Speed)
G1 F115.7480 X-3.1333 Y0.1211 (VOLUME-WALL_OUTER)
G1 X-3.3349 Y0.2375 (VOLUME-WALL_OUTER)
G1 X-3.5365 Y0.1211 (VOLUME-WALL_OUTER)
G1 X-3.5365 Y-0.1116 (VOLUME-WALL_OUTER)
G1 X-3.3349 Y-0.2281 (VOLUME-WALL_OUTER)
G1 X-3.1333 Y-0.1116 (VOLUME-WALL_OUTER)
M05 (Stop Spindle)
G1 F132.2835 X-3.1333 Y0.1211 (VOLUME-WALL_OUTER-FORWARD TIP WIPE)
G1 X-3.3349 Y0.2375 (VOLUME-WALL_OUTER-FORWARD TIP WIPE)
G1 X-3.5365 Y0.1211 (VOLUME-WALL_OUTER-FORWARD TIP WIPE)
G1 X-3.5365 Y-0.1116 (VOLUME-WALL_OUTER-FORWARD TIP WIPE)
G1 X-3.4767 Y-0.1462 (VOLUME-WALL_OUTER-FORWARD TIP WIPE)
(BEGINNING LAYER: 53)
G01 Z2.9000 F59.0551 (TRAVEL-Lift Tip For Travel)
G00 X1.3713 Y0.0000 (TRAVEL)
G1 Z2.6500 (TRAVEL-Lower Tip)
(TYPE:VOLUME)
M03 S40 (Turn Spindle ON)
G04 P80 (Dwell)
M03 S75 (Change Spindle Speed)
G1 F115.7480 X2.5605 Y-2.0599 (VOLUME-WALL_OUTER)
G1 X4.9395 Y-2.0599 (VOLUME-WALL_OUTER)
G1 X6.1287 Y0.0000 (VOLUME-WALL_OUTER)
G1 X4.9395 Y2.0599 (VOLUME-WALL_OUTER)
G1 X2.5605 Y2.0599 (VOLUME-WALL_OUTER)
G1 X1.3713 Y0.0000 (VOLUME-WALL_OUTER)
M05 (Stop Spindle)
G1 F132.2835 X1.8713 Y-0.8661 (VOLUME-WALL_OUTER-FORWARD TIP WIPE)
G01 Z2.9000 F59.0551 (TRAVEL-Lift Tip For Travel)
G00 X-3.1694 Y-0.0908 (TRAVEL)
G1 Z2.6500 (TRAVEL-Lower Tip)
(TYPE:VOLUME)
M03 S40 (Turn Spindle ON)
G04 P80 (Dwell)
M03 S75 (Change Spindle Speed)
G1 F115.7480 X-3.1694 Y0.1003 (VOLUME-WALL_OUTER)
G1 X-3.3349 Y0.1959 (VOLUME-WALL_OUTER)
G1 X-3.5004 Y0.1003 (VOLUME-WALL_OUTER)
G1 X-3.5004 Y-0.0908 (VOLUME-WALL_OUTER)
G1 X-3.3349 Y-0.1865 (VOLUME-WALL_OUTER)
G1 X-3.1694 Y-0.0908 (VOLUME-WALL_OUTER)
M05 (Stop Spindle)
G1 F132.2835 X-3.1694 Y0.1003 (VOLUME-WALL_OUTER-FORWARD TIP WIPE)
G1 X-3.3349 Y0.1959 (VOLUME-WALL_OUTER-FORWARD TIP WIPE)
G1 X-3.5004 Y0.1003 (VOLUME-WALL_OUTER-FORWARD TIP WIPE)
G1 X-3.5004 Y-0.0908 (VOLUME-WALL_OUTER-FORWARD TIP WIPE)
G1 X-3.3349 Y-0.1865 (VOLUME-WALL_OUTER-FORWARD TIP WIPE)
G1 X-3.2965 Y-0.1643 (VOLUME-WALL_OUTER-FORWARD TIP WIPE)
(BEGINNING LAYER: 54)
G01 Z2.9500 F59.0551 (TRAVEL-Lift Tip For Travel)
G00 X1.3713 Y0.0000 (TRAVEL)
G1 Z2.7000 (TRAVEL-Lower Tip)
(TYPE:VOLUME)
M03 S40 (Turn Spindle ON)
G04 P80 (Dwell)
M03 S75 (Change Spindle Speed)
G1 F115.7480 X2.5605 Y-2.0599 (VOLUME-WALL_OUTER)
G1 X4.9395 Y-2.0599 (VOLUME-WALL_OUTER)
G1 X6.1287 Y0.0000 (VOLUME-WALL_OUTER)
G1 X4.9395 Y2.0599 (VOLUME-WALL_OUTER)
G1 X2.5605 Y2.0599 (VOLUME-WALL_OUTER)
G1 X1.3713 Y0.0000 (VOLUME-WALL_OUTER)
M05 (Stop Spindle)
G1 F132.2835 X1.8713 Y-0.8661 (VOLUME-WALL_OUTER-FORWARD TIP WIPE)
G01 Z2.9500 F59.0551 (TRAVEL-Lift Tip For Travel)
G00 X-3.2055 Y-0.0700 (TRAVEL)
G1 Z2.7000 (TRAVEL-Lower Tip)
(TYPE:VOLUME)
M03 S40 (Turn Spindle ON)
G04 P80 (Dwell)
M03 S75 (Change Spindle Speed)
G1 F115.7480 X-3.2055 Y0.0794 (VOLUME-WALL_OUTER)
G1 X-3.3349 Y0.1542 (VOLUME-WALL_OUTER)
G1 X-3.4643 Y0.0794 (VOLUME-WALL_OUTER)
G1 X-3.4643 Y-0.0700 (VOLUME-WALL_OUTER)
G1 X-3.3349 Y-0.1447 (VOLUME-WALL_OUTER)
G1 X-3.2055 Y-0.0700 (VOLUME-WALL_OUTER)
M05 (Stop Spindle)
G1 F132.2835 X-3.2055 Y0.0794 (VOLUME-WALL_OUTER-FORWARD TIP WIPE)
G1 X-3.3349 Y0.1542 (VOLUME-WALL_OUTER-FORWARD TIP WIPE)
G1 X-3.4643 Y0.0794 (VOLUME-WALL_OUTER-FORWARD TIP WIPE)
G1 X-3.4643 Y-0.0700 (VOLUME-WALL_OUTER-FORWARD TIP WIPE)
G1 X-3.3349 Y-0.1447 (VOLUME-WALL_OUTER-FORWARD TIP WIPE)
G1 X-3.2055 Y-0.0700 (VOLUME-WALL_OUTER-FORWARD TIP WIPE)
G1 X-3.2055 Y-0.0700 (VOLUME-WALL_OUTER-FORWARD TIP WIPE)
G1 X-3.2055 Y0.0335 (VOLUME-WALL_OUTER-FORWARD TIP WIPE)
(BEGINNING LAYER: 55)
G01 Z3.0000 F59.0551 (TRAVEL-Lift Tip For Travel)
G00 X1.3713 Y0.0000 (TRAVEL)
G1 Z2.7500 (TRAVEL-Lower Tip)
(TYPE:VOLUME)
M03 S40 (Turn Spindle ON)
G04 P80 (Dwell)
M03 S75 (Change Spindle Speed)
G1 F115.7480 X2.5605 Y-2.0599 (VOLUME-WALL_OUTER)
G1 X4.9395 Y-2.0599 (VOLUME-WALL_OUTER)
G1 X6.1287 Y0.0000 (VOLUME-WALL_OUTER)
G1 X4.9395 Y2.0599 (VOLUME-WALL_OUTER)
G1 X2.5605 Y2.0599 (VOLUME-WALL_OUTER)
G1 X1.3713 Y0.0000 (VOLUME-WALL_OUTER)
M05 (Stop Spindle)
G1 F132.2835 X1.8713 Y-0.8661 (VOLUME-WALL_OUTER-FORWARD TIP WIPE)
G01 Z3.0000 F59.0551 (TRAVEL-Lift Tip For Travel)
G00 X-3.2416 Y-0.0493 (TRAVEL)
G1 Z2.7500 (TRAVEL-Lower Tip)
(TYPE:VOLUME)
M03 S40 (Turn Spindle ON)
G04 P80 (Dwell)
M03 S75 (Change Spindle Speed)
G1 F115.7480 X-3.2416 Y0.0587 (VOLUME-WALL_OUTER)
G1 X-3.3349 Y0.1126 (VOLUME-WALL_OUTER)
G1 X-3.4282 Y0.0586 (VOLUME-WALL_OUTER)
G1 X-3.4282 Y-0.0492 (VOLUME-WALL_OUTER)
G1 X-3.3349 Y-0.1031 (VOLUME-WALL_OUTER)
G1 X-3.2416 Y-0.0493 (VOLUME-WALL_OUTER)
M05 (Stop Spindle)
G1 F132.2835 X-3.2416 Y0.0587 (VOLUME-WALL_OUTER-FORWARD TIP WIPE)
G1 X-3.3349 Y0.1126 (VOLUME-WALL_OUTER-FORWARD TIP WIPE)
G1 X-3.4282 Y0.0586 (VOLUME-WALL_OUTER-FORWARD TIP WIPE)
G1 X-3.4282 Y-0.0492 (VOLUME-WALL_OUTER-FORWARD TIP WIPE)
G1 X-3.3349 Y-0.1031 (VOLUME-WALL_OUTER-FORWARD TIP WIPE)
G1 X-3.2416 Y-0.0493 (VOLUME-WALL_OUTER-FORWARD TIP WIPE)
G1 X-3.2416 Y-0.0493 (VOLUME-WALL_OUTER-FORWARD TIP WIPE)
G1 X-3.2416 Y0.0587 (VOLUME-WALL_OUTER-FORWARD TIP WIPE)
G1 X-3.3349 Y0.1126 (VOLUME-WALL_OUTER-FORWARD TIP WIPE)
G1 X-3.4282 Y0.0586 (VOLUME-WALL_OUTER-FORWARD TIP WIPE)
G1 X-3.4282 Y0.0289 (VOLUME-WALL_OUTER-FORWARD TIP WIPE)
(BEGINNING LAYER: 56)
G01 Z3.0500 F59.0551 (TRAVEL-Lift Tip For Travel)
G00 X1.3713 Y0.0000 (TRAVEL)
G1 Z2.8000 (TRAVEL-Lower Tip)
(TYPE:VOLUME)
M03 S40 (Turn Spindle ON)
G04 P80 (Dwell)
M03 S75 (Change Spindle Speed)
G1 F115.7480 X2.5605 Y-2.0599 (VOLUME-WALL_OUTER)
G1 X4.9395 Y-2.0599 (VOLUME-WALL_OUTER)
G1 X6.1287 Y0.0000 (VOLUME-WALL_OUTER)
G1 X4.9395 Y2.0599 (VOLUME-WALL_OUTER)
G1 X2.5605 Y2.0599 (VOLUME-WALL_OUTER)
G1 X1.3713 Y0.0000 (VOLUME-WALL_OUTER)
M05 (Stop Spindle)
G1 F132.2835 X1.8713 Y-0.8661 (VOLUME-WALL_OUTER-FORWARD TIP WIPE)
G01 Z3.0500 F59.0551 (TRAVEL-Lift Tip For Travel)
G00 X-3.2777 Y-0.0284 (TRAVEL)
G1 Z2.8000 (TRAVEL-Lower Tip)
(TYPE:VOLUME)
M03 S40 (Turn Spindle ON)
G04 P80 (Dwell)
M03 S75 (Change Spindle Speed)
G1 F115.7480 X-3.2777 Y0.0378 (VOLUME-WALL_OUTER)
G1 X-3.3349 Y0.0709 (VOLUME-WALL_OUTER)
G1 X-3.3922 Y0.0378 (VOLUME-WALL_OUTER)
G1 X-3.3922 Y-0.0284 (VOLUME-WALL_OUTER)
G1 X-3.3349 Y-0.0615 (VOLUME-WALL_OUTER)
G1 X-3.2777 Y-0.0284 (VOLUME-WALL_OUTER)
M05 (Stop Spindle)
G1 F132.2835 X-3.2777 Y0.0378 (VOLUME-WALL_OUTER-FORWARD TIP WIPE)
G1 X-3.3349 Y0.0709 (VOLUME-WALL_OUTER-FORWARD TIP WIPE)
G1 X-3.3922 Y0.0378 (VOLUME-WALL_OUTER-FORWARD TIP WIPE)
G1 X-3.3922 Y-0.0284 (VOLUME-WALL_OUTER-FORWARD TIP WIPE)
G1 X-3.3349 Y-0.0615 (VOLUME-WALL_OUTER-FORWARD TIP WIPE)
G1 X-3.2777 Y-0.0284 (VOLUME-WALL_OUTER-FORWARD TIP WIPE)
G1 X-3.2777 Y-0.0284 (VOLUME-WALL_OUTER-FORWARD TIP WIPE)
G1 X-3.2777 Y0.0378 (VOLUME-WALL_OUTER-FORWARD TIP WIPE)
G1 X-3.3349 Y0.0709 (VOLUME-WALL_OUTER-FORWARD TIP WIPE)
G1 X-3.3922 Y0.0378 (VOLUME-WALL_OUTER-FORWARD TIP WIPE)
G1 X-3.3922 Y-0.0284 (VOLUME-WALL_OUTER-FORWARD TIP WIPE)
G1 X-3.3349 Y-0.0615 (VOLUME-WALL_OUTER-FORWARD TIP WIPE)
G1 X-3.2777 Y-0.0284 (VOLUME-WALL_OUTER-FORWARD TIP WIPE)
G1 X-3.2777 Y-0.0284 (VOLUME-WALL_OUTER-FORWARD TIP WIPE)
G1 X-3.2777 Y0.0378 (VOLUME-WALL_OUTER-FORWARD TIP WIPE)
G1 X-3.3349 Y0.0709 (VOLUME-WALL_OUTER-FORWARD TIP WIPE)
G1 X-3.3922 Y0.0378 (VOLUME-WALL_OUTER-FORWARD TIP WIPE)
G1 X-3.3922 Y0.0300 (VOLUME-WALL_OUTER-FORWARD TIP WIPE)
(BEGINNING LAYER: 57)
G01 Z3.1000 F59.0551 (TRAVEL-Lift Tip For Travel)
G00 X1.3713 Y0.0000 (TRAVEL)
G1 Z2.8500 (TRAVEL-Lower Tip)
(TYPE:VOLUME)
M03 S40 (Turn Spindle ON)
G04 P80 (Dwell)
M03 S75 (Change Spindle Speed)
G1 F115.7480 X2.5606 Y-2.0599 (VOLUME-WALL_OUTER)
G1 X4.9394 Y-2.0599 (VOLUME-WALL_OUTER)
G1 X6.1287 Y0.0000 (VOLUME-WALL_OUTER)
G1 X4.9394 Y2.0599 (VOLUME-WALL_OUTER)
G1 X2.5606 Y2.0599 (VOLUME-WALL_OUTER)
G1 X1.3713 Y0.0000 (VOLUME-WALL_OUTER)
M05 (Stop Spindle)
G1 F132.2835 X1.8713 Y-0.8661 (VOLUME-WALL_OUTER-FORWARD TIP WIPE)
(BEGINNING LAYER: 58)
G01 Z3.1500 F59.0551 (TRAVEL-Lift Tip For Travel)
G00 X1.3713 Y0.0000 (TRAVEL)
G1 Z2.9000 (TRAVEL-Lower Tip)
(TYPE:VOLUME)
M03 S40 (Turn Spindle ON)
G04 P80 (Dwell)
M03 S75 (Change Spindle Speed)
G1 F115.7480 X2.5605 Y-2.0599 (VOLUME-WALL_OUTER)
G1 X4.9395 Y-2.0599 (VOLUME-WALL_OUTER)
G1 X6.1287 Y0.0000 (VOLUME-WALL_OUTER)
G1 X4.9395 Y2.0599 (VOLUME-WALL_OUTER)
G1 X2.5605 Y2.0599 (VOLUME-WALL_OUTER)
G1 X1.3713 Y0.0000 (VOLUME-WALL_OUTER)
M05 (Stop Spindle)
G1 F132.2835 X1.8713 Y-0.8661 (VOLUME-WALL_OUTER-FORWARD TIP WIPE)
(BEGINNING LAYER: 59)
G01 Z3.2000 F59.0551 (TRAVEL-Lift Tip For Travel)
G00 X1.3713 Y0.0000 (TRAVEL)
G1 Z2.9500 (TRAVEL-Lower Tip)
(TYPE:VOLUME)
M03 S40 (Turn Spindle ON)
G04 P80 (Dwell)
M03 S75 (Change Spindle Speed)
G1 F115.7480 X2.5605 Y-2.0599 (VOLUME-WALL_OUTER)
G1 X4.9395 Y-2.0599 (VOLUME-WALL_OUTER)
G1 X6.1287 Y0.0000 (VOLUME-WALL_OUTER)
G1 X4.9395 Y2.0599 (VOLUME-WALL_OUTER)
G1 X2.5605 Y2.0599 (VOLUME-WALL_OUTER)
G1 X1.3713 Y0.0000 (VOLUME-WALL_OUTER)
M05 (Stop Spindle)
G1 F132.2835 X1.8713 Y-0.8661 (VOLUME-WALL_OUTER-FORWARD TIP WIPE)
(BEGINNING LAYER: 60)
G01 Z3.2500 F59.0551 (TRAVEL-Lift Tip For Travel)
G00 X1.3713 Y0.0000 (TRAVEL)
G1 Z3.0000 (TRAVEL-Lower Tip)
(TYPE:VOLUME)
M03 S40 (Turn Spindle ON)
G04 P80 (Dwell)
M03 S75 (Change Spindle Speed)
G1 F115.7480 X2.5605 Y-2.0599 (VOLUME-WALL_OUTER)
G1 X4.9395 Y-2.0599 (VOLUME-WALL_OUTER)
G1 X6.1287 Y0.0000 (VOLUME-WALL_OUTER)
G1 X4.9395 Y2.0599 (VOLUME-WALL_OUTER)
G1 X2.5605 Y2.0599 (VOLUME-WALL_OUTER)
G1 X1.3713 Y0.0000 (VOLUME-WALL_OUTER)
M05 (Stop Spindle)
G1 F132.2835 X1.8713 Y-0.8661 (VOLUME-WALL_OUTER-FORWARD TIP WIPE)
G91Z0.5
G91G28Y0.0
M19 (Orient Spindle)
M30 (END OF GCODE)

%

(Printer Settings)
(printAreaDepth 406400)
(printAreaWidth 304800)
(printAreaHeight 190500)
(xOffset 0)
(yOffset 0)
(printerBaseOffset 0)
(zTableOffset 0)
(zTableMinimum 0)
(zTableMaximum 0)
(UseDoffingStation 0)
(DoffingStationW 0)
(majorDistance 0)
(minorDistance 0)
(showLayerTimes 0)
(partAutocenter 0)
(gcodeSyntax 11)
(includeStartPoint 0)
(materialLoad 0)
(waitForUser 0)
(demoBoundingBox 0)
(useRelCS 0)
(useSubroutine 0)
(usePurge 0)
(purgeX 0)
(purgeY 0)
(purgeZ 0)
(purgeWipeDistance 0)

(Material Settings)
(initialLayerThickness 1270)
(layerThickness 1270)
(layer0extrusionWidth 5334)
(extrusionWidth 5334)
(initialSpeedupLayers 0)
(initialLayerSpeed 49)
(printSpeed 49)
(inset0Speed 49)
(insetXSpeed 49)
(infillSpeed 56)
(travelSpeed 100)
(liftSpeed 25)
(supportSpeed 49)
(initialSupportSpeed 49)
(powderSpeed 49)
(tipWipeSpeed 56)
(prestartSpeed 49)
(skeletonSpeed 0)
(zTableSpeed 25)
(raftSpeed 0)
(spiralLiftSpeed 0)
(retamperSpeed 0)
(upSkinSpeed 49)
(downSkinSpeed 49)
(buildUpSpeed 0)
(slowDownSpeed 0)
(minimumSpeed 0)
(useAccel 0)
(defaultAccel 0.000000)
(perimAccel 0.000000)
(insetAccel 0.000000)
(infillAccel 0.000000)
(skinAccel 0.000000)
(travelAccel 0.000000)
(useArcFitting 0)
(numPointArcFitting 0)
(centerThreshold 0)
(pointDistanceThreshold 0)
(useSmoothing 1)
(smoothingType 7)
(smoothingTolerance 250)
(nPoint 0)
(perpNumPasses 0)
(opheimMinimum 0)
(opheimMaximum 0)
(langLookAhead 0)
(noSkins 1)
(upSkinCount 0)
(downSkinCount 0)
(skinExtrusionWidth 0)
(skinOverlap 0)
(skinPattern 0)
(insetCount 1)
(insetWidth 5334)
(layer0insetWidth 5334)
(skeletonMinThreshold 0)
(skeletonMaxThreshold 0)
(noInfill 1)
(sparseInfillLineDistance 0)
(infillExtrusionWidth 0)
(infillOverlap 0)
(infillPattern 0)
(fillAngle 90)
(fillRotation 90)
(infillLayerSkip 0)
(usePrestart 0)
(prestartDistance 0)
(infillPumpRPM 40)
(prestartPumpID 0)
(useSupport 0)
(supportExtruder 0)
(supportType 0)
(supportAngle 0)
(supportLineDistance 0)
(supportXYDistance 0)
(printSupportFirst 0)
(minSupportInfillArea 0)
(minSupportArea 0)
(usePowder 0)
(powderExtruder 0)
(powderRaise 0)
(powderLayers 0)
(powderOnTime 0)
(powderOffTime 0)
(useThumper 0)
(thumperOn 0)
(thumperOff 0)
(extruderServo 0)
(pumpOffMinimalDistance 0)
(usePumpTime 0)
(pumpOffMinimalTime 0)
(pumpOnDelay 80)
(pumpOffDelay 0)
(useExtruderID 0)
(initialPumpRPM 40)
(pumpRPM 75)
(insetPumpRPM 75)
(infillPumpRPM 40)
(skinPumpRPM 0)
(initialPumpID 0)
(pumpID 0)
(insetPumpID 0)
(infillPumpID 0)
(skinPumpID 0)
(useTipWipe 1)
(reverseTipWipe 0)
(wipeDistance 25400)
(retamper 0)
(useBuildUp 0)
(buildUpDistance 0)
(buildUpPumpRPM 0)
(buildUpPumpID 0)
(useSlowDown 0)
(slowDownDistance 0)
(slowDownPumpRPM 0)
(slowDownPumpID 0)
(spiralLift 0)
(spiralLiftPerimeter 0)
(spiralLiftInsets 0)
(spiralLiftInfill 0)
(spiralLiftSkins 0)
(spiralLiftEndOfLayer 0)
(spiralLiftDistance 0)
(spiralLiftHeight 0)
(spiralLiftPoints 0)
(spiralLiftContourThreshold 0)
(spiralLiftLineThreshold 0)
(travelLift 6350)
(useTamper 0)
(tamperVoltage 0)
(mainExtruder 0)
(nozzleDiameter 3000)
(minimalExtrudeLength 2000)
(minimumTravelDistance 10000)
(useFilament 0)
(filamentRetractionDistance 0)
(filamentExtrusionMultiplier 0)
(forceMinimumLayerTime 0)
(minimalLayerTime 0)
(minimumPumpRPM 0)
(parkBeforePurge 0)
(parkAfterPurge 0)
(addRaft 0)
(raftMargin 0)
(raftLineSpacing 0)
(usePercentagePaths 0)
(useSkeletons 0)
(minInfillLineSize 10000)
(minSkeletonSize 0)
(minContourSize 10000)
(useExtendSharpCorners 0)
(sharpCornerExtensionDistance 0)
(sharpCornerAngleThreshold 0)
(cornerClosePointsThreshold 0)
(randomStartPoint 0)
(seamOptimization 1)
(seamSelectionX 0)
(seamSelectionY 0)
(purgeRPM 300)
(purgeDuration 30000)
(wipeDelayTime 1000)
(purgeDelay 0)
(initialPurgeRPM 1000)
(initialPurgeDuration 1000)
(initialWipeDelayTime 1000)
(perimeterStartCode )
(insetStartCode )
(infillStartCode )
(skinStartCode )
(fixHorrible 1)
(multiVolumeOverlap 0)
(dontMergePolygons 0)
(oversizePart 0)
(distanceToOversize 0)
(disableOptimization 0)
(spiralizeMode 0)
(removeComments 0)
(manualDensity 0)
(plasticType 1)
(actualDensity 0.000000)
