%
(GCode File generated by the ORNL Slicer Version 1.10.05 distributed to Hybrid Manufacturing Technologies)
(ORNL Slicer GCode File)
(GCODE Syntax: Hybrid-Haas)
(Filename: BridgeB4SM)

(Sliced by: April G)
(Slicing notes: Bridge Test #1)
(Sliced on: 4/24/2019)
(Layer count: 30)
(Expected Weight: 0.5lbs)
(Expected Build Time: 0 days, 0 hours, 16 minutes)
(Minimum Layer Time: 0 minutes, 12 seconds)
(Maximum Layer Time: 1 minutes, 38 seconds)
(XYZ Translation Data: 1.4821,-0.75,-1.75)
(Slicing Parameters)
(Nozzle Diameter: 0.12in)
(Layer Height: 0.05in)
(Printer Base Offset: 0.0000in)
(Minimum Table Value: 0.0000in)
(Default Extrusion Width: 0.210in)
(Inset Extrusion Width: 0.210in)
(Infill Extrusion Width: 0.000in)
(Skin Extrusion Width: 0.350in)
(Downskin Count: 1)
(Upskin Count: 1)
(Skin Pattern: Lines)
(Number of Insets: 1)

T9M6
G90G00G54X0.5Y0.5F50
G43H9
(Layer count: 30)
(BEGINNING LAYER: 1)
G00 X-1.4942 Y2.3949 (TRAVEL)
G01 Z0.3000 F59.0551 (TRAVEL-Lift Tip For Travel)
G00 X-1.4942 Y2.3949 (TRAVEL)
G1 Z0.0500 (TRAVEL-Lower Tip)
(TYPE:VOLUME)
M03 S75 (Turn Spindle ON)
G04 P80 (Dwell)
M03 S110 (Change Spindle Speed)
G1 F118.1102 X-6.2839 Y2.3949 (VOLUME-WALL_OUTER)
G1 X-6.2839 Y-2.3949 (VOLUME-WALL_OUTER)
G1 X-1.4942 Y-2.3949 (VOLUME-WALL_OUTER)
G1 X-1.4942 Y2.3949 (VOLUME-WALL_OUTER)
M05 (Stop Spindle)
G1 F148.8189 X-2.7442 Y2.3949 (VOLUME-WALL_OUTER-FORWARD TIP WIPE)
G01 Z0.3000 F59.0551 (TRAVEL-Lift Tip For Travel)
G00 X-1.5992 Y2.2750 (TRAVEL)
G1 Z0.0500 (TRAVEL-Lower Tip)
(TYPE:VOLUME)
M03 S75 (Turn Spindle ON)
G04 P80 (Dwell)
M03 S110 (Change Spindle Speed)
G1 F118.1102 X-6.1789 Y2.2750 (VOLUME-INFILL-DOWNSKIN)
G1 X-6.1789 Y1.9250 (VOLUME-INFILL-DOWNSKIN)
G1 X-1.5992 Y1.9250 (VOLUME-INFILL-DOWNSKIN)
G1 X-1.5992 Y1.5750 (VOLUME-INFILL-DOWNSKIN)
G1 X-6.1789 Y1.5750 (VOLUME-INFILL-DOWNSKIN)
G1 X-6.1789 Y1.2250 (VOLUME-INFILL-DOWNSKIN)
G1 X-1.5992 Y1.2250 (VOLUME-INFILL-DOWNSKIN)
G1 X-1.5992 Y0.8750 (VOLUME-INFILL-DOWNSKIN)
G1 X-6.1789 Y0.8750 (VOLUME-INFILL-DOWNSKIN)
G1 X-6.1789 Y0.5250 (VOLUME-INFILL-DOWNSKIN)
G1 X-1.5992 Y0.5250 (VOLUME-INFILL-DOWNSKIN)
G1 X-1.5992 Y0.1750 (VOLUME-INFILL-DOWNSKIN)
G1 X-6.1789 Y0.1750 (VOLUME-INFILL-DOWNSKIN)
G1 X-6.1789 Y-0.1750 (VOLUME-INFILL-DOWNSKIN)
G1 X-1.5992 Y-0.1750 (VOLUME-INFILL-DOWNSKIN)
G1 X-1.5992 Y-0.5250 (VOLUME-INFILL-DOWNSKIN)
G1 X-6.1789 Y-0.5250 (VOLUME-INFILL-DOWNSKIN)
G1 X-6.1789 Y-0.8750 (VOLUME-INFILL-DOWNSKIN)
G1 X-1.5992 Y-0.8750 (VOLUME-INFILL-DOWNSKIN)
G1 X-1.5992 Y-1.2250 (VOLUME-INFILL-DOWNSKIN)
G1 X-6.1789 Y-1.2250 (VOLUME-INFILL-DOWNSKIN)
G1 X-6.1789 Y-1.5750 (VOLUME-INFILL-DOWNSKIN)
G1 X-1.5992 Y-1.5750 (VOLUME-INFILL-DOWNSKIN)
G1 X-1.5992 Y-1.9250 (VOLUME-INFILL-DOWNSKIN)
G1 X-6.1789 Y-1.9250 (VOLUME-INFILL-DOWNSKIN)
G1 X-6.1789 Y-2.2750 (VOLUME-INFILL-DOWNSKIN)
G1 X-1.5992 Y-2.2750 (VOLUME-INFILL-DOWNSKIN)
M05 (Stop Spindle)
G1 F148.8189 X-2.8492 Y-2.2750 (VOLUME-INFILL-DOWNSKIN-REVERSE TIP WIPE)
G01 Z0.3000 F59.0551 (TRAVEL-Lift Tip For Travel)
G00 X1.5872 Y2.3949 (TRAVEL)
G1 Z0.0500 (TRAVEL-Lower Tip)
(TYPE:VOLUME)
M03 S75 (Turn Spindle ON)
G04 P80 (Dwell)
M03 S110 (Change Spindle Speed)
G1 F118.1102 X1.5872 Y-2.3949 (VOLUME-WALL_OUTER)
G1 X6.3770 Y-2.3949 (VOLUME-WALL_OUTER)
G1 X6.3770 Y2.3949 (VOLUME-WALL_OUTER)
G1 X1.5872 Y2.3949 (VOLUME-WALL_OUTER)
M05 (Stop Spindle)
G1 F148.8189 X1.5872 Y1.1449 (VOLUME-WALL_OUTER-FORWARD TIP WIPE)
G01 Z0.3000 F59.0551 (TRAVEL-Lift Tip For Travel)
G00 X1.6922 Y1.2250 (TRAVEL)
G1 Z0.0500 (TRAVEL-Lower Tip)
(TYPE:VOLUME)
M03 S75 (Turn Spindle ON)
G04 P80 (Dwell)
M03 S110 (Change Spindle Speed)
G1 F118.1102 X6.2719 Y1.2250 (VOLUME-INFILL-DOWNSKIN)
G1 X6.2719 Y1.5750 (VOLUME-INFILL-DOWNSKIN)
G1 X1.6922 Y1.5750 (VOLUME-INFILL-DOWNSKIN)
G1 X1.6922 Y1.9250 (VOLUME-INFILL-DOWNSKIN)
G1 X6.2719 Y1.9250 (VOLUME-INFILL-DOWNSKIN)
G1 X6.2719 Y2.2750 (VOLUME-INFILL-DOWNSKIN)
G1 X1.6922 Y2.2750 (VOLUME-INFILL-DOWNSKIN)
M05 (Stop Spindle)
G1 F148.8189 X2.9422 Y2.2750 (VOLUME-INFILL-DOWNSKIN-REVERSE TIP WIPE)
G01 Z0.3000 F59.0551 (TRAVEL-Lift Tip For Travel)
G00 X1.6922 Y0.8750 (TRAVEL)
G1 Z0.0500 (TRAVEL-Lower Tip)
(TYPE:VOLUME)
M03 S75 (Turn Spindle ON)
G04 P80 (Dwell)
M03 S110 (Change Spindle Speed)
G1 F118.1102 X6.2719 Y0.8750 (VOLUME-INFILL-DOWNSKIN)
G1 X6.2719 Y0.5250 (VOLUME-INFILL-DOWNSKIN)
G1 X1.6922 Y0.5250 (VOLUME-INFILL-DOWNSKIN)
G1 X1.6922 Y0.1750 (VOLUME-INFILL-DOWNSKIN)
G1 X6.2719 Y0.1750 (VOLUME-INFILL-DOWNSKIN)
G1 X6.2719 Y-0.1750 (VOLUME-INFILL-DOWNSKIN)
G1 X1.6922 Y-0.1750 (VOLUME-INFILL-DOWNSKIN)
G1 X1.6922 Y-0.5250 (VOLUME-INFILL-DOWNSKIN)
G1 X6.2719 Y-0.5250 (VOLUME-INFILL-DOWNSKIN)
G1 X6.2719 Y-0.8750 (VOLUME-INFILL-DOWNSKIN)
G1 X1.6922 Y-0.8750 (VOLUME-INFILL-DOWNSKIN)
G1 X1.6922 Y-1.2250 (VOLUME-INFILL-DOWNSKIN)
G1 X6.2719 Y-1.2250 (VOLUME-INFILL-DOWNSKIN)
G1 X6.2719 Y-1.5750 (VOLUME-INFILL-DOWNSKIN)
G1 X1.6922 Y-1.5750 (VOLUME-INFILL-DOWNSKIN)
G1 X1.6922 Y-1.9250 (VOLUME-INFILL-DOWNSKIN)
G1 X6.2719 Y-1.9250 (VOLUME-INFILL-DOWNSKIN)
G1 X6.2719 Y-2.2750 (VOLUME-INFILL-DOWNSKIN)
G1 X1.6922 Y-2.2750 (VOLUME-INFILL-DOWNSKIN)
M05 (Stop Spindle)
G1 F148.8189 X2.9423 Y-2.2750 (VOLUME-INFILL-DOWNSKIN-REVERSE TIP WIPE)
(BEGINNING LAYER: 2)
G01 Z0.3500 F59.0551 (TRAVEL-Lift Tip For Travel)
G00 X-1.4942 Y2.3949 (TRAVEL)
G1 Z0.1000 (TRAVEL-Lower Tip)
(TYPE:VOLUME)
M03 S75 (Turn Spindle ON)
G04 P80 (Dwell)
M03 S110 (Change Spindle Speed)
G1 F118.1102 X-6.2839 Y2.3949 (VOLUME-WALL_OUTER)
G1 X-6.2839 Y-2.3949 (VOLUME-WALL_OUTER)
G1 X-1.4942 Y-2.3949 (VOLUME-WALL_OUTER)
G1 X-1.4942 Y2.3949 (VOLUME-WALL_OUTER)
M05 (Stop Spindle)
G1 F148.8189 X-2.7442 Y2.3949 (VOLUME-WALL_OUTER-FORWARD TIP WIPE)
G01 Z0.3500 F59.0551 (TRAVEL-Lift Tip For Travel)
G00 X1.5872 Y2.3949 (TRAVEL)
G1 Z0.1000 (TRAVEL-Lower Tip)
(TYPE:VOLUME)
M03 S75 (Turn Spindle ON)
G04 P80 (Dwell)
M03 S110 (Change Spindle Speed)
G1 F118.1102 X1.5872 Y-2.3949 (VOLUME-WALL_OUTER)
G1 X6.3770 Y-2.3949 (VOLUME-WALL_OUTER)
G1 X6.3770 Y2.3949 (VOLUME-WALL_OUTER)
G1 X1.5872 Y2.3949 (VOLUME-WALL_OUTER)
M05 (Stop Spindle)
G1 F148.8189 X1.5872 Y1.1449 (VOLUME-WALL_OUTER-FORWARD TIP WIPE)
(BEGINNING LAYER: 3)
G01 Z0.4000 F59.0551 (TRAVEL-Lift Tip For Travel)
G00 X-1.4942 Y2.3949 (TRAVEL)
G1 Z0.1500 (TRAVEL-Lower Tip)
(TYPE:VOLUME)
M03 S75 (Turn Spindle ON)
G04 P80 (Dwell)
M03 S110 (Change Spindle Speed)
G1 F118.1102 X-6.2839 Y2.3949 (VOLUME-WALL_OUTER)
G1 X-6.2839 Y-2.3949 (VOLUME-WALL_OUTER)
G1 X-1.4942 Y-2.3949 (VOLUME-WALL_OUTER)
G1 X-1.4942 Y2.3949 (VOLUME-WALL_OUTER)
M05 (Stop Spindle)
G1 F148.8189 X-2.7442 Y2.3949 (VOLUME-WALL_OUTER-FORWARD TIP WIPE)
G01 Z0.4000 F59.0551 (TRAVEL-Lift Tip For Travel)
G00 X1.5872 Y2.3949 (TRAVEL)
G1 Z0.1500 (TRAVEL-Lower Tip)
(TYPE:VOLUME)
M03 S75 (Turn Spindle ON)
G04 P80 (Dwell)
M03 S110 (Change Spindle Speed)
G1 F118.1102 X1.5872 Y-2.3949 (VOLUME-WALL_OUTER)
G1 X6.3770 Y-2.3949 (VOLUME-WALL_OUTER)
G1 X6.3770 Y2.3949 (VOLUME-WALL_OUTER)
G1 X1.5872 Y2.3949 (VOLUME-WALL_OUTER)
M05 (Stop Spindle)
G1 F148.8189 X1.5872 Y1.1449 (VOLUME-WALL_OUTER-FORWARD TIP WIPE)
(BEGINNING LAYER: 4)
G01 Z0.4500 F59.0551 (TRAVEL-Lift Tip For Travel)
G00 X-1.4942 Y2.3949 (TRAVEL)
G1 Z0.2000 (TRAVEL-Lower Tip)
(TYPE:VOLUME)
M03 S75 (Turn Spindle ON)
G04 P80 (Dwell)
M03 S110 (Change Spindle Speed)
G1 F118.1102 X-6.2839 Y2.3949 (VOLUME-WALL_OUTER)
G1 X-6.2839 Y-2.3949 (VOLUME-WALL_OUTER)
G1 X-1.4942 Y-2.3949 (VOLUME-WALL_OUTER)
G1 X-1.4942 Y2.3949 (VOLUME-WALL_OUTER)
M05 (Stop Spindle)
G1 F148.8189 X-2.7442 Y2.3949 (VOLUME-WALL_OUTER-FORWARD TIP WIPE)
G01 Z0.4500 F59.0551 (TRAVEL-Lift Tip For Travel)
G00 X1.5872 Y2.3949 (TRAVEL)
G1 Z0.2000 (TRAVEL-Lower Tip)
(TYPE:VOLUME)
M03 S75 (Turn Spindle ON)
G04 P80 (Dwell)
M03 S110 (Change Spindle Speed)
G1 F118.1102 X1.5872 Y-2.3949 (VOLUME-WALL_OUTER)
G1 X6.3770 Y-2.3949 (VOLUME-WALL_OUTER)
G1 X6.3770 Y2.3949 (VOLUME-WALL_OUTER)
G1 X1.5872 Y2.3949 (VOLUME-WALL_OUTER)
M05 (Stop Spindle)
G1 F148.8189 X1.5872 Y1.1449 (VOLUME-WALL_OUTER-FORWARD TIP WIPE)
(BEGINNING LAYER: 5)
G01 Z0.5000 F59.0551 (TRAVEL-Lift Tip For Travel)
G00 X-1.4942 Y2.3949 (TRAVEL)
G1 Z0.2500 (TRAVEL-Lower Tip)
(TYPE:VOLUME)
M03 S75 (Turn Spindle ON)
G04 P80 (Dwell)
M03 S110 (Change Spindle Speed)
G1 F118.1102 X-6.2839 Y2.3949 (VOLUME-WALL_OUTER)
G1 X-6.2839 Y-2.3949 (VOLUME-WALL_OUTER)
G1 X-1.4942 Y-2.3949 (VOLUME-WALL_OUTER)
G1 X-1.4942 Y2.3949 (VOLUME-WALL_OUTER)
M05 (Stop Spindle)
G1 F148.8189 X-2.7442 Y2.3949 (VOLUME-WALL_OUTER-FORWARD TIP WIPE)
G01 Z0.5000 F59.0551 (TRAVEL-Lift Tip For Travel)
G00 X1.5872 Y2.3949 (TRAVEL)
G1 Z0.2500 (TRAVEL-Lower Tip)
(TYPE:VOLUME)
M03 S75 (Turn Spindle ON)
G04 P80 (Dwell)
M03 S110 (Change Spindle Speed)
G1 F118.1102 X1.5872 Y-2.3949 (VOLUME-WALL_OUTER)
G1 X6.3770 Y-2.3949 (VOLUME-WALL_OUTER)
G1 X6.3770 Y2.3949 (VOLUME-WALL_OUTER)
G1 X1.5872 Y2.3949 (VOLUME-WALL_OUTER)
M05 (Stop Spindle)
G1 F148.8189 X1.5872 Y1.1449 (VOLUME-WALL_OUTER-FORWARD TIP WIPE)
(BEGINNING LAYER: 6)
G01 Z0.5500 F59.0551 (TRAVEL-Lift Tip For Travel)
G00 X-1.4942 Y2.3949 (TRAVEL)
G1 Z0.3000 (TRAVEL-Lower Tip)
(TYPE:VOLUME)
M03 S75 (Turn Spindle ON)
G04 P80 (Dwell)
M03 S110 (Change Spindle Speed)
G1 F118.1102 X-6.2839 Y2.3949 (VOLUME-WALL_OUTER)
G1 X-6.2839 Y-2.3949 (VOLUME-WALL_OUTER)
G1 X-1.4942 Y-2.3949 (VOLUME-WALL_OUTER)
G1 X-1.4942 Y2.3949 (VOLUME-WALL_OUTER)
M05 (Stop Spindle)
G1 F148.8189 X-2.7442 Y2.3949 (VOLUME-WALL_OUTER-FORWARD TIP WIPE)
G01 Z0.5500 F59.0551 (TRAVEL-Lift Tip For Travel)
G00 X1.5872 Y2.3949 (TRAVEL)
G1 Z0.3000 (TRAVEL-Lower Tip)
(TYPE:VOLUME)
M03 S75 (Turn Spindle ON)
G04 P80 (Dwell)
M03 S110 (Change Spindle Speed)
G1 F118.1102 X1.5872 Y-2.3949 (VOLUME-WALL_OUTER)
G1 X6.3770 Y-2.3949 (VOLUME-WALL_OUTER)
G1 X6.3770 Y2.3949 (VOLUME-WALL_OUTER)
G1 X1.5872 Y2.3949 (VOLUME-WALL_OUTER)
M05 (Stop Spindle)
G1 F148.8189 X1.5872 Y1.1449 (VOLUME-WALL_OUTER-FORWARD TIP WIPE)
(BEGINNING LAYER: 7)
G01 Z0.6000 F59.0551 (TRAVEL-Lift Tip For Travel)
G00 X-1.4942 Y2.3949 (TRAVEL)
G1 Z0.3500 (TRAVEL-Lower Tip)
(TYPE:VOLUME)
M03 S75 (Turn Spindle ON)
G04 P80 (Dwell)
M03 S110 (Change Spindle Speed)
G1 F118.1102 X-6.2839 Y2.3949 (VOLUME-WALL_OUTER)
G1 X-6.2839 Y-2.3949 (VOLUME-WALL_OUTER)
G1 X-1.4942 Y-2.3949 (VOLUME-WALL_OUTER)
G1 X-1.4942 Y2.3949 (VOLUME-WALL_OUTER)
M05 (Stop Spindle)
G1 F148.8189 X-2.7442 Y2.3949 (VOLUME-WALL_OUTER-FORWARD TIP WIPE)
G01 Z0.6000 F59.0551 (TRAVEL-Lift Tip For Travel)
G00 X1.5872 Y2.3949 (TRAVEL)
G1 Z0.3500 (TRAVEL-Lower Tip)
(TYPE:VOLUME)
M03 S75 (Turn Spindle ON)
G04 P80 (Dwell)
M03 S110 (Change Spindle Speed)
G1 F118.1102 X1.5872 Y-2.3949 (VOLUME-WALL_OUTER)
G1 X6.3770 Y-2.3949 (VOLUME-WALL_OUTER)
G1 X6.3770 Y2.3949 (VOLUME-WALL_OUTER)
G1 X1.5872 Y2.3949 (VOLUME-WALL_OUTER)
M05 (Stop Spindle)
G1 F148.8189 X1.5872 Y1.1449 (VOLUME-WALL_OUTER-FORWARD TIP WIPE)
(BEGINNING LAYER: 8)
G01 Z0.6500 F59.0551 (TRAVEL-Lift Tip For Travel)
G00 X-1.4942 Y2.3949 (TRAVEL)
G1 Z0.4000 (TRAVEL-Lower Tip)
(TYPE:VOLUME)
M03 S75 (Turn Spindle ON)
G04 P80 (Dwell)
M03 S110 (Change Spindle Speed)
G1 F118.1102 X-6.2839 Y2.3949 (VOLUME-WALL_OUTER)
G1 X-6.2839 Y-2.3949 (VOLUME-WALL_OUTER)
G1 X-1.4942 Y-2.3949 (VOLUME-WALL_OUTER)
G1 X-1.4942 Y2.3949 (VOLUME-WALL_OUTER)
M05 (Stop Spindle)
G1 F148.8189 X-2.7442 Y2.3949 (VOLUME-WALL_OUTER-FORWARD TIP WIPE)
G01 Z0.6500 F59.0551 (TRAVEL-Lift Tip For Travel)
G00 X-2.6250 Y2.2898 (TRAVEL)
G1 Z0.4000 (TRAVEL-Lower Tip)
(TYPE:VOLUME)
M03 S75 (Turn Spindle ON)
G04 P80 (Dwell)
M03 S110 (Change Spindle Speed)
G1 F118.1102 X-2.6250 Y1.6449 (VOLUME-INFILL-UPSKIN)
G1 X-2.9750 Y1.6449 (VOLUME-INFILL-UPSKIN)
G1 X-2.9750 Y2.2898 (VOLUME-INFILL-UPSKIN)
G1 X-3.3250 Y2.2898 (VOLUME-INFILL-UPSKIN)
G1 X-3.3250 Y1.6449 (VOLUME-INFILL-UPSKIN)
M05 (Stop Spindle)
G1 F148.8189 X-3.3250 Y2.2898 (VOLUME-INFILL-UPSKIN-REVERSE TIP WIPE)
G1 X-2.9750 Y2.2898 (VOLUME-INFILL-UPSKIN-REVERSE TIP WIPE)
G1 X-2.9750 Y2.0347 (VOLUME-INFILL-UPSKIN-REVERSE TIP WIPE)
G01 Z0.6500 F59.0551 (TRAVEL-Lift Tip For Travel)
G00 X-2.2750 Y1.6449 (TRAVEL)
G1 Z0.4000 (TRAVEL-Lower Tip)
(TYPE:VOLUME)
M03 S75 (Turn Spindle ON)
G04 P80 (Dwell)
M03 S110 (Change Spindle Speed)
G1 F118.1102 X-2.2750 Y2.2898 (VOLUME-INFILL-UPSKIN)
G1 X-1.9250 Y2.2898 (VOLUME-INFILL-UPSKIN)
G1 X-1.9250 Y1.6449 (VOLUME-INFILL-UPSKIN)
M05 (Stop Spindle)
G1 F148.8189 X-1.9250 Y2.2898 (VOLUME-INFILL-UPSKIN-REVERSE TIP WIPE)
G1 X-2.2750 Y2.2898 (VOLUME-INFILL-UPSKIN-REVERSE TIP WIPE)
G1 X-2.2750 Y2.0347 (VOLUME-INFILL-UPSKIN-REVERSE TIP WIPE)
G01 Z0.6500 F59.0551 (TRAVEL-Lift Tip For Travel)
G00 X-4.3750 Y2.2898 (TRAVEL)
G1 Z0.4000 (TRAVEL-Lower Tip)
(TYPE:VOLUME)
M03 S75 (Turn Spindle ON)
G04 P80 (Dwell)
M03 S110 (Change Spindle Speed)
G1 F118.1102 X-4.3750 Y1.6449 (VOLUME-INFILL-UPSKIN)
G1 X-4.7250 Y1.6449 (VOLUME-INFILL-UPSKIN)
G1 X-4.7250 Y2.2898 (VOLUME-INFILL-UPSKIN)
G1 X-5.0750 Y2.2898 (VOLUME-INFILL-UPSKIN)
G1 X-5.0750 Y1.6449 (VOLUME-INFILL-UPSKIN)
G1 X-5.4250 Y1.6449 (VOLUME-INFILL-UPSKIN)
G1 X-5.4250 Y2.2898 (VOLUME-INFILL-UPSKIN)
G1 X-5.7750 Y2.2898 (VOLUME-INFILL-UPSKIN)
G1 X-5.7750 Y1.6449 (VOLUME-INFILL-UPSKIN)
M05 (Stop Spindle)
G1 F148.8189 X-5.7750 Y2.2898 (VOLUME-INFILL-UPSKIN-REVERSE TIP WIPE)
G1 X-5.4250 Y2.2898 (VOLUME-INFILL-UPSKIN-REVERSE TIP WIPE)
G1 X-5.4250 Y2.0347 (VOLUME-INFILL-UPSKIN-REVERSE TIP WIPE)
G01 Z0.6500 F59.0551 (TRAVEL-Lift Tip For Travel)
G00 X-3.3250 Y-1.6449 (TRAVEL)
G1 Z0.4000 (TRAVEL-Lower Tip)
(TYPE:VOLUME)
M03 S75 (Turn Spindle ON)
G04 P80 (Dwell)
M03 S110 (Change Spindle Speed)
G1 F118.1102 X-3.3250 Y-2.2898 (VOLUME-INFILL-UPSKIN)
G1 X-2.9750 Y-2.2898 (VOLUME-INFILL-UPSKIN)
G1 X-2.9750 Y-1.6449 (VOLUME-INFILL-UPSKIN)
G1 X-2.6250 Y-1.6449 (VOLUME-INFILL-UPSKIN)
G1 X-2.6250 Y-2.2898 (VOLUME-INFILL-UPSKIN)
G1 X-2.2750 Y-2.2898 (VOLUME-INFILL-UPSKIN)
G1 X-2.2750 Y-1.6449 (VOLUME-INFILL-UPSKIN)
G1 X-1.9250 Y-1.6449 (VOLUME-INFILL-UPSKIN)
G1 X-1.9250 Y-2.2898 (VOLUME-INFILL-UPSKIN)
M05 (Stop Spindle)
G1 F148.8189 X-1.9250 Y-1.6449 (VOLUME-INFILL-UPSKIN-REVERSE TIP WIPE)
G1 X-2.2750 Y-1.6449 (VOLUME-INFILL-UPSKIN-REVERSE TIP WIPE)
G1 X-2.2750 Y-1.9000 (VOLUME-INFILL-UPSKIN-REVERSE TIP WIPE)
G01 Z0.6500 F59.0551 (TRAVEL-Lift Tip For Travel)
G00 X-4.3750 Y-1.6449 (TRAVEL)
G1 Z0.4000 (TRAVEL-Lower Tip)
(TYPE:VOLUME)
M03 S75 (Turn Spindle ON)
G04 P80 (Dwell)
M03 S110 (Change Spindle Speed)
G1 F118.1102 X-4.3750 Y-2.2898 (VOLUME-INFILL-UPSKIN)
G1 X-4.7250 Y-2.2898 (VOLUME-INFILL-UPSKIN)
G1 X-4.7250 Y-1.6449 (VOLUME-INFILL-UPSKIN)
G1 X-5.0750 Y-1.6449 (VOLUME-INFILL-UPSKIN)
G1 X-5.0750 Y-2.2898 (VOLUME-INFILL-UPSKIN)
G1 X-5.4250 Y-2.2898 (VOLUME-INFILL-UPSKIN)
G1 X-5.4250 Y-1.6449 (VOLUME-INFILL-UPSKIN)
G1 X-5.7750 Y-1.6449 (VOLUME-INFILL-UPSKIN)
G1 X-5.7750 Y-2.2898 (VOLUME-INFILL-UPSKIN)
M05 (Stop Spindle)
G1 F148.8189 X-5.7750 Y-1.6449 (VOLUME-INFILL-UPSKIN-REVERSE TIP WIPE)
G1 X-5.4250 Y-1.6449 (VOLUME-INFILL-UPSKIN-REVERSE TIP WIPE)
G1 X-5.4250 Y-1.9000 (VOLUME-INFILL-UPSKIN-REVERSE TIP WIPE)
G01 Z0.6500 F59.0551 (TRAVEL-Lift Tip For Travel)
G00 X1.5872 Y2.3949 (TRAVEL)
G1 Z0.4000 (TRAVEL-Lower Tip)
(TYPE:VOLUME)
M03 S75 (Turn Spindle ON)
G04 P80 (Dwell)
M03 S110 (Change Spindle Speed)
G1 F118.1102 X1.5872 Y-2.3949 (VOLUME-WALL_OUTER)
G1 X6.3770 Y-2.3949 (VOLUME-WALL_OUTER)
G1 X6.3770 Y2.3949 (VOLUME-WALL_OUTER)
G1 X1.5872 Y2.3949 (VOLUME-WALL_OUTER)
M05 (Stop Spindle)
G1 F148.8189 X1.5872 Y1.1449 (VOLUME-WALL_OUTER-FORWARD TIP WIPE)
G01 Z0.6500 F59.0551 (TRAVEL-Lift Tip For Travel)
G00 X4.3750 Y1.6449 (TRAVEL)
G1 Z0.4000 (TRAVEL-Lower Tip)
(TYPE:VOLUME)
M03 S75 (Turn Spindle ON)
G04 P80 (Dwell)
M03 S110 (Change Spindle Speed)
G1 F118.1102 X4.3750 Y2.2898 (VOLUME-INFILL-UPSKIN)
G1 X4.7250 Y2.2898 (VOLUME-INFILL-UPSKIN)
G1 X4.7250 Y1.6449 (VOLUME-INFILL-UPSKIN)
G1 X5.0750 Y1.6449 (VOLUME-INFILL-UPSKIN)
G1 X5.0750 Y2.2898 (VOLUME-INFILL-UPSKIN)
G1 X5.4250 Y2.2898 (VOLUME-INFILL-UPSKIN)
G1 X5.4250 Y1.6449 (VOLUME-INFILL-UPSKIN)
G1 X5.7750 Y1.6449 (VOLUME-INFILL-UPSKIN)
G1 X5.7750 Y2.2898 (VOLUME-INFILL-UPSKIN)
G1 X6.1250 Y2.2898 (VOLUME-INFILL-UPSKIN)
G1 X6.1250 Y1.6449 (VOLUME-INFILL-UPSKIN)
M05 (Stop Spindle)
G1 F148.8189 X6.1250 Y2.2898 (VOLUME-INFILL-UPSKIN-REVERSE TIP WIPE)
G1 X5.7750 Y2.2898 (VOLUME-INFILL-UPSKIN-REVERSE TIP WIPE)
G1 X5.7750 Y2.0347 (VOLUME-INFILL-UPSKIN-REVERSE TIP WIPE)
G01 Z0.6500 F59.0551 (TRAVEL-Lift Tip For Travel)
G00 X3.3250 Y2.2898 (TRAVEL)
G1 Z0.4000 (TRAVEL-Lower Tip)
(TYPE:VOLUME)
M03 S75 (Turn Spindle ON)
G04 P80 (Dwell)
M03 S110 (Change Spindle Speed)
G1 F118.1102 X3.3250 Y1.6449 (VOLUME-INFILL-UPSKIN)
G1 X2.9750 Y1.6449 (VOLUME-INFILL-UPSKIN)
G1 X2.9750 Y2.2898 (VOLUME-INFILL-UPSKIN)
G1 X2.6250 Y2.2898 (VOLUME-INFILL-UPSKIN)
G1 X2.6250 Y1.6449 (VOLUME-INFILL-UPSKIN)
G1 X2.2750 Y1.6449 (VOLUME-INFILL-UPSKIN)
G1 X2.2750 Y2.2898 (VOLUME-INFILL-UPSKIN)
G1 X1.9250 Y2.2898 (VOLUME-INFILL-UPSKIN)
G1 X1.9250 Y1.6449 (VOLUME-INFILL-UPSKIN)
M05 (Stop Spindle)
G1 F148.8189 X1.9250 Y2.2898 (VOLUME-INFILL-UPSKIN-REVERSE TIP WIPE)
G1 X2.2750 Y2.2898 (VOLUME-INFILL-UPSKIN-REVERSE TIP WIPE)
G1 X2.2750 Y2.0347 (VOLUME-INFILL-UPSKIN-REVERSE TIP WIPE)
G01 Z0.6500 F59.0551 (TRAVEL-Lift Tip For Travel)
G00 X4.3750 Y-1.6449 (TRAVEL)
G1 Z0.4000 (TRAVEL-Lower Tip)
(TYPE:VOLUME)
M03 S75 (Turn Spindle ON)
G04 P80 (Dwell)
M03 S110 (Change Spindle Speed)
G1 F118.1102 X4.3750 Y-2.2898 (VOLUME-INFILL-UPSKIN)
G1 X4.7250 Y-2.2898 (VOLUME-INFILL-UPSKIN)
G1 X4.7250 Y-1.6449 (VOLUME-INFILL-UPSKIN)
G1 X5.0750 Y-1.6449 (VOLUME-INFILL-UPSKIN)
G1 X5.0750 Y-2.2898 (VOLUME-INFILL-UPSKIN)
G1 X5.4250 Y-2.2898 (VOLUME-INFILL-UPSKIN)
G1 X5.4250 Y-1.6449 (VOLUME-INFILL-UPSKIN)
G1 X5.7750 Y-1.6449 (VOLUME-INFILL-UPSKIN)
G1 X5.7750 Y-2.2898 (VOLUME-INFILL-UPSKIN)
G1 X6.1250 Y-2.2898 (VOLUME-INFILL-UPSKIN)
G1 X6.1250 Y-1.6449 (VOLUME-INFILL-UPSKIN)
M05 (Stop Spindle)
G1 F148.8189 X6.1250 Y-2.2898 (VOLUME-INFILL-UPSKIN-REVERSE TIP WIPE)
G1 X5.7750 Y-2.2898 (VOLUME-INFILL-UPSKIN-REVERSE TIP WIPE)
G1 X5.7750 Y-2.0347 (VOLUME-INFILL-UPSKIN-REVERSE TIP WIPE)
G01 Z0.6500 F59.0551 (TRAVEL-Lift Tip For Travel)
G00 X3.3250 Y-2.2898 (TRAVEL)
G1 Z0.4000 (TRAVEL-Lower Tip)
(TYPE:VOLUME)
M03 S75 (Turn Spindle ON)
G04 P80 (Dwell)
M03 S110 (Change Spindle Speed)
G1 F118.1102 X3.3250 Y-1.6449 (VOLUME-INFILL-UPSKIN)
G1 X2.9750 Y-1.6449 (VOLUME-INFILL-UPSKIN)
G1 X2.9750 Y-2.2898 (VOLUME-INFILL-UPSKIN)
G1 X2.6250 Y-2.2898 (VOLUME-INFILL-UPSKIN)
G1 X2.6250 Y-1.6449 (VOLUME-INFILL-UPSKIN)
G1 X2.2750 Y-1.6449 (VOLUME-INFILL-UPSKIN)
G1 X2.2750 Y-2.2898 (VOLUME-INFILL-UPSKIN)
G1 X1.9250 Y-2.2898 (VOLUME-INFILL-UPSKIN)
G1 X1.9250 Y-1.6449 (VOLUME-INFILL-UPSKIN)
M05 (Stop Spindle)
G1 F148.8189 X1.9250 Y-2.2898 (VOLUME-INFILL-UPSKIN-REVERSE TIP WIPE)
G1 X2.2750 Y-2.2898 (VOLUME-INFILL-UPSKIN-REVERSE TIP WIPE)
G1 X2.2750 Y-2.0347 (VOLUME-INFILL-UPSKIN-REVERSE TIP WIPE)
(BEGINNING LAYER: 9)
G01 Z0.7000 F59.0551 (TRAVEL-Lift Tip For Travel)
G00 X-1.7004 Y-1.6449 (TRAVEL)
G1 Z0.4500 (TRAVEL-Lower Tip)
(TYPE:VOLUME)
M03 S75 (Turn Spindle ON)
G04 P80 (Dwell)
M03 S110 (Change Spindle Speed)
G1 F118.1102 X-1.7004 Y-2.3949 (VOLUME-WALL_OUTER)
G1 X-1.4942 Y-2.3949 (VOLUME-WALL_OUTER)
G1 X-1.4942 Y2.3949 (VOLUME-WALL_OUTER)
G1 X-1.7174 Y2.3949 (VOLUME-WALL_OUTER)
G1 X-1.7175 Y1.6449 (VOLUME-WALL_OUTER)
G1 X-3.5590 Y1.6449 (VOLUME-WALL_OUTER)
G1 X-3.5590 Y2.3949 (VOLUME-WALL_OUTER)
G1 X-4.2181 Y2.3949 (VOLUME-WALL_OUTER)
G1 X-4.2181 Y1.6449 (VOLUME-WALL_OUTER)
G1 X-6.0617 Y1.6449 (VOLUME-WALL_OUTER)
G1 X-6.0617 Y2.3949 (VOLUME-WALL_OUTER)
G1 X-6.2839 Y2.3949 (VOLUME-WALL_OUTER)
G1 X-6.2839 Y-2.3949 (VOLUME-WALL_OUTER)
G1 X-6.0626 Y-2.3949 (VOLUME-WALL_OUTER)
G1 X-6.0626 Y-1.6449 (VOLUME-WALL_OUTER)
G1 X-4.2172 Y-1.6449 (VOLUME-WALL_OUTER)
G1 X-4.2171 Y-2.3949 (VOLUME-WALL_OUTER)
G1 X-3.5440 Y-2.3949 (VOLUME-WALL_OUTER)
G1 X-3.5440 Y-1.6449 (VOLUME-WALL_OUTER)
G1 X-1.7004 Y-1.6449 (VOLUME-WALL_OUTER)
M05 (Stop Spindle)
G1 F148.8189 X-1.7004 Y-2.3949 (VOLUME-WALL_OUTER-FORWARD TIP WIPE)
G1 X-1.4942 Y-2.3949 (VOLUME-WALL_OUTER-FORWARD TIP WIPE)
G1 X-1.4942 Y-2.1011 (VOLUME-WALL_OUTER-FORWARD TIP WIPE)
G01 Z0.7000 F59.0551 (TRAVEL-Lift Tip For Travel)
G00 X1.8085 Y-1.6449 (TRAVEL)
G1 Z0.4500 (TRAVEL-Lower Tip)
(TYPE:VOLUME)
M03 S75 (Turn Spindle ON)
G04 P80 (Dwell)
M03 S110 (Change Spindle Speed)
G1 F118.1102 X3.6540 Y-1.6449 (VOLUME-WALL_OUTER)
G1 X3.6540 Y-2.3949 (VOLUME-WALL_OUTER)
G1 X4.3271 Y-2.3949 (VOLUME-WALL_OUTER)
G1 X4.3272 Y-1.6449 (VOLUME-WALL_OUTER)
G1 X6.1707 Y-1.6449 (VOLUME-WALL_OUTER)
G1 X6.1707 Y-2.3949 (VOLUME-WALL_OUTER)
G1 X6.3770 Y-2.3949 (VOLUME-WALL_OUTER)
G1 X6.3770 Y2.3949 (VOLUME-WALL_OUTER)
G1 X6.1537 Y2.3949 (VOLUME-WALL_OUTER)
G1 X6.1537 Y1.6449 (VOLUME-WALL_OUTER)
G1 X4.3122 Y1.6449 (VOLUME-WALL_OUTER)
G1 X4.3121 Y2.3949 (VOLUME-WALL_OUTER)
G1 X3.6531 Y2.3949 (VOLUME-WALL_OUTER)
G1 X3.6530 Y1.6449 (VOLUME-WALL_OUTER)
G1 X1.8095 Y1.6449 (VOLUME-WALL_OUTER)
G1 X1.8094 Y2.3949 (VOLUME-WALL_OUTER)
G1 X1.5872 Y2.3949 (VOLUME-WALL_OUTER)
G1 X1.5872 Y-2.3949 (VOLUME-WALL_OUTER)
G1 X1.8085 Y-2.3949 (VOLUME-WALL_OUTER)
G1 X1.8085 Y-1.6449 (VOLUME-WALL_OUTER)
M05 (Stop Spindle)
G1 F148.8189 X3.0585 Y-1.6449 (VOLUME-WALL_OUTER-FORWARD TIP WIPE)
(BEGINNING LAYER: 10)
G01 Z0.7500 F59.0551 (TRAVEL-Lift Tip For Travel)
G00 X-1.7599 Y-1.6449 (TRAVEL)
G1 Z0.5000 (TRAVEL-Lower Tip)
(TYPE:VOLUME)
M03 S75 (Turn Spindle ON)
G04 P80 (Dwell)
M03 S110 (Change Spindle Speed)
G1 F118.1102 X-1.7599 Y-2.3949 (VOLUME-WALL_OUTER)
G1 X-1.4942 Y-2.3949 (VOLUME-WALL_OUTER)
G1 X-1.4942 Y2.3949 (VOLUME-WALL_OUTER)
G1 X-1.7768 Y2.3949 (VOLUME-WALL_OUTER)
G1 X-1.7768 Y1.6449 (VOLUME-WALL_OUTER)
G1 X-3.4996 Y1.6449 (VOLUME-WALL_OUTER)
G1 X-3.4997 Y2.3949 (VOLUME-WALL_OUTER)
G1 X-4.2764 Y2.3949 (VOLUME-WALL_OUTER)
G1 X-4.2765 Y1.6449 (VOLUME-WALL_OUTER)
G1 X-6.0033 Y1.6449 (VOLUME-WALL_OUTER)
G1 X-6.0033 Y2.3949 (VOLUME-WALL_OUTER)
G1 X-6.2839 Y2.3949 (VOLUME-WALL_OUTER)
G1 X-6.2839 Y-2.3949 (VOLUME-WALL_OUTER)
G1 X-6.0053 Y-2.3949 (VOLUME-WALL_OUTER)
G1 X-6.0052 Y-1.6449 (VOLUME-WALL_OUTER)
G1 X-4.2745 Y-1.6449 (VOLUME-WALL_OUTER)
G1 X-4.2745 Y-2.3949 (VOLUME-WALL_OUTER)
G1 X-3.4868 Y-2.3949 (VOLUME-WALL_OUTER)
G1 X-3.4868 Y-1.6449 (VOLUME-WALL_OUTER)
G1 X-1.7599 Y-1.6449 (VOLUME-WALL_OUTER)
M05 (Stop Spindle)
G1 F148.8189 X-1.7599 Y-2.3949 (VOLUME-WALL_OUTER-FORWARD TIP WIPE)
G1 X-1.4942 Y-2.3949 (VOLUME-WALL_OUTER-FORWARD TIP WIPE)
G1 X-1.4942 Y-2.1606 (VOLUME-WALL_OUTER-FORWARD TIP WIPE)
G01 Z0.7500 F59.0551 (TRAVEL-Lift Tip For Travel)
G00 X-3.6750 Y-2.2898 (TRAVEL)
G1 Z0.5000 (TRAVEL-Lower Tip)
(TYPE:VOLUME)
M03 S75 (Turn Spindle ON)
G04 P80 (Dwell)
M03 S110 (Change Spindle Speed)
G1 F118.1102 X-3.6750 Y2.2898 (VOLUME-INFILL-UPSKIN)
G1 X-4.0250 Y2.2898 (VOLUME-INFILL-UPSKIN)
G1 X-4.0250 Y-2.2898 (VOLUME-INFILL-UPSKIN)
M05 (Stop Spindle)
G1 F148.8189 X-4.0250 Y-1.0398 (VOLUME-INFILL-UPSKIN-REVERSE TIP WIPE)
G01 Z0.7500 F59.0551 (TRAVEL-Lift Tip For Travel)
G00 X-6.1250 Y-2.2898 (TRAVEL)
G1 Z0.5000 (TRAVEL-Lower Tip)
(TYPE:VOLUME)
M03 S75 (Turn Spindle ON)
G04 P80 (Dwell)
M03 S110 (Change Spindle Speed)
G1 F118.1102 X-6.1250 Y2.2898 (VOLUME-INFILL-UPSKIN)
M05 (Stop Spindle)
G1 F148.8189 X-6.1250 Y1.0398 (VOLUME-INFILL-UPSKIN-REVERSE TIP WIPE)
G01 Z0.7500 F59.0551 (TRAVEL-Lift Tip For Travel)
G00 X1.8659 Y-1.6449 (TRAVEL)
G1 Z0.5000 (TRAVEL-Lower Tip)
(TYPE:VOLUME)
M03 S75 (Turn Spindle ON)
G04 P80 (Dwell)
M03 S110 (Change Spindle Speed)
G1 F118.1102 X3.5966 Y-1.6449 (VOLUME-WALL_OUTER)
G1 X3.5967 Y-2.3949 (VOLUME-WALL_OUTER)
G1 X4.3843 Y-2.3949 (VOLUME-WALL_OUTER)
G1 X4.3844 Y-1.6449 (VOLUME-WALL_OUTER)
G1 X6.1112 Y-1.6449 (VOLUME-WALL_OUTER)
G1 X6.1113 Y-2.3949 (VOLUME-WALL_OUTER)
G1 X6.3770 Y-2.3949 (VOLUME-WALL_OUTER)
G1 X6.3770 Y2.3949 (VOLUME-WALL_OUTER)
G1 X6.0944 Y2.3949 (VOLUME-WALL_OUTER)
G1 X6.0943 Y1.6449 (VOLUME-WALL_OUTER)
G1 X4.3715 Y1.6449 (VOLUME-WALL_OUTER)
G1 X4.3715 Y2.3949 (VOLUME-WALL_OUTER)
G1 X3.5947 Y2.3949 (VOLUME-WALL_OUTER)
G1 X3.5947 Y1.6449 (VOLUME-WALL_OUTER)
G1 X1.8678 Y1.6449 (VOLUME-WALL_OUTER)
G1 X1.8678 Y2.3949 (VOLUME-WALL_OUTER)
G1 X1.5872 Y2.3949 (VOLUME-WALL_OUTER)
G1 X1.5872 Y-2.3949 (VOLUME-WALL_OUTER)
G1 X1.8659 Y-2.3949 (VOLUME-WALL_OUTER)
G1 X1.8659 Y-1.6449 (VOLUME-WALL_OUTER)
M05 (Stop Spindle)
G1 F148.8189 X3.1159 Y-1.6449 (VOLUME-WALL_OUTER-FORWARD TIP WIPE)
G01 Z0.7500 F59.0551 (TRAVEL-Lift Tip For Travel)
G00 X3.6750 Y-1.5398 (TRAVEL)
G1 Z0.5000 (TRAVEL-Lower Tip)
(TYPE:VOLUME)
M03 S75 (Turn Spindle ON)
G04 P80 (Dwell)
M03 S110 (Change Spindle Speed)
G1 F118.1102 X3.6750 Y1.5398 (VOLUME-INFILL-UPSKIN)
M05 (Stop Spindle)
G1 F148.8189 X3.6750 Y0.2898 (VOLUME-INFILL-UPSKIN-REVERSE TIP WIPE)
G01 Z0.7500 F59.0551 (TRAVEL-Lift Tip For Travel)
G00 X4.0250 Y2.2898 (TRAVEL)
G1 Z0.5000 (TRAVEL-Lower Tip)
(TYPE:VOLUME)
M03 S75 (Turn Spindle ON)
G04 P80 (Dwell)
M03 S110 (Change Spindle Speed)
G1 F118.1102 X4.0250 Y-2.2898 (VOLUME-INFILL-UPSKIN)
M05 (Stop Spindle)
G1 F148.8189 X4.0250 Y-1.0398 (VOLUME-INFILL-UPSKIN-REVERSE TIP WIPE)
(BEGINNING LAYER: 11)
G01 Z0.8000 F59.0551 (TRAVEL-Lift Tip For Travel)
G00 X-1.8194 Y-1.6449 (TRAVEL)
G1 Z0.5500 (TRAVEL-Lower Tip)
(TYPE:VOLUME)
M03 S75 (Turn Spindle ON)
G04 P80 (Dwell)
M03 S110 (Change Spindle Speed)
G1 F118.1102 X-1.8194 Y-2.3949 (VOLUME-WALL_OUTER)
G1 X-1.7036 Y-2.3949 (VOLUME-WALL_OUTER)
G1 X-1.7035 Y2.3949 (VOLUME-WALL_OUTER)
G1 X-1.8361 Y2.3949 (VOLUME-WALL_OUTER)
G1 X-1.8361 Y1.6449 (VOLUME-WALL_OUTER)
G1 X-3.4403 Y1.6449 (VOLUME-WALL_OUTER)
G1 X-3.4404 Y2.3949 (VOLUME-WALL_OUTER)
G1 X-3.5619 Y2.3949 (VOLUME-WALL_OUTER)
G1 X-3.5619 Y-2.3949 (VOLUME-WALL_OUTER)
G1 X-3.4296 Y-2.3949 (VOLUME-WALL_OUTER)
G1 X-3.4296 Y-1.6449 (VOLUME-WALL_OUTER)
G1 X-1.8194 Y-1.6449 (VOLUME-WALL_OUTER)
M05 (Stop Spindle)
G1 F148.8189 X-1.8194 Y-2.3949 (VOLUME-WALL_OUTER-FORWARD TIP WIPE)
G1 X-1.7036 Y-2.3949 (VOLUME-WALL_OUTER-FORWARD TIP WIPE)
G1 X-1.7035 Y-2.0106 (VOLUME-WALL_OUTER-FORWARD TIP WIPE)
G01 Z0.8000 F59.0551 (TRAVEL-Lift Tip For Travel)
G00 X-4.3319 Y-1.6449 (TRAVEL)
G1 Z0.5500 (TRAVEL-Lower Tip)
(TYPE:VOLUME)
M03 S75 (Turn Spindle ON)
G04 P80 (Dwell)
M03 S110 (Change Spindle Speed)
G1 F118.1102 X-4.3319 Y-2.3949 (VOLUME-WALL_OUTER)
G1 X-4.2163 Y-2.3949 (VOLUME-WALL_OUTER)
G1 X-4.2163 Y2.3949 (VOLUME-WALL_OUTER)
G1 X-4.3348 Y2.3949 (VOLUME-WALL_OUTER)
G1 X-4.3348 Y1.6449 (VOLUME-WALL_OUTER)
G1 X-5.9450 Y1.6449 (VOLUME-WALL_OUTER)
G1 X-5.9450 Y2.3949 (VOLUME-WALL_OUTER)
G1 X-6.0746 Y2.3949 (VOLUME-WALL_OUTER)
G1 X-6.0746 Y-2.3949 (VOLUME-WALL_OUTER)
G1 X-5.9479 Y-2.3949 (VOLUME-WALL_OUTER)
G1 X-5.9479 Y-1.6449 (VOLUME-WALL_OUTER)
G1 X-4.3319 Y-1.6449 (VOLUME-WALL_OUTER)
M05 (Stop Spindle)
G1 F148.8189 X-4.3319 Y-2.3949 (VOLUME-WALL_OUTER-FORWARD TIP WIPE)
G1 X-4.2163 Y-2.3949 (VOLUME-WALL_OUTER-FORWARD TIP WIPE)
G1 X-4.2163 Y-2.0104 (VOLUME-WALL_OUTER-FORWARD TIP WIPE)
G01 Z0.8000 F59.0551 (TRAVEL-Lift Tip For Travel)
G00 X1.9233 Y-1.6449 (TRAVEL)
G1 Z0.5500 (TRAVEL-Lower Tip)
(TYPE:VOLUME)
M03 S75 (Turn Spindle ON)
G04 P80 (Dwell)
M03 S110 (Change Spindle Speed)
G1 F118.1102 X3.5393 Y-1.6449 (VOLUME-WALL_OUTER)
G1 X3.5393 Y-2.3949 (VOLUME-WALL_OUTER)
G1 X3.6548 Y-2.3949 (VOLUME-WALL_OUTER)
G1 X3.6549 Y2.3949 (VOLUME-WALL_OUTER)
G1 X3.5364 Y2.3949 (VOLUME-WALL_OUTER)
G1 X3.5363 Y1.6449 (VOLUME-WALL_OUTER)
G1 X1.9261 Y1.6449 (VOLUME-WALL_OUTER)
G1 X1.9261 Y2.3949 (VOLUME-WALL_OUTER)
G1 X1.7966 Y2.3949 (VOLUME-WALL_OUTER)
G1 X1.7965 Y-2.3949 (VOLUME-WALL_OUTER)
G1 X1.9232 Y-2.3949 (VOLUME-WALL_OUTER)
G1 X1.9233 Y-1.6449 (VOLUME-WALL_OUTER)
M05 (Stop Spindle)
G1 F148.8189 X3.1733 Y-1.6449 (VOLUME-WALL_OUTER-FORWARD TIP WIPE)
G01 Z0.8000 F59.0551 (TRAVEL-Lift Tip For Travel)
G00 X4.4308 Y1.6449 (TRAVEL)
G1 Z0.5500 (TRAVEL-Lower Tip)
(TYPE:VOLUME)
M03 S75 (Turn Spindle ON)
G04 P80 (Dwell)
M03 S110 (Change Spindle Speed)
G1 F118.1102 X4.4308 Y2.3949 (VOLUME-WALL_OUTER)
G1 X4.3093 Y2.3949 (VOLUME-WALL_OUTER)
G1 X4.3093 Y-2.3949 (VOLUME-WALL_OUTER)
G1 X4.4415 Y-2.3949 (VOLUME-WALL_OUTER)
G1 X4.4415 Y-1.6449 (VOLUME-WALL_OUTER)
G1 X6.0517 Y-1.6449 (VOLUME-WALL_OUTER)
G1 X6.0518 Y-2.3949 (VOLUME-WALL_OUTER)
G1 X6.1676 Y-2.3949 (VOLUME-WALL_OUTER)
G1 X6.1676 Y2.3949 (VOLUME-WALL_OUTER)
G1 X6.0350 Y2.3949 (VOLUME-WALL_OUTER)
G1 X6.0350 Y1.6449 (VOLUME-WALL_OUTER)
G1 X4.4308 Y1.6449 (VOLUME-WALL_OUTER)
M05 (Stop Spindle)
G1 F148.8189 X4.4308 Y2.3949 (VOLUME-WALL_OUTER-FORWARD TIP WIPE)
G1 X4.3093 Y2.3949 (VOLUME-WALL_OUTER-FORWARD TIP WIPE)
G1 X4.3093 Y2.0163 (VOLUME-WALL_OUTER-FORWARD TIP WIPE)
(BEGINNING LAYER: 12)
G01 Z0.8500 F59.0551 (TRAVEL-Lift Tip For Travel)
G00 X-1.8661 Y1.6449 (TRAVEL)
G1 Z0.6000 (TRAVEL-Lower Tip)
(TYPE:VOLUME)
M03 S75 (Turn Spindle ON)
G04 P80 (Dwell)
M03 S110 (Change Spindle Speed)
G1 F118.1102 X-3.4039 Y1.6449 (VOLUME-WALL_OUTER)
G1 X-3.4040 Y-1.6449 (VOLUME-WALL_OUTER)
G1 X-1.8661 Y-1.6449 (VOLUME-WALL_OUTER)
G1 X-1.8661 Y1.6449 (VOLUME-WALL_OUTER)
M05 (Stop Spindle)
G1 F148.8189 X-3.1161 Y1.6449 (VOLUME-WALL_OUTER-FORWARD TIP WIPE)
G01 Z0.8500 F59.0551 (TRAVEL-Lift Tip For Travel)
G00 X-4.3741 Y1.6449 (TRAVEL)
G1 Z0.6000 (TRAVEL-Lower Tip)
(TYPE:VOLUME)
M03 S75 (Turn Spindle ON)
G04 P80 (Dwell)
M03 S110 (Change Spindle Speed)
G1 F118.1102 X-5.9120 Y1.6449 (VOLUME-WALL_OUTER)
G1 X-5.9120 Y-1.6449 (VOLUME-WALL_OUTER)
G1 X-4.3742 Y-1.6449 (VOLUME-WALL_OUTER)
G1 X-4.3741 Y1.6449 (VOLUME-WALL_OUTER)
M05 (Stop Spindle)
G1 F148.8189 X-5.6241 Y1.6449 (VOLUME-WALL_OUTER-FORWARD TIP WIPE)
G01 Z0.8500 F59.0551 (TRAVEL-Lift Tip For Travel)
G00 X1.9591 Y-1.6449 (TRAVEL)
G1 Z0.6000 (TRAVEL-Lower Tip)
(TYPE:VOLUME)
M03 S75 (Turn Spindle ON)
G04 P80 (Dwell)
M03 S110 (Change Spindle Speed)
G1 F118.1102 X3.4970 Y-1.6449 (VOLUME-WALL_OUTER)
G1 X3.4970 Y1.6449 (VOLUME-WALL_OUTER)
G1 X1.9592 Y1.6449 (VOLUME-WALL_OUTER)
G1 X1.9591 Y-1.6449 (VOLUME-WALL_OUTER)
M05 (Stop Spindle)
G1 F148.8189 X3.2091 Y-1.6449 (VOLUME-WALL_OUTER-FORWARD TIP WIPE)
G01 Z0.8500 F59.0551 (TRAVEL-Lift Tip For Travel)
G00 X4.4672 Y-1.6449 (TRAVEL)
G1 Z0.6000 (TRAVEL-Lower Tip)
(TYPE:VOLUME)
M03 S75 (Turn Spindle ON)
G04 P80 (Dwell)
M03 S110 (Change Spindle Speed)
G1 F118.1102 X6.0050 Y-1.6449 (VOLUME-WALL_OUTER)
G1 X6.0050 Y1.6449 (VOLUME-WALL_OUTER)
G1 X4.4672 Y1.6449 (VOLUME-WALL_OUTER)
G1 X4.4672 Y-1.6449 (VOLUME-WALL_OUTER)
M05 (Stop Spindle)
G1 F148.8189 X5.7172 Y-1.6449 (VOLUME-WALL_OUTER-FORWARD TIP WIPE)
(BEGINNING LAYER: 13)
G01 Z0.9000 F59.0551 (TRAVEL-Lift Tip For Travel)
G00 X-1.9743 Y1.6449 (TRAVEL)
G1 Z0.6500 (TRAVEL-Lower Tip)
(TYPE:VOLUME)
M03 S75 (Turn Spindle ON)
G04 P80 (Dwell)
M03 S110 (Change Spindle Speed)
G1 F118.1102 X-3.3033 Y1.6449 (VOLUME-WALL_OUTER)
G1 X-3.3034 Y-1.6449 (VOLUME-WALL_OUTER)
G1 X-1.9744 Y-1.6449 (VOLUME-WALL_OUTER)
G1 X-1.9743 Y1.6449 (VOLUME-WALL_OUTER)
M05 (Stop Spindle)
G1 F148.8189 X-3.2243 Y1.6449 (VOLUME-WALL_OUTER-FORWARD TIP WIPE)
G01 Z0.9000 F59.0551 (TRAVEL-Lift Tip For Travel)
G00 X-4.4747 Y1.6449 (TRAVEL)
G1 Z0.6500 (TRAVEL-Lower Tip)
(TYPE:VOLUME)
M03 S75 (Turn Spindle ON)
G04 P80 (Dwell)
M03 S110 (Change Spindle Speed)
G1 F118.1102 X-5.8038 Y1.6449 (VOLUME-WALL_OUTER)
G1 X-5.8038 Y-1.6449 (VOLUME-WALL_OUTER)
G1 X-4.4748 Y-1.6449 (VOLUME-WALL_OUTER)
G1 X-4.4747 Y1.6449 (VOLUME-WALL_OUTER)
M05 (Stop Spindle)
G1 F148.8189 X-5.7247 Y1.6449 (VOLUME-WALL_OUTER-FORWARD TIP WIPE)
G01 Z0.9000 F59.0551 (TRAVEL-Lift Tip For Travel)
G00 X2.0673 Y-1.6449 (TRAVEL)
G1 Z0.6500 (TRAVEL-Lower Tip)
(TYPE:VOLUME)
M03 S75 (Turn Spindle ON)
G04 P80 (Dwell)
M03 S110 (Change Spindle Speed)
G1 F118.1102 X3.3964 Y-1.6449 (VOLUME-WALL_OUTER)
G1 X3.3964 Y1.6449 (VOLUME-WALL_OUTER)
G1 X2.0674 Y1.6449 (VOLUME-WALL_OUTER)
G1 X2.0673 Y-1.6449 (VOLUME-WALL_OUTER)
M05 (Stop Spindle)
G1 F148.8189 X3.3173 Y-1.6449 (VOLUME-WALL_OUTER-FORWARD TIP WIPE)
G01 Z0.9000 F59.0551 (TRAVEL-Lift Tip For Travel)
G00 X4.5678 Y-1.6449 (TRAVEL)
G1 Z0.6500 (TRAVEL-Lower Tip)
(TYPE:VOLUME)
M03 S75 (Turn Spindle ON)
G04 P80 (Dwell)
M03 S110 (Change Spindle Speed)
G1 F118.1102 X5.8968 Y-1.6449 (VOLUME-WALL_OUTER)
G1 X5.8968 Y1.6449 (VOLUME-WALL_OUTER)
G1 X4.5678 Y1.6449 (VOLUME-WALL_OUTER)
G1 X4.5678 Y-1.6449 (VOLUME-WALL_OUTER)
M05 (Stop Spindle)
G1 F148.8189 X5.8178 Y-1.6449 (VOLUME-WALL_OUTER-FORWARD TIP WIPE)
(BEGINNING LAYER: 14)
G01 Z0.9500 F59.0551 (TRAVEL-Lift Tip For Travel)
G00 X-2.0559 Y1.6449 (TRAVEL)
G1 Z0.7000 (TRAVEL-Lower Tip)
(TYPE:VOLUME)
M03 S75 (Turn Spindle ON)
G04 P80 (Dwell)
M03 S110 (Change Spindle Speed)
G1 F118.1102 X-3.2186 Y1.6449 (VOLUME-WALL_OUTER)
G1 X-3.2187 Y-1.6449 (VOLUME-WALL_OUTER)
G1 X-2.0560 Y-1.6449 (VOLUME-WALL_OUTER)
G1 X-2.0559 Y1.6449 (VOLUME-WALL_OUTER)
M05 (Stop Spindle)
G1 F148.8189 X-3.2186 Y1.6449 (VOLUME-WALL_OUTER-FORWARD TIP WIPE)
G1 X-3.2187 Y1.5575 (VOLUME-WALL_OUTER-FORWARD TIP WIPE)
G01 Z0.9500 F59.0551 (TRAVEL-Lift Tip For Travel)
G00 X-4.5595 Y1.6449 (TRAVEL)
G1 Z0.7000 (TRAVEL-Lower Tip)
(TYPE:VOLUME)
M03 S75 (Turn Spindle ON)
G04 P80 (Dwell)
M03 S110 (Change Spindle Speed)
G1 F118.1102 X-5.7222 Y1.6449 (VOLUME-WALL_OUTER)
G1 X-5.7222 Y-1.6449 (VOLUME-WALL_OUTER)
G1 X-4.5595 Y-1.6449 (VOLUME-WALL_OUTER)
G1 X-4.5595 Y1.6449 (VOLUME-WALL_OUTER)
M05 (Stop Spindle)
G1 F148.8189 X-5.7222 Y1.6449 (VOLUME-WALL_OUTER-FORWARD TIP WIPE)
G1 X-5.7222 Y1.5575 (VOLUME-WALL_OUTER-FORWARD TIP WIPE)
G01 Z0.9500 F59.0551 (TRAVEL-Lift Tip For Travel)
G00 X2.1489 Y-1.6449 (TRAVEL)
G1 Z0.7000 (TRAVEL-Lower Tip)
(TYPE:VOLUME)
M03 S75 (Turn Spindle ON)
G04 P80 (Dwell)
M03 S110 (Change Spindle Speed)
G1 F118.1102 X3.3116 Y-1.6449 (VOLUME-WALL_OUTER)
G1 X3.3117 Y1.6449 (VOLUME-WALL_OUTER)
G1 X2.1490 Y1.6449 (VOLUME-WALL_OUTER)
G1 X2.1489 Y-1.6449 (VOLUME-WALL_OUTER)
M05 (Stop Spindle)
G1 F148.8189 X3.3116 Y-1.6449 (VOLUME-WALL_OUTER-FORWARD TIP WIPE)
G1 X3.3117 Y-1.5575 (VOLUME-WALL_OUTER-FORWARD TIP WIPE)
G01 Z0.9500 F59.0551 (TRAVEL-Lift Tip For Travel)
G00 X4.6525 Y-1.6449 (TRAVEL)
G1 Z0.7000 (TRAVEL-Lower Tip)
(TYPE:VOLUME)
M03 S75 (Turn Spindle ON)
G04 P80 (Dwell)
M03 S110 (Change Spindle Speed)
G1 F118.1102 X5.8152 Y-1.6449 (VOLUME-WALL_OUTER)
G1 X5.8152 Y1.6449 (VOLUME-WALL_OUTER)
G1 X4.6525 Y1.6449 (VOLUME-WALL_OUTER)
G1 X4.6525 Y-1.6449 (VOLUME-WALL_OUTER)
M05 (Stop Spindle)
G1 F148.8189 X5.8152 Y-1.6449 (VOLUME-WALL_OUTER-FORWARD TIP WIPE)
G1 X5.8152 Y-1.5575 (VOLUME-WALL_OUTER-FORWARD TIP WIPE)
(BEGINNING LAYER: 15)
G01 Z1.0000 F59.0551 (TRAVEL-Lift Tip For Travel)
G00 X-2.1218 Y1.6449 (TRAVEL)
G1 Z0.7500 (TRAVEL-Lower Tip)
(TYPE:VOLUME)
M03 S75 (Turn Spindle ON)
G04 P80 (Dwell)
M03 S110 (Change Spindle Speed)
G1 F118.1102 X-3.1544 Y1.6449 (VOLUME-WALL_OUTER)
G1 X-3.1544 Y-1.6449 (VOLUME-WALL_OUTER)
G1 X-2.1219 Y-1.6449 (VOLUME-WALL_OUTER)
G1 X-2.1218 Y1.6449 (VOLUME-WALL_OUTER)
M05 (Stop Spindle)
G1 F148.8189 X-3.1544 Y1.6449 (VOLUME-WALL_OUTER-FORWARD TIP WIPE)
G1 X-3.1544 Y1.4274 (VOLUME-WALL_OUTER-FORWARD TIP WIPE)
G01 Z1.0000 F59.0551 (TRAVEL-Lift Tip For Travel)
G00 X-4.6237 Y1.6449 (TRAVEL)
G1 Z0.7500 (TRAVEL-Lower Tip)
(TYPE:VOLUME)
M03 S75 (Turn Spindle ON)
G04 P80 (Dwell)
M03 S110 (Change Spindle Speed)
G1 F118.1102 X-5.6563 Y1.6449 (VOLUME-WALL_OUTER)
G1 X-5.6563 Y-1.6449 (VOLUME-WALL_OUTER)
G1 X-4.6237 Y-1.6449 (VOLUME-WALL_OUTER)
G1 X-4.6237 Y1.6449 (VOLUME-WALL_OUTER)
M05 (Stop Spindle)
G1 F148.8189 X-5.6563 Y1.6449 (VOLUME-WALL_OUTER-FORWARD TIP WIPE)
G1 X-5.6563 Y1.4274 (VOLUME-WALL_OUTER-FORWARD TIP WIPE)
G01 Z1.0000 F59.0551 (TRAVEL-Lift Tip For Travel)
G00 X2.2148 Y-1.6449 (TRAVEL)
G1 Z0.7500 (TRAVEL-Lower Tip)
(TYPE:VOLUME)
M03 S75 (Turn Spindle ON)
G04 P80 (Dwell)
M03 S110 (Change Spindle Speed)
G1 F118.1102 X3.2474 Y-1.6449 (VOLUME-WALL_OUTER)
G1 X3.2474 Y1.6449 (VOLUME-WALL_OUTER)
G1 X2.2149 Y1.6449 (VOLUME-WALL_OUTER)
G1 X2.2148 Y-1.6449 (VOLUME-WALL_OUTER)
M05 (Stop Spindle)
G1 F148.8189 X3.2474 Y-1.6449 (VOLUME-WALL_OUTER-FORWARD TIP WIPE)
G1 X3.2474 Y-1.4274 (VOLUME-WALL_OUTER-FORWARD TIP WIPE)
G01 Z1.0000 F59.0551 (TRAVEL-Lift Tip For Travel)
G00 X4.7167 Y-1.6449 (TRAVEL)
G1 Z0.7500 (TRAVEL-Lower Tip)
(TYPE:VOLUME)
M03 S75 (Turn Spindle ON)
G04 P80 (Dwell)
M03 S110 (Change Spindle Speed)
G1 F118.1102 X5.7493 Y-1.6449 (VOLUME-WALL_OUTER)
G1 X5.7493 Y1.6449 (VOLUME-WALL_OUTER)
G1 X4.7167 Y1.6449 (VOLUME-WALL_OUTER)
G1 X4.7167 Y-1.6449 (VOLUME-WALL_OUTER)
M05 (Stop Spindle)
G1 F148.8189 X5.7493 Y-1.6449 (VOLUME-WALL_OUTER-FORWARD TIP WIPE)
G1 X5.7493 Y-1.4274 (VOLUME-WALL_OUTER-FORWARD TIP WIPE)
(BEGINNING LAYER: 16)
G01 Z1.0500 F59.0551 (TRAVEL-Lift Tip For Travel)
G00 X-2.1804 Y1.6449 (TRAVEL)
G1 Z0.8000 (TRAVEL-Lower Tip)
(TYPE:VOLUME)
M03 S75 (Turn Spindle ON)
G04 P80 (Dwell)
M03 S110 (Change Spindle Speed)
G1 F118.1102 X-3.0946 Y1.6449 (VOLUME-WALL_OUTER)
G1 X-3.0946 Y-1.6449 (VOLUME-WALL_OUTER)
G1 X-2.1804 Y-1.6449 (VOLUME-WALL_OUTER)
G1 X-2.1804 Y1.6449 (VOLUME-WALL_OUTER)
M05 (Stop Spindle)
G1 F148.8189 X-3.0946 Y1.6449 (VOLUME-WALL_OUTER-FORWARD TIP WIPE)
G1 X-3.0946 Y1.3091 (VOLUME-WALL_OUTER-FORWARD TIP WIPE)
G01 Z1.0500 F59.0551 (TRAVEL-Lift Tip For Travel)
G00 X-4.6836 Y1.6449 (TRAVEL)
G1 Z0.8000 (TRAVEL-Lower Tip)
(TYPE:VOLUME)
M03 S75 (Turn Spindle ON)
G04 P80 (Dwell)
M03 S110 (Change Spindle Speed)
G1 F118.1102 X-5.5978 Y1.6449 (VOLUME-WALL_OUTER)
G1 X-5.5978 Y-1.6449 (VOLUME-WALL_OUTER)
G1 X-4.6836 Y-1.6449 (VOLUME-WALL_OUTER)
G1 X-4.6836 Y1.6449 (VOLUME-WALL_OUTER)
M05 (Stop Spindle)
G1 F148.8189 X-5.5978 Y1.6449 (VOLUME-WALL_OUTER-FORWARD TIP WIPE)
G1 X-5.5978 Y1.3090 (VOLUME-WALL_OUTER-FORWARD TIP WIPE)
G01 Z1.0500 F59.0551 (TRAVEL-Lift Tip For Travel)
G00 X2.2733 Y-1.6449 (TRAVEL)
G1 Z0.8000 (TRAVEL-Lower Tip)
(TYPE:VOLUME)
M03 S75 (Turn Spindle ON)
G04 P80 (Dwell)
M03 S110 (Change Spindle Speed)
G1 F118.1102 X3.1876 Y-1.6449 (VOLUME-WALL_OUTER)
G1 X3.1876 Y1.6449 (VOLUME-WALL_OUTER)
G1 X2.2734 Y1.6449 (VOLUME-WALL_OUTER)
G1 X2.2733 Y-1.6449 (VOLUME-WALL_OUTER)
M05 (Stop Spindle)
G1 F148.8189 X3.1876 Y-1.6449 (VOLUME-WALL_OUTER-FORWARD TIP WIPE)
G1 X3.1876 Y-1.3091 (VOLUME-WALL_OUTER-FORWARD TIP WIPE)
G01 Z1.0500 F59.0551 (TRAVEL-Lift Tip For Travel)
G00 X4.7766 Y1.6449 (TRAVEL)
G1 Z0.8000 (TRAVEL-Lower Tip)
(TYPE:VOLUME)
M03 S75 (Turn Spindle ON)
G04 P80 (Dwell)
M03 S110 (Change Spindle Speed)
G1 F118.1102 X4.7766 Y-1.6449 (VOLUME-WALL_OUTER)
G1 X5.6907 Y-1.6449 (VOLUME-WALL_OUTER)
G1 X5.6908 Y1.6449 (VOLUME-WALL_OUTER)
G1 X4.7766 Y1.6449 (VOLUME-WALL_OUTER)
M05 (Stop Spindle)
G1 F148.8189 X4.7766 Y0.3949 (VOLUME-WALL_OUTER-FORWARD TIP WIPE)
(BEGINNING LAYER: 17)
G01 Z1.1000 F59.0551 (TRAVEL-Lift Tip For Travel)
G00 X-2.2287 Y1.6449 (TRAVEL)
G1 Z0.8500 (TRAVEL-Lower Tip)
(TYPE:VOLUME)
M03 S75 (Turn Spindle ON)
G04 P80 (Dwell)
M03 S110 (Change Spindle Speed)
G1 F118.1102 X-3.0485 Y1.6449 (VOLUME-WALL_OUTER)
G1 X-3.0485 Y-1.6449 (VOLUME-WALL_OUTER)
G1 X-2.2287 Y-1.6449 (VOLUME-WALL_OUTER)
G1 X-2.2287 Y1.6449 (VOLUME-WALL_OUTER)
M05 (Stop Spindle)
G1 F148.8189 X-3.0485 Y1.6449 (VOLUME-WALL_OUTER-FORWARD TIP WIPE)
G1 X-3.0485 Y1.2147 (VOLUME-WALL_OUTER-FORWARD TIP WIPE)
G01 Z1.1000 F59.0551 (TRAVEL-Lift Tip For Travel)
G00 X-4.7296 Y1.6449 (TRAVEL)
G1 Z0.8500 (TRAVEL-Lower Tip)
(TYPE:VOLUME)
M03 S75 (Turn Spindle ON)
G04 P80 (Dwell)
M03 S110 (Change Spindle Speed)
G1 F118.1102 X-5.5494 Y1.6449 (VOLUME-WALL_OUTER)
G1 X-5.5494 Y-1.6449 (VOLUME-WALL_OUTER)
G1 X-4.7296 Y-1.6449 (VOLUME-WALL_OUTER)
G1 X-4.7296 Y1.6449 (VOLUME-WALL_OUTER)
M05 (Stop Spindle)
G1 F148.8189 X-5.5494 Y1.6449 (VOLUME-WALL_OUTER-FORWARD TIP WIPE)
G1 X-5.5494 Y1.2147 (VOLUME-WALL_OUTER-FORWARD TIP WIPE)
G01 Z1.1000 F59.0551 (TRAVEL-Lift Tip For Travel)
G00 X2.3217 Y1.6449 (TRAVEL)
G1 Z0.8500 (TRAVEL-Lower Tip)
(TYPE:VOLUME)
M03 S75 (Turn Spindle ON)
G04 P80 (Dwell)
M03 S110 (Change Spindle Speed)
G1 F118.1102 X2.3217 Y-1.6449 (VOLUME-WALL_OUTER)
G1 X3.1415 Y-1.6449 (VOLUME-WALL_OUTER)
G1 X3.1415 Y1.6449 (VOLUME-WALL_OUTER)
G1 X2.3217 Y1.6449 (VOLUME-WALL_OUTER)
M05 (Stop Spindle)
G1 F148.8189 X2.3217 Y0.3949 (VOLUME-WALL_OUTER-FORWARD TIP WIPE)
G01 Z1.1000 F59.0551 (TRAVEL-Lift Tip For Travel)
G00 X4.8226 Y1.6449 (TRAVEL)
G1 Z0.8500 (TRAVEL-Lower Tip)
(TYPE:VOLUME)
M03 S75 (Turn Spindle ON)
G04 P80 (Dwell)
M03 S110 (Change Spindle Speed)
G1 F118.1102 X4.8226 Y-1.6449 (VOLUME-WALL_OUTER)
G1 X5.6424 Y-1.6449 (VOLUME-WALL_OUTER)
G1 X5.6424 Y1.6449 (VOLUME-WALL_OUTER)
G1 X4.8226 Y1.6449 (VOLUME-WALL_OUTER)
M05 (Stop Spindle)
G1 F148.8189 X4.8226 Y0.3949 (VOLUME-WALL_OUTER-FORWARD TIP WIPE)
(BEGINNING LAYER: 18)
G01 Z1.1500 F59.0551 (TRAVEL-Lift Tip For Travel)
G00 X-2.2714 Y1.6449 (TRAVEL)
G1 Z0.9000 (TRAVEL-Lower Tip)
(TYPE:VOLUME)
M03 S75 (Turn Spindle ON)
G04 P80 (Dwell)
M03 S110 (Change Spindle Speed)
G1 F118.1102 X-3.0025 Y1.6449 (VOLUME-WALL_OUTER)
G1 X-3.0025 Y-1.6449 (VOLUME-WALL_OUTER)
G1 X-2.2714 Y-1.6449 (VOLUME-WALL_OUTER)
G1 X-2.2714 Y1.6449 (VOLUME-WALL_OUTER)
M05 (Stop Spindle)
G1 F148.8189 X-3.0025 Y1.6449 (VOLUME-WALL_OUTER-FORWARD TIP WIPE)
G1 X-3.0025 Y1.1260 (VOLUME-WALL_OUTER-FORWARD TIP WIPE)
G01 Z1.1500 F59.0551 (TRAVEL-Lift Tip For Travel)
G00 X-4.7756 Y1.6449 (TRAVEL)
G1 Z0.9000 (TRAVEL-Lower Tip)
(TYPE:VOLUME)
M03 S75 (Turn Spindle ON)
G04 P80 (Dwell)
M03 S110 (Change Spindle Speed)
G1 F118.1102 X-5.5067 Y1.6449 (VOLUME-WALL_OUTER)
G1 X-5.5067 Y-1.6449 (VOLUME-WALL_OUTER)
G1 X-4.7756 Y-1.6449 (VOLUME-WALL_OUTER)
G1 X-4.7756 Y1.6449 (VOLUME-WALL_OUTER)
M05 (Stop Spindle)
G1 F148.8189 X-5.5067 Y1.6449 (VOLUME-WALL_OUTER-FORWARD TIP WIPE)
G1 X-5.5067 Y1.1260 (VOLUME-WALL_OUTER-FORWARD TIP WIPE)
G01 Z1.1500 F59.0551 (TRAVEL-Lift Tip For Travel)
G00 X2.3644 Y1.6449 (TRAVEL)
G1 Z0.9000 (TRAVEL-Lower Tip)
(TYPE:VOLUME)
M03 S75 (Turn Spindle ON)
G04 P80 (Dwell)
M03 S110 (Change Spindle Speed)
G1 F118.1102 X2.3644 Y-1.6449 (VOLUME-WALL_OUTER)
G1 X3.0956 Y-1.6449 (VOLUME-WALL_OUTER)
G1 X3.0956 Y1.6449 (VOLUME-WALL_OUTER)
G1 X2.3644 Y1.6449 (VOLUME-WALL_OUTER)
M05 (Stop Spindle)
G1 F148.8189 X2.3644 Y0.3949 (VOLUME-WALL_OUTER-FORWARD TIP WIPE)
G01 Z1.1500 F59.0551 (TRAVEL-Lift Tip For Travel)
G00 X4.8686 Y1.6449 (TRAVEL)
G1 Z0.9000 (TRAVEL-Lower Tip)
(TYPE:VOLUME)
M03 S75 (Turn Spindle ON)
G04 P80 (Dwell)
M03 S110 (Change Spindle Speed)
G1 F118.1102 X4.8686 Y-1.6449 (VOLUME-WALL_OUTER)
G1 X5.5997 Y-1.6449 (VOLUME-WALL_OUTER)
G1 X5.5997 Y1.6449 (VOLUME-WALL_OUTER)
G1 X4.8686 Y1.6449 (VOLUME-WALL_OUTER)
M05 (Stop Spindle)
G1 F148.8189 X4.8686 Y0.3949 (VOLUME-WALL_OUTER-FORWARD TIP WIPE)
(BEGINNING LAYER: 19)
G01 Z1.2000 F59.0551 (TRAVEL-Lift Tip For Travel)
G00 X-2.3110 Y1.6449 (TRAVEL)
G1 Z0.9500 (TRAVEL-Lower Tip)
(TYPE:VOLUME)
M03 S75 (Turn Spindle ON)
G04 P80 (Dwell)
M03 S110 (Change Spindle Speed)
G1 F118.1102 X-2.9672 Y1.6449 (VOLUME-WALL_OUTER)
G1 X-2.9672 Y-1.6449 (VOLUME-WALL_OUTER)
G1 X-2.3110 Y-1.6449 (VOLUME-WALL_OUTER)
G1 X-2.3110 Y1.6449 (VOLUME-WALL_OUTER)
M05 (Stop Spindle)
G1 F148.8189 X-2.9672 Y1.6449 (VOLUME-WALL_OUTER-FORWARD TIP WIPE)
G1 X-2.9672 Y1.0511 (VOLUME-WALL_OUTER-FORWARD TIP WIPE)
G01 Z1.2000 F59.0551 (TRAVEL-Lift Tip For Travel)
G00 X-4.8109 Y1.6449 (TRAVEL)
G1 Z0.9500 (TRAVEL-Lower Tip)
(TYPE:VOLUME)
M03 S75 (Turn Spindle ON)
G04 P80 (Dwell)
M03 S110 (Change Spindle Speed)
G1 F118.1102 X-5.4671 Y1.6449 (VOLUME-WALL_OUTER)
G1 X-5.4671 Y-1.6449 (VOLUME-WALL_OUTER)
G1 X-4.8109 Y-1.6449 (VOLUME-WALL_OUTER)
G1 X-4.8109 Y1.6449 (VOLUME-WALL_OUTER)
M05 (Stop Spindle)
G1 F148.8189 X-5.4671 Y1.6449 (VOLUME-WALL_OUTER-FORWARD TIP WIPE)
G1 X-5.4671 Y1.0511 (VOLUME-WALL_OUTER-FORWARD TIP WIPE)
G01 Z1.2000 F59.0551 (TRAVEL-Lift Tip For Travel)
G00 X2.4041 Y1.6449 (TRAVEL)
G1 Z0.9500 (TRAVEL-Lower Tip)
(TYPE:VOLUME)
M03 S75 (Turn Spindle ON)
G04 P80 (Dwell)
M03 S110 (Change Spindle Speed)
G1 F118.1102 X2.4041 Y-1.6449 (VOLUME-WALL_OUTER)
G1 X3.0602 Y-1.6449 (VOLUME-WALL_OUTER)
G1 X3.0602 Y1.6449 (VOLUME-WALL_OUTER)
G1 X2.4041 Y1.6449 (VOLUME-WALL_OUTER)
M05 (Stop Spindle)
G1 F148.8189 X2.4041 Y0.3949 (VOLUME-WALL_OUTER-FORWARD TIP WIPE)
G01 Z1.2000 F59.0551 (TRAVEL-Lift Tip For Travel)
G00 X4.9039 Y1.6449 (TRAVEL)
G1 Z0.9500 (TRAVEL-Lower Tip)
(TYPE:VOLUME)
M03 S75 (Turn Spindle ON)
G04 P80 (Dwell)
M03 S110 (Change Spindle Speed)
G1 F118.1102 X4.9039 Y-1.6449 (VOLUME-WALL_OUTER)
G1 X5.5601 Y-1.6449 (VOLUME-WALL_OUTER)
G1 X5.5601 Y1.6449 (VOLUME-WALL_OUTER)
G1 X4.9039 Y1.6449 (VOLUME-WALL_OUTER)
M05 (Stop Spindle)
G1 F148.8189 X4.9039 Y0.3949 (VOLUME-WALL_OUTER-FORWARD TIP WIPE)
(BEGINNING LAYER: 20)
G01 Z1.2500 F59.0551 (TRAVEL-Lift Tip For Travel)
G00 X-2.3417 Y1.6449 (TRAVEL)
G1 Z1.0000 (TRAVEL-Lower Tip)
(TYPE:VOLUME)
M03 S75 (Turn Spindle ON)
G04 P80 (Dwell)
M03 S110 (Change Spindle Speed)
G1 F118.1102 X-2.9346 Y1.6449 (VOLUME-WALL_OUTER)
G1 X-2.9346 Y-1.6449 (VOLUME-WALL_OUTER)
G1 X-2.3417 Y-1.6449 (VOLUME-WALL_OUTER)
G1 X-2.3417 Y1.6449 (VOLUME-WALL_OUTER)
M05 (Stop Spindle)
G1 F148.8189 X-2.9346 Y1.6449 (VOLUME-WALL_OUTER-FORWARD TIP WIPE)
G1 X-2.9346 Y0.9878 (VOLUME-WALL_OUTER-FORWARD TIP WIPE)
G01 Z1.2500 F59.0551 (TRAVEL-Lift Tip For Travel)
G00 X-2.6250 Y1.5398 (TRAVEL)
G1 Z1.0000 (TRAVEL-Lower Tip)
(TYPE:VOLUME)
M03 S75 (Turn Spindle ON)
G04 P80 (Dwell)
M03 S110 (Change Spindle Speed)
G1 F118.1102 X-2.6250 Y-1.5398 (VOLUME-INFILL-UPSKIN)
M05 (Stop Spindle)
G1 F148.8189 X-2.6250 Y-0.2898 (VOLUME-INFILL-UPSKIN-REVERSE TIP WIPE)
G01 Z1.2500 F59.0551 (TRAVEL-Lift Tip For Travel)
G00 X-4.8436 Y1.6449 (TRAVEL)
G1 Z1.0000 (TRAVEL-Lower Tip)
(TYPE:VOLUME)
M03 S75 (Turn Spindle ON)
G04 P80 (Dwell)
M03 S110 (Change Spindle Speed)
G1 F118.1102 X-5.4365 Y1.6449 (VOLUME-WALL_OUTER)
G1 X-5.4365 Y-1.6449 (VOLUME-WALL_OUTER)
G1 X-4.8436 Y-1.6449 (VOLUME-WALL_OUTER)
G1 X-4.8436 Y1.6449 (VOLUME-WALL_OUTER)
M05 (Stop Spindle)
G1 F148.8189 X-5.4365 Y1.6449 (VOLUME-WALL_OUTER-FORWARD TIP WIPE)
G1 X-5.4365 Y0.9878 (VOLUME-WALL_OUTER-FORWARD TIP WIPE)
G01 Z1.2500 F59.0551 (TRAVEL-Lift Tip For Travel)
G00 X-5.0750 Y1.5398 (TRAVEL)
G1 Z1.0000 (TRAVEL-Lower Tip)
(TYPE:VOLUME)
M03 S75 (Turn Spindle ON)
G04 P80 (Dwell)
M03 S110 (Change Spindle Speed)
G1 F118.1102 X-5.0750 Y-1.5398 (VOLUME-INFILL-UPSKIN)
M05 (Stop Spindle)
G1 F148.8189 X-5.0750 Y-0.2898 (VOLUME-INFILL-UPSKIN-REVERSE TIP WIPE)
G01 Z1.2500 F59.0551 (TRAVEL-Lift Tip For Travel)
G00 X2.4346 Y1.6449 (TRAVEL)
G1 Z1.0000 (TRAVEL-Lower Tip)
(TYPE:VOLUME)
M03 S75 (Turn Spindle ON)
G04 P80 (Dwell)
M03 S110 (Change Spindle Speed)
G1 F118.1102 X2.4347 Y-1.6449 (VOLUME-WALL_OUTER)
G1 X3.0276 Y-1.6449 (VOLUME-WALL_OUTER)
G1 X3.0276 Y1.6449 (VOLUME-WALL_OUTER)
G1 X2.4346 Y1.6449 (VOLUME-WALL_OUTER)
M05 (Stop Spindle)
G1 F148.8189 X2.4347 Y0.3948 (VOLUME-WALL_OUTER-FORWARD TIP WIPE)
G01 Z1.2500 F59.0551 (TRAVEL-Lift Tip For Travel)
G00 X2.6250 Y1.5398 (TRAVEL)
G1 Z1.0000 (TRAVEL-Lower Tip)
(TYPE:VOLUME)
M03 S75 (Turn Spindle ON)
G04 P80 (Dwell)
M03 S110 (Change Spindle Speed)
G1 F118.1102 X2.6250 Y-1.5398 (VOLUME-INFILL-UPSKIN)
M05 (Stop Spindle)
G1 F148.8189 X2.6250 Y-0.2898 (VOLUME-INFILL-UPSKIN-REVERSE TIP WIPE)
G01 Z1.2500 F59.0551 (TRAVEL-Lift Tip For Travel)
G00 X4.9366 Y1.6449 (TRAVEL)
G1 Z1.0000 (TRAVEL-Lower Tip)
(TYPE:VOLUME)
M03 S75 (Turn Spindle ON)
G04 P80 (Dwell)
M03 S110 (Change Spindle Speed)
G1 F118.1102 X4.9366 Y-1.6449 (VOLUME-WALL_OUTER)
G1 X5.5295 Y-1.6449 (VOLUME-WALL_OUTER)
G1 X5.5295 Y1.6449 (VOLUME-WALL_OUTER)
G1 X4.9366 Y1.6449 (VOLUME-WALL_OUTER)
M05 (Stop Spindle)
G1 F148.8189 X4.9366 Y0.3949 (VOLUME-WALL_OUTER-FORWARD TIP WIPE)
G01 Z1.2500 F59.0551 (TRAVEL-Lift Tip For Travel)
G00 X5.0750 Y1.5398 (TRAVEL)
G1 Z1.0000 (TRAVEL-Lower Tip)
(TYPE:VOLUME)
M03 S75 (Turn Spindle ON)
G04 P80 (Dwell)
M03 S110 (Change Spindle Speed)
G1 F118.1102 X5.0750 Y-1.5398 (VOLUME-INFILL-UPSKIN)
M05 (Stop Spindle)
G1 F148.8189 X5.0750 Y-0.2898 (VOLUME-INFILL-UPSKIN-REVERSE TIP WIPE)
(BEGINNING LAYER: 21)
G01 Z1.3000 F59.0551 (TRAVEL-Lift Tip For Travel)
G00 X-2.3724 Y1.8551 (TRAVEL)
G1 Z1.0500 (TRAVEL-Lower Tip)
(TYPE:VOLUME)
M03 S75 (Turn Spindle ON)
G04 P80 (Dwell)
M03 S110 (Change Spindle Speed)
G1 F118.1102 X-2.3723 Y2.3949 (VOLUME-WALL_OUTER)
G1 X-2.4295 Y2.3949 (VOLUME-WALL_OUTER)
G1 X-2.4294 Y1.8551 (VOLUME-WALL_OUTER)
G1 X-2.3724 Y1.8551 (VOLUME-WALL_OUTER)
M05 (Stop Spindle)
G1 F148.8189 X-2.3723 Y2.3949 (VOLUME-WALL_OUTER-FORWARD TIP WIPE)
G1 X-2.4295 Y2.3949 (VOLUME-WALL_OUTER-FORWARD TIP WIPE)
G1 X-2.4294 Y1.8551 (VOLUME-WALL_OUTER-FORWARD TIP WIPE)
G1 X-2.3724 Y1.8551 (VOLUME-WALL_OUTER-FORWARD TIP WIPE)
G1 X-2.3724 Y1.8551 (VOLUME-WALL_OUTER-FORWARD TIP WIPE)
G1 X-2.3723 Y1.9114 (VOLUME-WALL_OUTER-FORWARD TIP WIPE)
G01 Z1.3000 F59.0551 (TRAVEL-Lift Tip For Travel)
G00 X-2.8470 Y1.8551 (TRAVEL)
G1 Z1.0500 (TRAVEL-Lower Tip)
(TYPE:VOLUME)
M03 S75 (Turn Spindle ON)
G04 P80 (Dwell)
M03 S110 (Change Spindle Speed)
G1 F118.1102 X-2.8470 Y2.3949 (VOLUME-WALL_OUTER)
G1 X-2.9022 Y2.3949 (VOLUME-WALL_OUTER)
G1 X-2.9022 Y1.8551 (VOLUME-WALL_OUTER)
G1 X-2.8470 Y1.8551 (VOLUME-WALL_OUTER)
M05 (Stop Spindle)
G1 F148.8189 X-2.8470 Y2.3949 (VOLUME-WALL_OUTER-FORWARD TIP WIPE)
G1 X-2.9022 Y2.3949 (VOLUME-WALL_OUTER-FORWARD TIP WIPE)
G1 X-2.9022 Y1.8551 (VOLUME-WALL_OUTER-FORWARD TIP WIPE)
G1 X-2.8470 Y1.8551 (VOLUME-WALL_OUTER-FORWARD TIP WIPE)
G1 X-2.8470 Y1.8551 (VOLUME-WALL_OUTER-FORWARD TIP WIPE)
G1 X-2.8470 Y1.9152 (VOLUME-WALL_OUTER-FORWARD TIP WIPE)
G01 Z1.3000 F59.0551 (TRAVEL-Lift Tip For Travel)
G00 X4.9690 Y1.8551 (TRAVEL)
G1 Z1.0500 (TRAVEL-Lower Tip)
(TYPE:VOLUME)
M03 S75 (Turn Spindle ON)
G04 P80 (Dwell)
M03 S110 (Change Spindle Speed)
G1 F118.1102 X5.0241 Y1.8551 (VOLUME-WALL_OUTER)
G1 X5.0242 Y2.3949 (VOLUME-WALL_OUTER)
G1 X4.9689 Y2.3949 (VOLUME-WALL_OUTER)
G1 X4.9690 Y1.8551 (VOLUME-WALL_OUTER)
M05 (Stop Spindle)
G1 F148.8189 X5.0241 Y1.8551 (VOLUME-WALL_OUTER-FORWARD TIP WIPE)
G1 X5.0242 Y2.3949 (VOLUME-WALL_OUTER-FORWARD TIP WIPE)
G1 X4.9689 Y2.3949 (VOLUME-WALL_OUTER-FORWARD TIP WIPE)
G1 X4.9690 Y1.8551 (VOLUME-WALL_OUTER-FORWARD TIP WIPE)
G1 X4.9690 Y1.8551 (VOLUME-WALL_OUTER-FORWARD TIP WIPE)
G1 X5.0241 Y1.8551 (VOLUME-WALL_OUTER-FORWARD TIP WIPE)
G1 X5.0242 Y1.8601 (VOLUME-WALL_OUTER-FORWARD TIP WIPE)
G01 Z1.3000 F59.0551 (TRAVEL-Lift Tip For Travel)
G00 X5.4417 Y1.8551 (TRAVEL)
G1 Z1.0500 (TRAVEL-Lower Tip)
(TYPE:VOLUME)
M03 S75 (Turn Spindle ON)
G04 P80 (Dwell)
M03 S110 (Change Spindle Speed)
G1 F118.1102 X5.4988 Y1.8551 (VOLUME-WALL_OUTER)
G1 X5.4988 Y2.3949 (VOLUME-WALL_OUTER)
G1 X5.4417 Y2.3949 (VOLUME-WALL_OUTER)
G1 X5.4417 Y1.8551 (VOLUME-WALL_OUTER)
M05 (Stop Spindle)
G1 F148.8189 X5.4988 Y1.8551 (VOLUME-WALL_OUTER-FORWARD TIP WIPE)
G1 X5.4988 Y2.3949 (VOLUME-WALL_OUTER-FORWARD TIP WIPE)
G1 X5.4417 Y2.3949 (VOLUME-WALL_OUTER-FORWARD TIP WIPE)
G1 X5.4417 Y1.8551 (VOLUME-WALL_OUTER-FORWARD TIP WIPE)
G1 X5.4417 Y1.8551 (VOLUME-WALL_OUTER-FORWARD TIP WIPE)
G1 X5.4979 Y1.8551 (VOLUME-WALL_OUTER-FORWARD TIP WIPE)
(BEGINNING LAYER: 22)
G01 Z1.3500 F59.0551 (TRAVEL-Lift Tip For Travel)
G00 X-2.3972 Y1.8551 (TRAVEL)
G1 Z1.1000 (TRAVEL-Lower Tip)
(TYPE:VOLUME)
M03 S75 (Turn Spindle ON)
G04 P80 (Dwell)
M03 S110 (Change Spindle Speed)
G1 F118.1102 X-2.3972 Y2.3949 (VOLUME-WALL_OUTER)
G1 X-2.4888 Y2.3949 (VOLUME-WALL_OUTER)
G1 X-2.4888 Y1.8551 (VOLUME-WALL_OUTER)
G1 X-2.3972 Y1.8551 (VOLUME-WALL_OUTER)
M05 (Stop Spindle)
G1 F148.8189 X-2.3972 Y2.3949 (VOLUME-WALL_OUTER-FORWARD TIP WIPE)
G1 X-2.4888 Y2.3949 (VOLUME-WALL_OUTER-FORWARD TIP WIPE)
G1 X-2.4888 Y1.8551 (VOLUME-WALL_OUTER-FORWARD TIP WIPE)
G1 X-2.4099 Y1.8551 (VOLUME-WALL_OUTER-FORWARD TIP WIPE)
G01 Z1.3500 F59.0551 (TRAVEL-Lift Tip For Travel)
G00 X-2.7877 Y1.8551 (TRAVEL)
G1 Z1.1000 (TRAVEL-Lower Tip)
(TYPE:VOLUME)
M03 S75 (Turn Spindle ON)
G04 P80 (Dwell)
M03 S110 (Change Spindle Speed)
G1 F118.1102 X-2.7876 Y2.3949 (VOLUME-WALL_OUTER)
G1 X-2.8804 Y2.3949 (VOLUME-WALL_OUTER)
G1 X-2.8803 Y1.8551 (VOLUME-WALL_OUTER)
G1 X-2.7877 Y1.8551 (VOLUME-WALL_OUTER)
M05 (Stop Spindle)
G1 F148.8189 X-2.7876 Y2.3949 (VOLUME-WALL_OUTER-FORWARD TIP WIPE)
G1 X-2.8804 Y2.3949 (VOLUME-WALL_OUTER-FORWARD TIP WIPE)
G1 X-2.8803 Y1.8551 (VOLUME-WALL_OUTER-FORWARD TIP WIPE)
G1 X-2.8025 Y1.8551 (VOLUME-WALL_OUTER-FORWARD TIP WIPE)
G01 Z1.3500 F59.0551 (TRAVEL-Lift Tip For Travel)
G00 X-4.8978 Y1.8551 (TRAVEL)
G1 Z1.1000 (TRAVEL-Lower Tip)
(TYPE:VOLUME)
M03 S75 (Turn Spindle ON)
G04 P80 (Dwell)
M03 S110 (Change Spindle Speed)
G1 F118.1102 X-4.8978 Y2.3949 (VOLUME-WALL_OUTER)
G1 X-4.9765 Y2.3949 (VOLUME-WALL_OUTER)
G1 X-4.9764 Y1.8551 (VOLUME-WALL_OUTER)
G1 X-4.8978 Y1.8551 (VOLUME-WALL_OUTER)
M05 (Stop Spindle)
G1 F148.8189 X-4.8978 Y2.3949 (VOLUME-WALL_OUTER-FORWARD TIP WIPE)
G1 X-4.9765 Y2.3949 (VOLUME-WALL_OUTER-FORWARD TIP WIPE)
G1 X-4.9764 Y1.8551 (VOLUME-WALL_OUTER-FORWARD TIP WIPE)
G1 X-4.8978 Y1.8551 (VOLUME-WALL_OUTER-FORWARD TIP WIPE)
G1 X-4.8978 Y1.8551 (VOLUME-WALL_OUTER-FORWARD TIP WIPE)
G1 X-4.8978 Y1.8683 (VOLUME-WALL_OUTER-FORWARD TIP WIPE)
G01 Z1.3500 F59.0551 (TRAVEL-Lift Tip For Travel)
G00 X-5.3033 Y1.8551 (TRAVEL)
G1 Z1.1000 (TRAVEL-Lower Tip)
(TYPE:VOLUME)
M03 S75 (Turn Spindle ON)
G04 P80 (Dwell)
M03 S110 (Change Spindle Speed)
G1 F118.1102 X-5.3033 Y2.3949 (VOLUME-WALL_OUTER)
G1 X-5.3809 Y2.3949 (VOLUME-WALL_OUTER)
G1 X-5.3809 Y1.8551 (VOLUME-WALL_OUTER)
G1 X-5.3033 Y1.8551 (VOLUME-WALL_OUTER)
M05 (Stop Spindle)
G1 F148.8189 X-5.3033 Y2.3949 (VOLUME-WALL_OUTER-FORWARD TIP WIPE)
G1 X-5.3809 Y2.3949 (VOLUME-WALL_OUTER-FORWARD TIP WIPE)
G1 X-5.3809 Y1.8551 (VOLUME-WALL_OUTER-FORWARD TIP WIPE)
G1 X-5.3033 Y1.8551 (VOLUME-WALL_OUTER-FORWARD TIP WIPE)
G1 X-5.3033 Y1.8551 (VOLUME-WALL_OUTER-FORWARD TIP WIPE)
G1 X-5.3033 Y1.8704 (VOLUME-WALL_OUTER-FORWARD TIP WIPE)
G01 Z1.3500 F59.0551 (TRAVEL-Lift Tip For Travel)
G00 X-5.3169 Y-1.8551 (TRAVEL)
G1 Z1.1000 (TRAVEL-Lower Tip)
(TYPE:VOLUME)
M03 S75 (Turn Spindle ON)
G04 P80 (Dwell)
M03 S110 (Change Spindle Speed)
G1 F118.1102 X-5.3809 Y-1.8551 (VOLUME-WALL_OUTER)
G1 X-5.3809 Y-2.3949 (VOLUME-WALL_OUTER)
G1 X-5.3169 Y-2.3949 (VOLUME-WALL_OUTER)
G1 X-5.3169 Y-1.8551 (VOLUME-WALL_OUTER)
M05 (Stop Spindle)
G1 F148.8189 X-5.3809 Y-1.8551 (VOLUME-WALL_OUTER-FORWARD TIP WIPE)
G1 X-5.3809 Y-2.3949 (VOLUME-WALL_OUTER-FORWARD TIP WIPE)
G1 X-5.3169 Y-2.3949 (VOLUME-WALL_OUTER-FORWARD TIP WIPE)
G1 X-5.3169 Y-1.8551 (VOLUME-WALL_OUTER-FORWARD TIP WIPE)
G1 X-5.3169 Y-1.8551 (VOLUME-WALL_OUTER-FORWARD TIP WIPE)
G1 X-5.3592 Y-1.8551 (VOLUME-WALL_OUTER-FORWARD TIP WIPE)
G01 Z1.3500 F59.0551 (TRAVEL-Lift Tip For Travel)
G00 X-4.8978 Y-1.8551 (TRAVEL)
G1 Z1.1000 (TRAVEL-Lower Tip)
(TYPE:VOLUME)
M03 S75 (Turn Spindle ON)
G04 P80 (Dwell)
M03 S110 (Change Spindle Speed)
G1 F118.1102 X-4.9629 Y-1.8551 (VOLUME-WALL_OUTER)
G1 X-4.9629 Y-2.3949 (VOLUME-WALL_OUTER)
G1 X-4.8978 Y-2.3949 (VOLUME-WALL_OUTER)
G1 X-4.8978 Y-1.8551 (VOLUME-WALL_OUTER)
M05 (Stop Spindle)
G1 F148.8189 X-4.9629 Y-1.8551 (VOLUME-WALL_OUTER-FORWARD TIP WIPE)
G1 X-4.9629 Y-2.3949 (VOLUME-WALL_OUTER-FORWARD TIP WIPE)
G1 X-4.8978 Y-2.3949 (VOLUME-WALL_OUTER-FORWARD TIP WIPE)
G1 X-4.8978 Y-1.8551 (VOLUME-WALL_OUTER-FORWARD TIP WIPE)
G1 X-4.8978 Y-1.8551 (VOLUME-WALL_OUTER-FORWARD TIP WIPE)
G1 X-4.9381 Y-1.8551 (VOLUME-WALL_OUTER-FORWARD TIP WIPE)
G01 Z1.3500 F59.0551 (TRAVEL-Lift Tip For Travel)
G00 X-2.8006 Y-1.8551 (TRAVEL)
G1 Z1.1000 (TRAVEL-Lower Tip)
(TYPE:VOLUME)
M03 S75 (Turn Spindle ON)
G04 P80 (Dwell)
M03 S110 (Change Spindle Speed)
G1 F118.1102 X-2.8803 Y-1.8551 (VOLUME-WALL_OUTER)
G1 X-2.8804 Y-2.3949 (VOLUME-WALL_OUTER)
G1 X-2.8005 Y-2.3949 (VOLUME-WALL_OUTER)
G1 X-2.8006 Y-1.8551 (VOLUME-WALL_OUTER)
M05 (Stop Spindle)
G1 F148.8189 X-2.8803 Y-1.8551 (VOLUME-WALL_OUTER-FORWARD TIP WIPE)
G1 X-2.8804 Y-2.3949 (VOLUME-WALL_OUTER-FORWARD TIP WIPE)
G1 X-2.8005 Y-2.3949 (VOLUME-WALL_OUTER-FORWARD TIP WIPE)
G1 X-2.8006 Y-1.8551 (VOLUME-WALL_OUTER-FORWARD TIP WIPE)
G1 X-2.8006 Y-1.8551 (VOLUME-WALL_OUTER-FORWARD TIP WIPE)
G1 X-2.8115 Y-1.8551 (VOLUME-WALL_OUTER-FORWARD TIP WIPE)
G01 Z1.3500 F59.0551 (TRAVEL-Lift Tip For Travel)
G00 X-2.3972 Y-1.8551 (TRAVEL)
G1 Z1.1000 (TRAVEL-Lower Tip)
(TYPE:VOLUME)
M03 S75 (Turn Spindle ON)
G04 P80 (Dwell)
M03 S110 (Change Spindle Speed)
G1 F118.1102 X-2.4736 Y-1.8551 (VOLUME-WALL_OUTER)
G1 X-2.4737 Y-2.3949 (VOLUME-WALL_OUTER)
G1 X-2.3972 Y-2.3949 (VOLUME-WALL_OUTER)
G1 X-2.3972 Y-1.8551 (VOLUME-WALL_OUTER)
M05 (Stop Spindle)
G1 F148.8189 X-2.4736 Y-1.8551 (VOLUME-WALL_OUTER-FORWARD TIP WIPE)
G1 X-2.4737 Y-2.3949 (VOLUME-WALL_OUTER-FORWARD TIP WIPE)
G1 X-2.3972 Y-2.3949 (VOLUME-WALL_OUTER-FORWARD TIP WIPE)
G1 X-2.3972 Y-1.8551 (VOLUME-WALL_OUTER-FORWARD TIP WIPE)
G1 X-2.3972 Y-1.8551 (VOLUME-WALL_OUTER-FORWARD TIP WIPE)
G1 X-2.4148 Y-1.8551 (VOLUME-WALL_OUTER-FORWARD TIP WIPE)
G01 Z1.3500 F59.0551 (TRAVEL-Lift Tip For Travel)
G00 X2.4902 Y-1.8551 (TRAVEL)
G1 Z1.1000 (TRAVEL-Lower Tip)
(TYPE:VOLUME)
M03 S75 (Turn Spindle ON)
G04 P80 (Dwell)
M03 S110 (Change Spindle Speed)
G1 F118.1102 X2.4902 Y-2.3949 (VOLUME-WALL_OUTER)
G1 X2.5543 Y-2.3949 (VOLUME-WALL_OUTER)
G1 X2.5543 Y-1.8551 (VOLUME-WALL_OUTER)
G1 X2.4902 Y-1.8551 (VOLUME-WALL_OUTER)
M05 (Stop Spindle)
G1 F148.8189 X2.4902 Y-2.3949 (VOLUME-WALL_OUTER-FORWARD TIP WIPE)
G1 X2.5543 Y-2.3949 (VOLUME-WALL_OUTER-FORWARD TIP WIPE)
G1 X2.5543 Y-1.8551 (VOLUME-WALL_OUTER-FORWARD TIP WIPE)
G1 X2.4902 Y-1.8551 (VOLUME-WALL_OUTER-FORWARD TIP WIPE)
G1 X2.4902 Y-1.8551 (VOLUME-WALL_OUTER-FORWARD TIP WIPE)
G1 X2.4902 Y-1.8974 (VOLUME-WALL_OUTER-FORWARD TIP WIPE)
G01 Z1.3500 F59.0551 (TRAVEL-Lift Tip For Travel)
G00 X2.9083 Y-1.8551 (TRAVEL)
G1 Z1.1000 (TRAVEL-Lower Tip)
(TYPE:VOLUME)
M03 S75 (Turn Spindle ON)
G04 P80 (Dwell)
M03 S110 (Change Spindle Speed)
G1 F118.1102 X2.9082 Y-2.3949 (VOLUME-WALL_OUTER)
G1 X2.9733 Y-2.3949 (VOLUME-WALL_OUTER)
G1 X2.9733 Y-1.8551 (VOLUME-WALL_OUTER)
G1 X2.9083 Y-1.8551 (VOLUME-WALL_OUTER)
M05 (Stop Spindle)
G1 F148.8189 X2.9082 Y-2.3949 (VOLUME-WALL_OUTER-FORWARD TIP WIPE)
G1 X2.9733 Y-2.3949 (VOLUME-WALL_OUTER-FORWARD TIP WIPE)
G1 X2.9733 Y-1.8551 (VOLUME-WALL_OUTER-FORWARD TIP WIPE)
G1 X2.9083 Y-1.8551 (VOLUME-WALL_OUTER-FORWARD TIP WIPE)
G1 X2.9083 Y-1.8551 (VOLUME-WALL_OUTER-FORWARD TIP WIPE)
G1 X2.9082 Y-1.8954 (VOLUME-WALL_OUTER-FORWARD TIP WIPE)
G01 Z1.3500 F59.0551 (TRAVEL-Lift Tip For Travel)
G00 X4.9909 Y-1.8551 (TRAVEL)
G1 Z1.1000 (TRAVEL-Lower Tip)
(TYPE:VOLUME)
M03 S75 (Turn Spindle ON)
G04 P80 (Dwell)
M03 S110 (Change Spindle Speed)
G1 F118.1102 X4.9908 Y-2.3949 (VOLUME-WALL_OUTER)
G1 X5.0706 Y-2.3949 (VOLUME-WALL_OUTER)
G1 X5.0706 Y-1.8551 (VOLUME-WALL_OUTER)
G1 X4.9909 Y-1.8551 (VOLUME-WALL_OUTER)
M05 (Stop Spindle)
G1 F148.8189 X4.9908 Y-2.3949 (VOLUME-WALL_OUTER-FORWARD TIP WIPE)
G1 X5.0706 Y-2.3949 (VOLUME-WALL_OUTER-FORWARD TIP WIPE)
G1 X5.0706 Y-1.8551 (VOLUME-WALL_OUTER-FORWARD TIP WIPE)
G1 X4.9909 Y-1.8551 (VOLUME-WALL_OUTER-FORWARD TIP WIPE)
G1 X4.9909 Y-1.8551 (VOLUME-WALL_OUTER-FORWARD TIP WIPE)
G1 X4.9909 Y-1.8661 (VOLUME-WALL_OUTER-FORWARD TIP WIPE)
G01 Z1.3500 F59.0551 (TRAVEL-Lift Tip For Travel)
G00 X5.3975 Y-1.8551 (TRAVEL)
G1 Z1.1000 (TRAVEL-Lower Tip)
(TYPE:VOLUME)
M03 S75 (Turn Spindle ON)
G04 P80 (Dwell)
M03 S110 (Change Spindle Speed)
G1 F118.1102 X5.3975 Y-2.3949 (VOLUME-WALL_OUTER)
G1 X5.4739 Y-2.3949 (VOLUME-WALL_OUTER)
G1 X5.4739 Y-1.8551 (VOLUME-WALL_OUTER)
G1 X5.3975 Y-1.8551 (VOLUME-WALL_OUTER)
M05 (Stop Spindle)
G1 F148.8189 X5.3975 Y-2.3949 (VOLUME-WALL_OUTER-FORWARD TIP WIPE)
G1 X5.4739 Y-2.3949 (VOLUME-WALL_OUTER-FORWARD TIP WIPE)
G1 X5.4739 Y-1.8551 (VOLUME-WALL_OUTER-FORWARD TIP WIPE)
G1 X5.3975 Y-1.8551 (VOLUME-WALL_OUTER-FORWARD TIP WIPE)
G1 X5.3975 Y-1.8551 (VOLUME-WALL_OUTER-FORWARD TIP WIPE)
G1 X5.3975 Y-1.8728 (VOLUME-WALL_OUTER-FORWARD TIP WIPE)
G01 Z1.3500 F59.0551 (TRAVEL-Lift Tip For Travel)
G00 X5.3824 Y1.8551 (TRAVEL)
G1 Z1.1000 (TRAVEL-Lower Tip)
(TYPE:VOLUME)
M03 S75 (Turn Spindle ON)
G04 P80 (Dwell)
M03 S110 (Change Spindle Speed)
G1 F118.1102 X5.4739 Y1.8551 (VOLUME-WALL_OUTER)
G1 X5.4739 Y2.3949 (VOLUME-WALL_OUTER)
G1 X5.3823 Y2.3949 (VOLUME-WALL_OUTER)
G1 X5.3824 Y1.8551 (VOLUME-WALL_OUTER)
M05 (Stop Spindle)
G1 F148.8189 X5.4739 Y1.8551 (VOLUME-WALL_OUTER-FORWARD TIP WIPE)
G1 X5.4739 Y2.3949 (VOLUME-WALL_OUTER-FORWARD TIP WIPE)
G1 X5.3823 Y2.3949 (VOLUME-WALL_OUTER-FORWARD TIP WIPE)
G1 X5.3824 Y1.8678 (VOLUME-WALL_OUTER-FORWARD TIP WIPE)
G01 Z1.3500 F59.0551 (TRAVEL-Lift Tip For Travel)
G00 X4.9909 Y1.8551 (TRAVEL)
G1 Z1.1000 (TRAVEL-Lower Tip)
(TYPE:VOLUME)
M03 S75 (Turn Spindle ON)
G04 P80 (Dwell)
M03 S110 (Change Spindle Speed)
G1 F118.1102 X5.0835 Y1.8551 (VOLUME-WALL_OUTER)
G1 X5.0835 Y2.3949 (VOLUME-WALL_OUTER)
G1 X4.9908 Y2.3949 (VOLUME-WALL_OUTER)
G1 X4.9909 Y1.8551 (VOLUME-WALL_OUTER)
M05 (Stop Spindle)
G1 F148.8189 X5.0835 Y1.8551 (VOLUME-WALL_OUTER-FORWARD TIP WIPE)
G1 X5.0835 Y2.3949 (VOLUME-WALL_OUTER-FORWARD TIP WIPE)
G1 X4.9908 Y2.3949 (VOLUME-WALL_OUTER-FORWARD TIP WIPE)
G1 X4.9909 Y1.8699 (VOLUME-WALL_OUTER-FORWARD TIP WIPE)
G01 Z1.3500 F59.0551 (TRAVEL-Lift Tip For Travel)
G00 X2.8947 Y1.8551 (TRAVEL)
G1 Z1.1000 (TRAVEL-Lower Tip)
(TYPE:VOLUME)
M03 S75 (Turn Spindle ON)
G04 P80 (Dwell)
M03 S110 (Change Spindle Speed)
G1 F118.1102 X2.9733 Y1.8551 (VOLUME-WALL_OUTER)
G1 X2.9733 Y2.3949 (VOLUME-WALL_OUTER)
G1 X2.8947 Y2.3949 (VOLUME-WALL_OUTER)
G1 X2.8947 Y1.8551 (VOLUME-WALL_OUTER)
M05 (Stop Spindle)
G1 F148.8189 X2.9733 Y1.8551 (VOLUME-WALL_OUTER-FORWARD TIP WIPE)
G1 X2.9733 Y2.3949 (VOLUME-WALL_OUTER-FORWARD TIP WIPE)
G1 X2.8947 Y2.3949 (VOLUME-WALL_OUTER-FORWARD TIP WIPE)
G1 X2.8947 Y1.8551 (VOLUME-WALL_OUTER-FORWARD TIP WIPE)
G1 X2.8947 Y1.8551 (VOLUME-WALL_OUTER-FORWARD TIP WIPE)
G1 X2.9079 Y1.8551 (VOLUME-WALL_OUTER-FORWARD TIP WIPE)
G01 Z1.3500 F59.0551 (TRAVEL-Lift Tip For Travel)
G00 X2.4902 Y1.8551 (TRAVEL)
G1 Z1.1000 (TRAVEL-Lower Tip)
(TYPE:VOLUME)
M03 S75 (Turn Spindle ON)
G04 P80 (Dwell)
M03 S110 (Change Spindle Speed)
G1 F118.1102 X2.5678 Y1.8551 (VOLUME-WALL_OUTER)
G1 X2.5678 Y2.3949 (VOLUME-WALL_OUTER)
G1 X2.4902 Y2.3949 (VOLUME-WALL_OUTER)
G1 X2.4902 Y1.8551 (VOLUME-WALL_OUTER)
M05 (Stop Spindle)
G1 F148.8189 X2.5678 Y1.8551 (VOLUME-WALL_OUTER-FORWARD TIP WIPE)
G1 X2.5678 Y2.3949 (VOLUME-WALL_OUTER-FORWARD TIP WIPE)
G1 X2.4902 Y2.3949 (VOLUME-WALL_OUTER-FORWARD TIP WIPE)
G1 X2.4902 Y1.8551 (VOLUME-WALL_OUTER-FORWARD TIP WIPE)
G1 X2.4902 Y1.8551 (VOLUME-WALL_OUTER-FORWARD TIP WIPE)
G1 X2.5054 Y1.8551 (VOLUME-WALL_OUTER-FORWARD TIP WIPE)
(BEGINNING LAYER: 23)
G01 Z1.4000 F59.0551 (TRAVEL-Lift Tip For Travel)
G00 X-2.4179 Y-1.8551 (TRAVEL)
G1 Z1.1500 (TRAVEL-Lower Tip)
(TYPE:VOLUME)
M03 S75 (Turn Spindle ON)
G04 P80 (Dwell)
M03 S110 (Change Spindle Speed)
G1 F118.1102 X-2.8583 Y-1.8551 (VOLUME-WALL_OUTER)
G1 X-2.8584 Y-2.3949 (VOLUME-WALL_OUTER)
G1 X-2.4179 Y-2.3949 (VOLUME-WALL_OUTER)
G1 X-2.4179 Y-1.8551 (VOLUME-WALL_OUTER)
M05 (Stop Spindle)
G1 F148.8189 X-2.8583 Y-1.8551 (VOLUME-WALL_OUTER-FORWARD TIP WIPE)
G1 X-2.8584 Y-2.3949 (VOLUME-WALL_OUTER-FORWARD TIP WIPE)
G1 X-2.5886 Y-2.3949 (VOLUME-WALL_OUTER-FORWARD TIP WIPE)
G01 Z1.4000 F59.0551 (TRAVEL-Lift Tip For Travel)
G00 X-4.9197 Y-1.8551 (TRAVEL)
G1 Z1.1500 (TRAVEL-Lower Tip)
(TYPE:VOLUME)
M03 S75 (Turn Spindle ON)
G04 P80 (Dwell)
M03 S110 (Change Spindle Speed)
G1 F118.1102 X-5.3602 Y-1.8551 (VOLUME-WALL_OUTER)
G1 X-5.3602 Y-2.3949 (VOLUME-WALL_OUTER)
G1 X-4.9197 Y-2.3949 (VOLUME-WALL_OUTER)
G1 X-4.9197 Y-1.8551 (VOLUME-WALL_OUTER)
M05 (Stop Spindle)
G1 F148.8189 X-5.3602 Y-1.8551 (VOLUME-WALL_OUTER-FORWARD TIP WIPE)
G1 X-5.3602 Y-2.3949 (VOLUME-WALL_OUTER-FORWARD TIP WIPE)
G1 X-5.0905 Y-2.3949 (VOLUME-WALL_OUTER-FORWARD TIP WIPE)
G01 Z1.4000 F59.0551 (TRAVEL-Lift Tip For Travel)
G00 X-4.9198 Y1.8551 (TRAVEL)
G1 Z1.1500 (TRAVEL-Lower Tip)
(TYPE:VOLUME)
M03 S75 (Turn Spindle ON)
G04 P80 (Dwell)
M03 S110 (Change Spindle Speed)
G1 F118.1102 X-4.9197 Y2.3949 (VOLUME-WALL_OUTER)
G1 X-5.3602 Y2.3949 (VOLUME-WALL_OUTER)
G1 X-5.3602 Y1.8551 (VOLUME-WALL_OUTER)
G1 X-4.9198 Y1.8551 (VOLUME-WALL_OUTER)
M05 (Stop Spindle)
G1 F148.8189 X-4.9197 Y2.3949 (VOLUME-WALL_OUTER-FORWARD TIP WIPE)
G1 X-5.3602 Y2.3949 (VOLUME-WALL_OUTER-FORWARD TIP WIPE)
G1 X-5.3602 Y2.1252 (VOLUME-WALL_OUTER-FORWARD TIP WIPE)
G01 Z1.4000 F59.0551 (TRAVEL-Lift Tip For Travel)
G00 X-2.4180 Y1.8551 (TRAVEL)
G1 Z1.1500 (TRAVEL-Lower Tip)
(TYPE:VOLUME)
M03 S75 (Turn Spindle ON)
G04 P80 (Dwell)
M03 S110 (Change Spindle Speed)
G1 F118.1102 X-2.4179 Y2.3949 (VOLUME-WALL_OUTER)
G1 X-2.8584 Y2.3949 (VOLUME-WALL_OUTER)
G1 X-2.8584 Y1.8551 (VOLUME-WALL_OUTER)
G1 X-2.4180 Y1.8551 (VOLUME-WALL_OUTER)
M05 (Stop Spindle)
G1 F148.8189 X-2.4179 Y2.3949 (VOLUME-WALL_OUTER-FORWARD TIP WIPE)
G1 X-2.8584 Y2.3949 (VOLUME-WALL_OUTER-FORWARD TIP WIPE)
G1 X-2.8584 Y2.1251 (VOLUME-WALL_OUTER-FORWARD TIP WIPE)
G01 Z1.4000 F59.0551 (TRAVEL-Lift Tip For Travel)
G00 X2.5109 Y1.8551 (TRAVEL)
G1 Z1.1500 (TRAVEL-Lower Tip)
(TYPE:VOLUME)
M03 S75 (Turn Spindle ON)
G04 P80 (Dwell)
M03 S110 (Change Spindle Speed)
G1 F118.1102 X2.9514 Y1.8551 (VOLUME-WALL_OUTER)
G1 X2.9514 Y2.3949 (VOLUME-WALL_OUTER)
G1 X2.5109 Y2.3949 (VOLUME-WALL_OUTER)
G1 X2.5109 Y1.8551 (VOLUME-WALL_OUTER)
M05 (Stop Spindle)
G1 F148.8189 X2.9514 Y1.8551 (VOLUME-WALL_OUTER-FORWARD TIP WIPE)
G1 X2.9514 Y2.3949 (VOLUME-WALL_OUTER-FORWARD TIP WIPE)
G1 X2.6817 Y2.3949 (VOLUME-WALL_OUTER-FORWARD TIP WIPE)
G01 Z1.4000 F59.0551 (TRAVEL-Lift Tip For Travel)
G00 X5.0128 Y1.8551 (TRAVEL)
G1 Z1.1500 (TRAVEL-Lower Tip)
(TYPE:VOLUME)
M03 S75 (Turn Spindle ON)
G04 P80 (Dwell)
M03 S110 (Change Spindle Speed)
G1 F118.1102 X5.4532 Y1.8551 (VOLUME-WALL_OUTER)
G1 X5.4532 Y2.3949 (VOLUME-WALL_OUTER)
G1 X5.0128 Y2.3949 (VOLUME-WALL_OUTER)
G1 X5.0128 Y1.8551 (VOLUME-WALL_OUTER)
M05 (Stop Spindle)
G1 F148.8189 X5.4532 Y1.8551 (VOLUME-WALL_OUTER-FORWARD TIP WIPE)
G1 X5.4532 Y2.3949 (VOLUME-WALL_OUTER-FORWARD TIP WIPE)
G1 X5.1834 Y2.3949 (VOLUME-WALL_OUTER-FORWARD TIP WIPE)
G01 Z1.4000 F59.0551 (TRAVEL-Lift Tip For Travel)
G00 X5.0128 Y-1.8551 (TRAVEL)
G1 Z1.1500 (TRAVEL-Lower Tip)
(TYPE:VOLUME)
M03 S75 (Turn Spindle ON)
G04 P80 (Dwell)
M03 S110 (Change Spindle Speed)
G1 F118.1102 X5.0127 Y-2.3949 (VOLUME-WALL_OUTER)
G1 X5.4532 Y-2.3949 (VOLUME-WALL_OUTER)
G1 X5.4532 Y-1.8551 (VOLUME-WALL_OUTER)
G1 X5.0128 Y-1.8551 (VOLUME-WALL_OUTER)
M05 (Stop Spindle)
G1 F148.8189 X5.0127 Y-2.3949 (VOLUME-WALL_OUTER-FORWARD TIP WIPE)
G1 X5.4532 Y-2.3949 (VOLUME-WALL_OUTER-FORWARD TIP WIPE)
G1 X5.4532 Y-2.1252 (VOLUME-WALL_OUTER-FORWARD TIP WIPE)
G01 Z1.4000 F59.0551 (TRAVEL-Lift Tip For Travel)
G00 X2.5109 Y-1.8551 (TRAVEL)
G1 Z1.1500 (TRAVEL-Lower Tip)
(TYPE:VOLUME)
M03 S75 (Turn Spindle ON)
G04 P80 (Dwell)
M03 S110 (Change Spindle Speed)
G1 F118.1102 X2.5109 Y-2.3949 (VOLUME-WALL_OUTER)
G1 X2.9514 Y-2.3949 (VOLUME-WALL_OUTER)
G1 X2.9514 Y-1.8551 (VOLUME-WALL_OUTER)
G1 X2.5109 Y-1.8551 (VOLUME-WALL_OUTER)
M05 (Stop Spindle)
G1 F148.8189 X2.5109 Y-2.3949 (VOLUME-WALL_OUTER-FORWARD TIP WIPE)
G1 X2.9514 Y-2.3949 (VOLUME-WALL_OUTER-FORWARD TIP WIPE)
G1 X2.9514 Y-2.1252 (VOLUME-WALL_OUTER-FORWARD TIP WIPE)
(BEGINNING LAYER: 24)
G01 Z1.4500 F59.0551 (TRAVEL-Lift Tip For Travel)
G00 X-2.4386 Y-1.8551 (TRAVEL)
G1 Z1.2000 (TRAVEL-Lower Tip)
(TYPE:VOLUME)
M03 S75 (Turn Spindle ON)
G04 P80 (Dwell)
M03 S110 (Change Spindle Speed)
G1 F118.1102 X-2.8365 Y-1.8551 (VOLUME-WALL_OUTER)
G1 X-2.8365 Y-2.3949 (VOLUME-WALL_OUTER)
G1 X-2.4387 Y-2.3949 (VOLUME-WALL_OUTER)
G1 X-2.4386 Y-1.8551 (VOLUME-WALL_OUTER)
M05 (Stop Spindle)
G1 F148.8189 X-2.8365 Y-1.8551 (VOLUME-WALL_OUTER-FORWARD TIP WIPE)
G1 X-2.8365 Y-2.3949 (VOLUME-WALL_OUTER-FORWARD TIP WIPE)
G1 X-2.5241 Y-2.3949 (VOLUME-WALL_OUTER-FORWARD TIP WIPE)
G01 Z1.4500 F59.0551 (TRAVEL-Lift Tip For Travel)
G00 X-4.9417 Y-1.8551 (TRAVEL)
G1 Z1.2000 (TRAVEL-Lower Tip)
(TYPE:VOLUME)
M03 S75 (Turn Spindle ON)
G04 P80 (Dwell)
M03 S110 (Change Spindle Speed)
G1 F118.1102 X-5.3394 Y-1.8551 (VOLUME-WALL_OUTER)
G1 X-5.3395 Y-2.3949 (VOLUME-WALL_OUTER)
G1 X-4.9416 Y-2.3949 (VOLUME-WALL_OUTER)
G1 X-4.9417 Y-1.8551 (VOLUME-WALL_OUTER)
M05 (Stop Spindle)
G1 F148.8189 X-5.3394 Y-1.8551 (VOLUME-WALL_OUTER-FORWARD TIP WIPE)
G1 X-5.3395 Y-2.3949 (VOLUME-WALL_OUTER-FORWARD TIP WIPE)
G1 X-5.0270 Y-2.3949 (VOLUME-WALL_OUTER-FORWARD TIP WIPE)
G01 Z1.4500 F59.0551 (TRAVEL-Lift Tip For Travel)
G00 X-4.9416 Y1.8551 (TRAVEL)
G1 Z1.2000 (TRAVEL-Lower Tip)
(TYPE:VOLUME)
M03 S75 (Turn Spindle ON)
G04 P80 (Dwell)
M03 S110 (Change Spindle Speed)
G1 F118.1102 X-4.9417 Y2.3949 (VOLUME-WALL_OUTER)
G1 X-5.3394 Y2.3949 (VOLUME-WALL_OUTER)
G1 X-5.3395 Y1.8551 (VOLUME-WALL_OUTER)
G1 X-4.9416 Y1.8551 (VOLUME-WALL_OUTER)
M05 (Stop Spindle)
G1 F148.8189 X-4.9417 Y2.3949 (VOLUME-WALL_OUTER-FORWARD TIP WIPE)
G1 X-5.3394 Y2.3949 (VOLUME-WALL_OUTER-FORWARD TIP WIPE)
G1 X-5.3395 Y2.0824 (VOLUME-WALL_OUTER-FORWARD TIP WIPE)
G01 Z1.4500 F59.0551 (TRAVEL-Lift Tip For Travel)
G00 X-2.4387 Y1.8551 (TRAVEL)
G1 Z1.2000 (TRAVEL-Lower Tip)
(TYPE:VOLUME)
M03 S75 (Turn Spindle ON)
G04 P80 (Dwell)
M03 S110 (Change Spindle Speed)
G1 F118.1102 X-2.4386 Y2.3949 (VOLUME-WALL_OUTER)
G1 X-2.8365 Y2.3949 (VOLUME-WALL_OUTER)
G1 X-2.8365 Y1.8551 (VOLUME-WALL_OUTER)
G1 X-2.4387 Y1.8551 (VOLUME-WALL_OUTER)
M05 (Stop Spindle)
G1 F148.8189 X-2.4386 Y2.3949 (VOLUME-WALL_OUTER-FORWARD TIP WIPE)
G1 X-2.8365 Y2.3949 (VOLUME-WALL_OUTER-FORWARD TIP WIPE)
G1 X-2.8365 Y2.0825 (VOLUME-WALL_OUTER-FORWARD TIP WIPE)
G01 Z1.4500 F59.0551 (TRAVEL-Lift Tip For Travel)
G00 X2.5317 Y1.8551 (TRAVEL)
G1 Z1.2000 (TRAVEL-Lower Tip)
(TYPE:VOLUME)
M03 S75 (Turn Spindle ON)
G04 P80 (Dwell)
M03 S110 (Change Spindle Speed)
G1 F118.1102 X2.9295 Y1.8551 (VOLUME-WALL_OUTER)
G1 X2.9295 Y2.3949 (VOLUME-WALL_OUTER)
G1 X2.5317 Y2.3949 (VOLUME-WALL_OUTER)
G1 X2.5317 Y1.8551 (VOLUME-WALL_OUTER)
M05 (Stop Spindle)
G1 F148.8189 X2.9295 Y1.8551 (VOLUME-WALL_OUTER-FORWARD TIP WIPE)
G1 X2.9295 Y2.3949 (VOLUME-WALL_OUTER-FORWARD TIP WIPE)
G1 X2.6171 Y2.3949 (VOLUME-WALL_OUTER-FORWARD TIP WIPE)
G01 Z1.4500 F59.0551 (TRAVEL-Lift Tip For Travel)
G00 X5.0346 Y1.8551 (TRAVEL)
G1 Z1.2000 (TRAVEL-Lower Tip)
(TYPE:VOLUME)
M03 S75 (Turn Spindle ON)
G04 P80 (Dwell)
M03 S110 (Change Spindle Speed)
G1 F118.1102 X5.4325 Y1.8551 (VOLUME-WALL_OUTER)
G1 X5.4325 Y2.3949 (VOLUME-WALL_OUTER)
G1 X5.0346 Y2.3949 (VOLUME-WALL_OUTER)
G1 X5.0346 Y1.8551 (VOLUME-WALL_OUTER)
M05 (Stop Spindle)
G1 F148.8189 X5.4325 Y1.8551 (VOLUME-WALL_OUTER-FORWARD TIP WIPE)
G1 X5.4325 Y2.3949 (VOLUME-WALL_OUTER-FORWARD TIP WIPE)
G1 X5.1201 Y2.3949 (VOLUME-WALL_OUTER-FORWARD TIP WIPE)
G01 Z1.4500 F59.0551 (TRAVEL-Lift Tip For Travel)
G00 X5.0346 Y-1.8551 (TRAVEL)
G1 Z1.2000 (TRAVEL-Lower Tip)
(TYPE:VOLUME)
M03 S75 (Turn Spindle ON)
G04 P80 (Dwell)
M03 S110 (Change Spindle Speed)
G1 F118.1102 X5.0346 Y-2.3949 (VOLUME-WALL_OUTER)
G1 X5.4325 Y-2.3949 (VOLUME-WALL_OUTER)
G1 X5.4325 Y-1.8551 (VOLUME-WALL_OUTER)
G1 X5.0346 Y-1.8551 (VOLUME-WALL_OUTER)
M05 (Stop Spindle)
G1 F148.8189 X5.0346 Y-2.3949 (VOLUME-WALL_OUTER-FORWARD TIP WIPE)
G1 X5.4325 Y-2.3949 (VOLUME-WALL_OUTER-FORWARD TIP WIPE)
G1 X5.4325 Y-2.0824 (VOLUME-WALL_OUTER-FORWARD TIP WIPE)
G01 Z1.4500 F59.0551 (TRAVEL-Lift Tip For Travel)
G00 X2.5317 Y-1.8551 (TRAVEL)
G1 Z1.2000 (TRAVEL-Lower Tip)
(TYPE:VOLUME)
M03 S75 (Turn Spindle ON)
G04 P80 (Dwell)
M03 S110 (Change Spindle Speed)
G1 F118.1102 X2.5317 Y-2.3949 (VOLUME-WALL_OUTER)
G1 X2.9295 Y-2.3949 (VOLUME-WALL_OUTER)
G1 X2.9295 Y-1.8551 (VOLUME-WALL_OUTER)
G1 X2.5317 Y-1.8551 (VOLUME-WALL_OUTER)
M05 (Stop Spindle)
G1 F148.8189 X2.5317 Y-2.3949 (VOLUME-WALL_OUTER-FORWARD TIP WIPE)
G1 X2.9295 Y-2.3949 (VOLUME-WALL_OUTER-FORWARD TIP WIPE)
G1 X2.9295 Y-2.0825 (VOLUME-WALL_OUTER-FORWARD TIP WIPE)
(BEGINNING LAYER: 25)
G01 Z1.5000 F59.0551 (TRAVEL-Lift Tip For Travel)
G00 X-2.4534 Y1.8551 (TRAVEL)
G1 Z1.2500 (TRAVEL-Lower Tip)
(TYPE:VOLUME)
M03 S75 (Turn Spindle ON)
G04 P80 (Dwell)
M03 S110 (Change Spindle Speed)
G1 F118.1102 X-2.4534 Y2.3949 (VOLUME-WALL_OUTER)
G1 X-2.8239 Y2.3949 (VOLUME-WALL_OUTER)
G1 X-2.8239 Y1.8551 (VOLUME-WALL_OUTER)
G1 X-2.4534 Y1.8551 (VOLUME-WALL_OUTER)
M05 (Stop Spindle)
G1 F148.8189 X-2.4534 Y2.3949 (VOLUME-WALL_OUTER-FORWARD TIP WIPE)
G1 X-2.8239 Y2.3949 (VOLUME-WALL_OUTER-FORWARD TIP WIPE)
G1 X-2.8239 Y2.0551 (VOLUME-WALL_OUTER-FORWARD TIP WIPE)
G01 Z1.5000 F59.0551 (TRAVEL-Lift Tip For Travel)
G00 X-4.9543 Y1.8551 (TRAVEL)
G1 Z1.2500 (TRAVEL-Lower Tip)
(TYPE:VOLUME)
M03 S75 (Turn Spindle ON)
G04 P80 (Dwell)
M03 S110 (Change Spindle Speed)
G1 F118.1102 X-4.9543 Y2.3949 (VOLUME-WALL_OUTER)
G1 X-5.3247 Y2.3949 (VOLUME-WALL_OUTER)
G1 X-5.3247 Y1.8551 (VOLUME-WALL_OUTER)
G1 X-4.9543 Y1.8551 (VOLUME-WALL_OUTER)
M05 (Stop Spindle)
G1 F148.8189 X-4.9543 Y2.3949 (VOLUME-WALL_OUTER-FORWARD TIP WIPE)
G1 X-5.3247 Y2.3949 (VOLUME-WALL_OUTER-FORWARD TIP WIPE)
G1 X-5.3247 Y2.0550 (VOLUME-WALL_OUTER-FORWARD TIP WIPE)
G01 Z1.5000 F59.0551 (TRAVEL-Lift Tip For Travel)
G00 X-4.9543 Y-1.8551 (TRAVEL)
G1 Z1.2500 (TRAVEL-Lower Tip)
(TYPE:VOLUME)
M03 S75 (Turn Spindle ON)
G04 P80 (Dwell)
M03 S110 (Change Spindle Speed)
G1 F118.1102 X-5.3247 Y-1.8551 (VOLUME-WALL_OUTER)
G1 X-5.3247 Y-2.3949 (VOLUME-WALL_OUTER)
G1 X-4.9543 Y-2.3949 (VOLUME-WALL_OUTER)
G1 X-4.9543 Y-1.8551 (VOLUME-WALL_OUTER)
M05 (Stop Spindle)
G1 F148.8189 X-5.3247 Y-1.8551 (VOLUME-WALL_OUTER-FORWARD TIP WIPE)
G1 X-5.3247 Y-2.3949 (VOLUME-WALL_OUTER-FORWARD TIP WIPE)
G1 X-4.9849 Y-2.3949 (VOLUME-WALL_OUTER-FORWARD TIP WIPE)
G01 Z1.5000 F59.0551 (TRAVEL-Lift Tip For Travel)
G00 X-2.4534 Y-1.8551 (TRAVEL)
G1 Z1.2500 (TRAVEL-Lower Tip)
(TYPE:VOLUME)
M03 S75 (Turn Spindle ON)
G04 P80 (Dwell)
M03 S110 (Change Spindle Speed)
G1 F118.1102 X-2.8238 Y-1.8551 (VOLUME-WALL_OUTER)
G1 X-2.8239 Y-2.3949 (VOLUME-WALL_OUTER)
G1 X-2.4534 Y-2.3949 (VOLUME-WALL_OUTER)
G1 X-2.4534 Y-1.8551 (VOLUME-WALL_OUTER)
M05 (Stop Spindle)
G1 F148.8189 X-2.8238 Y-1.8551 (VOLUME-WALL_OUTER-FORWARD TIP WIPE)
G1 X-2.8239 Y-2.3949 (VOLUME-WALL_OUTER-FORWARD TIP WIPE)
G1 X-2.4841 Y-2.3949 (VOLUME-WALL_OUTER-FORWARD TIP WIPE)
G01 Z1.5000 F59.0551 (TRAVEL-Lift Tip For Travel)
G00 X2.5465 Y-1.8551 (TRAVEL)
G1 Z1.2500 (TRAVEL-Lower Tip)
(TYPE:VOLUME)
M03 S75 (Turn Spindle ON)
G04 P80 (Dwell)
M03 S110 (Change Spindle Speed)
G1 F118.1102 X2.5464 Y-2.3949 (VOLUME-WALL_OUTER)
G1 X2.9169 Y-2.3949 (VOLUME-WALL_OUTER)
G1 X2.9169 Y-1.8551 (VOLUME-WALL_OUTER)
G1 X2.5465 Y-1.8551 (VOLUME-WALL_OUTER)
M05 (Stop Spindle)
G1 F148.8189 X2.5464 Y-2.3949 (VOLUME-WALL_OUTER-FORWARD TIP WIPE)
G1 X2.9169 Y-2.3949 (VOLUME-WALL_OUTER-FORWARD TIP WIPE)
G1 X2.9169 Y-2.0551 (VOLUME-WALL_OUTER-FORWARD TIP WIPE)
G01 Z1.5000 F59.0551 (TRAVEL-Lift Tip For Travel)
G00 X5.0473 Y-1.8551 (TRAVEL)
G1 Z1.2500 (TRAVEL-Lower Tip)
(TYPE:VOLUME)
M03 S75 (Turn Spindle ON)
G04 P80 (Dwell)
M03 S110 (Change Spindle Speed)
G1 F118.1102 X5.0473 Y-2.3949 (VOLUME-WALL_OUTER)
G1 X5.4178 Y-2.3949 (VOLUME-WALL_OUTER)
G1 X5.4178 Y-1.8551 (VOLUME-WALL_OUTER)
G1 X5.0473 Y-1.8551 (VOLUME-WALL_OUTER)
M05 (Stop Spindle)
G1 F148.8189 X5.0473 Y-2.3949 (VOLUME-WALL_OUTER-FORWARD TIP WIPE)
G1 X5.4178 Y-2.3949 (VOLUME-WALL_OUTER-FORWARD TIP WIPE)
G1 X5.4178 Y-2.0551 (VOLUME-WALL_OUTER-FORWARD TIP WIPE)
G01 Z1.5000 F59.0551 (TRAVEL-Lift Tip For Travel)
G00 X5.0473 Y1.8551 (TRAVEL)
G1 Z1.2500 (TRAVEL-Lower Tip)
(TYPE:VOLUME)
M03 S75 (Turn Spindle ON)
G04 P80 (Dwell)
M03 S110 (Change Spindle Speed)
G1 F118.1102 X5.4178 Y1.8551 (VOLUME-WALL_OUTER)
G1 X5.4178 Y2.3949 (VOLUME-WALL_OUTER)
G1 X5.0473 Y2.3949 (VOLUME-WALL_OUTER)
G1 X5.0473 Y1.8551 (VOLUME-WALL_OUTER)
M05 (Stop Spindle)
G1 F148.8189 X5.4178 Y1.8551 (VOLUME-WALL_OUTER-FORWARD TIP WIPE)
G1 X5.4178 Y2.3949 (VOLUME-WALL_OUTER-FORWARD TIP WIPE)
G1 X5.0780 Y2.3949 (VOLUME-WALL_OUTER-FORWARD TIP WIPE)
G01 Z1.5000 F59.0551 (TRAVEL-Lift Tip For Travel)
G00 X2.5464 Y1.8551 (TRAVEL)
G1 Z1.2500 (TRAVEL-Lower Tip)
(TYPE:VOLUME)
M03 S75 (Turn Spindle ON)
G04 P80 (Dwell)
M03 S110 (Change Spindle Speed)
G1 F118.1102 X2.9169 Y1.8551 (VOLUME-WALL_OUTER)
G1 X2.9169 Y2.3949 (VOLUME-WALL_OUTER)
G1 X2.5465 Y2.3949 (VOLUME-WALL_OUTER)
G1 X2.5464 Y1.8551 (VOLUME-WALL_OUTER)
M05 (Stop Spindle)
G1 F148.8189 X2.9169 Y1.8551 (VOLUME-WALL_OUTER-FORWARD TIP WIPE)
G1 X2.9169 Y2.3949 (VOLUME-WALL_OUTER-FORWARD TIP WIPE)
G1 X2.5771 Y2.3949 (VOLUME-WALL_OUTER-FORWARD TIP WIPE)
(BEGINNING LAYER: 26)
G01 Z1.5500 F59.0551 (TRAVEL-Lift Tip For Travel)
G00 X-2.4654 Y1.8551 (TRAVEL)
G1 Z1.3000 (TRAVEL-Lower Tip)
(TYPE:VOLUME)
M03 S75 (Turn Spindle ON)
G04 P80 (Dwell)
M03 S110 (Change Spindle Speed)
G1 F118.1102 X-2.4654 Y2.3949 (VOLUME-WALL_OUTER)
G1 X-2.8112 Y2.3949 (VOLUME-WALL_OUTER)
G1 X-2.8112 Y1.8551 (VOLUME-WALL_OUTER)
G1 X-2.4654 Y1.8551 (VOLUME-WALL_OUTER)
M05 (Stop Spindle)
G1 F148.8189 X-2.4654 Y2.3949 (VOLUME-WALL_OUTER-FORWARD TIP WIPE)
G1 X-2.8112 Y2.3949 (VOLUME-WALL_OUTER-FORWARD TIP WIPE)
G1 X-2.8112 Y2.0304 (VOLUME-WALL_OUTER-FORWARD TIP WIPE)
G01 Z1.5500 F59.0551 (TRAVEL-Lift Tip For Travel)
G00 X-4.9669 Y1.8551 (TRAVEL)
G1 Z1.3000 (TRAVEL-Lower Tip)
(TYPE:VOLUME)
M03 S75 (Turn Spindle ON)
G04 P80 (Dwell)
M03 S110 (Change Spindle Speed)
G1 F118.1102 X-4.9669 Y2.3949 (VOLUME-WALL_OUTER)
G1 X-5.3127 Y2.3949 (VOLUME-WALL_OUTER)
G1 X-5.3127 Y1.8551 (VOLUME-WALL_OUTER)
G1 X-4.9669 Y1.8551 (VOLUME-WALL_OUTER)
M05 (Stop Spindle)
G1 F148.8189 X-4.9669 Y2.3949 (VOLUME-WALL_OUTER-FORWARD TIP WIPE)
G1 X-5.3127 Y2.3949 (VOLUME-WALL_OUTER-FORWARD TIP WIPE)
G1 X-5.3127 Y2.0304 (VOLUME-WALL_OUTER-FORWARD TIP WIPE)
G01 Z1.5500 F59.0551 (TRAVEL-Lift Tip For Travel)
G00 X-4.9669 Y-1.8551 (TRAVEL)
G1 Z1.3000 (TRAVEL-Lower Tip)
(TYPE:VOLUME)
M03 S75 (Turn Spindle ON)
G04 P80 (Dwell)
M03 S110 (Change Spindle Speed)
G1 F118.1102 X-5.3127 Y-1.8551 (VOLUME-WALL_OUTER)
G1 X-5.3127 Y-2.3949 (VOLUME-WALL_OUTER)
G1 X-4.9669 Y-2.3949 (VOLUME-WALL_OUTER)
G1 X-4.9669 Y-1.8551 (VOLUME-WALL_OUTER)
M05 (Stop Spindle)
G1 F148.8189 X-5.3127 Y-1.8551 (VOLUME-WALL_OUTER-FORWARD TIP WIPE)
G1 X-5.3127 Y-2.3949 (VOLUME-WALL_OUTER-FORWARD TIP WIPE)
G1 X-4.9669 Y-2.3949 (VOLUME-WALL_OUTER-FORWARD TIP WIPE)
G1 X-4.9669 Y-2.3762 (VOLUME-WALL_OUTER-FORWARD TIP WIPE)
G01 Z1.5500 F59.0551 (TRAVEL-Lift Tip For Travel)
G00 X-2.4654 Y-1.8551 (TRAVEL)
G1 Z1.3000 (TRAVEL-Lower Tip)
(TYPE:VOLUME)
M03 S75 (Turn Spindle ON)
G04 P80 (Dwell)
M03 S110 (Change Spindle Speed)
G1 F118.1102 X-2.8111 Y-1.8551 (VOLUME-WALL_OUTER)
G1 X-2.8112 Y-2.3949 (VOLUME-WALL_OUTER)
G1 X-2.4654 Y-2.3949 (VOLUME-WALL_OUTER)
G1 X-2.4654 Y-1.8551 (VOLUME-WALL_OUTER)
M05 (Stop Spindle)
G1 F148.8189 X-2.8111 Y-1.8551 (VOLUME-WALL_OUTER-FORWARD TIP WIPE)
G1 X-2.8112 Y-2.3949 (VOLUME-WALL_OUTER-FORWARD TIP WIPE)
G1 X-2.4654 Y-2.3949 (VOLUME-WALL_OUTER-FORWARD TIP WIPE)
G1 X-2.4654 Y-2.3762 (VOLUME-WALL_OUTER-FORWARD TIP WIPE)
G01 Z1.5500 F59.0551 (TRAVEL-Lift Tip For Travel)
G00 X2.5585 Y-1.8551 (TRAVEL)
G1 Z1.3000 (TRAVEL-Lower Tip)
(TYPE:VOLUME)
M03 S75 (Turn Spindle ON)
G04 P80 (Dwell)
M03 S110 (Change Spindle Speed)
G1 F118.1102 X2.5584 Y-2.3949 (VOLUME-WALL_OUTER)
G1 X2.9042 Y-2.3949 (VOLUME-WALL_OUTER)
G1 X2.9042 Y-1.8551 (VOLUME-WALL_OUTER)
G1 X2.5585 Y-1.8551 (VOLUME-WALL_OUTER)
M05 (Stop Spindle)
G1 F148.8189 X2.5584 Y-2.3949 (VOLUME-WALL_OUTER-FORWARD TIP WIPE)
G1 X2.9042 Y-2.3949 (VOLUME-WALL_OUTER-FORWARD TIP WIPE)
G1 X2.9042 Y-2.0304 (VOLUME-WALL_OUTER-FORWARD TIP WIPE)
G01 Z1.5500 F59.0551 (TRAVEL-Lift Tip For Travel)
G00 X5.0600 Y-1.8551 (TRAVEL)
G1 Z1.3000 (TRAVEL-Lower Tip)
(TYPE:VOLUME)
M03 S75 (Turn Spindle ON)
G04 P80 (Dwell)
M03 S110 (Change Spindle Speed)
G1 F118.1102 X5.0600 Y-2.3949 (VOLUME-WALL_OUTER)
G1 X5.4057 Y-2.3949 (VOLUME-WALL_OUTER)
G1 X5.4057 Y-1.8551 (VOLUME-WALL_OUTER)
G1 X5.0600 Y-1.8551 (VOLUME-WALL_OUTER)
M05 (Stop Spindle)
G1 F148.8189 X5.0600 Y-2.3949 (VOLUME-WALL_OUTER-FORWARD TIP WIPE)
G1 X5.4057 Y-2.3949 (VOLUME-WALL_OUTER-FORWARD TIP WIPE)
G1 X5.4057 Y-2.0304 (VOLUME-WALL_OUTER-FORWARD TIP WIPE)
G01 Z1.5500 F59.0551 (TRAVEL-Lift Tip For Travel)
G00 X5.0600 Y1.8551 (TRAVEL)
G1 Z1.3000 (TRAVEL-Lower Tip)
(TYPE:VOLUME)
M03 S75 (Turn Spindle ON)
G04 P80 (Dwell)
M03 S110 (Change Spindle Speed)
G1 F118.1102 X5.4057 Y1.8551 (VOLUME-WALL_OUTER)
G1 X5.4057 Y2.3949 (VOLUME-WALL_OUTER)
G1 X5.0600 Y2.3949 (VOLUME-WALL_OUTER)
G1 X5.0600 Y1.8551 (VOLUME-WALL_OUTER)
M05 (Stop Spindle)
G1 F148.8189 X5.4057 Y1.8551 (VOLUME-WALL_OUTER-FORWARD TIP WIPE)
G1 X5.4057 Y2.3949 (VOLUME-WALL_OUTER-FORWARD TIP WIPE)
G1 X5.0600 Y2.3949 (VOLUME-WALL_OUTER-FORWARD TIP WIPE)
G1 X5.0600 Y2.3762 (VOLUME-WALL_OUTER-FORWARD TIP WIPE)
G01 Z1.5500 F59.0551 (TRAVEL-Lift Tip For Travel)
G00 X2.5584 Y1.8551 (TRAVEL)
G1 Z1.3000 (TRAVEL-Lower Tip)
(TYPE:VOLUME)
M03 S75 (Turn Spindle ON)
G04 P80 (Dwell)
M03 S110 (Change Spindle Speed)
G1 F118.1102 X2.9042 Y1.8551 (VOLUME-WALL_OUTER)
G1 X2.9042 Y2.3949 (VOLUME-WALL_OUTER)
G1 X2.5585 Y2.3949 (VOLUME-WALL_OUTER)
G1 X2.5584 Y1.8551 (VOLUME-WALL_OUTER)
M05 (Stop Spindle)
G1 F148.8189 X2.9042 Y1.8551 (VOLUME-WALL_OUTER-FORWARD TIP WIPE)
G1 X2.9042 Y2.3949 (VOLUME-WALL_OUTER-FORWARD TIP WIPE)
G1 X2.5585 Y2.3949 (VOLUME-WALL_OUTER-FORWARD TIP WIPE)
G1 X2.5584 Y2.3761 (VOLUME-WALL_OUTER-FORWARD TIP WIPE)
(BEGINNING LAYER: 27)
G01 Z1.6000 F59.0551 (TRAVEL-Lift Tip For Travel)
G00 X-2.4774 Y1.8551 (TRAVEL)
G1 Z1.3500 (TRAVEL-Lower Tip)
(TYPE:VOLUME)
M03 S75 (Turn Spindle ON)
G04 P80 (Dwell)
M03 S110 (Change Spindle Speed)
G1 F118.1102 X-2.4774 Y2.3949 (VOLUME-WALL_OUTER)
G1 X-2.7986 Y2.3949 (VOLUME-WALL_OUTER)
G1 X-2.7985 Y1.8551 (VOLUME-WALL_OUTER)
G1 X-2.4774 Y1.8551 (VOLUME-WALL_OUTER)
M05 (Stop Spindle)
G1 F148.8189 X-2.4774 Y2.3949 (VOLUME-WALL_OUTER-FORWARD TIP WIPE)
G1 X-2.7986 Y2.3949 (VOLUME-WALL_OUTER-FORWARD TIP WIPE)
G1 X-2.7985 Y2.0058 (VOLUME-WALL_OUTER-FORWARD TIP WIPE)
G01 Z1.6000 F59.0551 (TRAVEL-Lift Tip For Travel)
G00 X-4.9795 Y1.8551 (TRAVEL)
G1 Z1.3500 (TRAVEL-Lower Tip)
(TYPE:VOLUME)
M03 S75 (Turn Spindle ON)
G04 P80 (Dwell)
M03 S110 (Change Spindle Speed)
G1 F118.1102 X-4.9796 Y2.3949 (VOLUME-WALL_OUTER)
G1 X-5.3007 Y2.3949 (VOLUME-WALL_OUTER)
G1 X-5.3007 Y1.8551 (VOLUME-WALL_OUTER)
G1 X-4.9795 Y1.8551 (VOLUME-WALL_OUTER)
M05 (Stop Spindle)
G1 F148.8189 X-4.9796 Y2.3949 (VOLUME-WALL_OUTER-FORWARD TIP WIPE)
G1 X-5.3007 Y2.3949 (VOLUME-WALL_OUTER-FORWARD TIP WIPE)
G1 X-5.3007 Y2.0057 (VOLUME-WALL_OUTER-FORWARD TIP WIPE)
G01 Z1.6000 F59.0551 (TRAVEL-Lift Tip For Travel)
G00 X-4.9796 Y-1.8551 (TRAVEL)
G1 Z1.3500 (TRAVEL-Lower Tip)
(TYPE:VOLUME)
M03 S75 (Turn Spindle ON)
G04 P80 (Dwell)
M03 S110 (Change Spindle Speed)
G1 F118.1102 X-5.3007 Y-1.8551 (VOLUME-WALL_OUTER)
G1 X-5.3007 Y-2.3949 (VOLUME-WALL_OUTER)
G1 X-4.9795 Y-2.3949 (VOLUME-WALL_OUTER)
G1 X-4.9796 Y-1.8551 (VOLUME-WALL_OUTER)
M05 (Stop Spindle)
G1 F148.8189 X-5.3007 Y-1.8551 (VOLUME-WALL_OUTER-FORWARD TIP WIPE)
G1 X-5.3007 Y-2.3949 (VOLUME-WALL_OUTER-FORWARD TIP WIPE)
G1 X-4.9795 Y-2.3949 (VOLUME-WALL_OUTER-FORWARD TIP WIPE)
G1 X-4.9796 Y-2.3269 (VOLUME-WALL_OUTER-FORWARD TIP WIPE)
G01 Z1.6000 F59.0551 (TRAVEL-Lift Tip For Travel)
G00 X-2.4774 Y-1.8551 (TRAVEL)
G1 Z1.3500 (TRAVEL-Lower Tip)
(TYPE:VOLUME)
M03 S75 (Turn Spindle ON)
G04 P80 (Dwell)
M03 S110 (Change Spindle Speed)
G1 F118.1102 X-2.7985 Y-1.8551 (VOLUME-WALL_OUTER)
G1 X-2.7985 Y-2.3949 (VOLUME-WALL_OUTER)
G1 X-2.4774 Y-2.3949 (VOLUME-WALL_OUTER)
G1 X-2.4774 Y-1.8551 (VOLUME-WALL_OUTER)
M05 (Stop Spindle)
G1 F148.8189 X-2.7985 Y-1.8551 (VOLUME-WALL_OUTER-FORWARD TIP WIPE)
G1 X-2.7985 Y-2.3949 (VOLUME-WALL_OUTER-FORWARD TIP WIPE)
G1 X-2.4774 Y-2.3949 (VOLUME-WALL_OUTER-FORWARD TIP WIPE)
G1 X-2.4774 Y-2.3269 (VOLUME-WALL_OUTER-FORWARD TIP WIPE)
G01 Z1.6000 F59.0551 (TRAVEL-Lift Tip For Travel)
G00 X2.5704 Y-1.8551 (TRAVEL)
G1 Z1.3500 (TRAVEL-Lower Tip)
(TYPE:VOLUME)
M03 S75 (Turn Spindle ON)
G04 P80 (Dwell)
M03 S110 (Change Spindle Speed)
G1 F118.1102 X2.5704 Y-2.3949 (VOLUME-WALL_OUTER)
G1 X2.8916 Y-2.3949 (VOLUME-WALL_OUTER)
G1 X2.8915 Y-1.8551 (VOLUME-WALL_OUTER)
G1 X2.5704 Y-1.8551 (VOLUME-WALL_OUTER)
M05 (Stop Spindle)
G1 F148.8189 X2.5704 Y-2.3949 (VOLUME-WALL_OUTER-FORWARD TIP WIPE)
G1 X2.8916 Y-2.3949 (VOLUME-WALL_OUTER-FORWARD TIP WIPE)
G1 X2.8915 Y-2.0058 (VOLUME-WALL_OUTER-FORWARD TIP WIPE)
G01 Z1.6000 F59.0551 (TRAVEL-Lift Tip For Travel)
G00 X5.0726 Y-1.8551 (TRAVEL)
G1 Z1.3500 (TRAVEL-Lower Tip)
(TYPE:VOLUME)
M03 S75 (Turn Spindle ON)
G04 P80 (Dwell)
M03 S110 (Change Spindle Speed)
G1 F118.1102 X5.0726 Y-2.3949 (VOLUME-WALL_OUTER)
G1 X5.3938 Y-2.3949 (VOLUME-WALL_OUTER)
G1 X5.3938 Y-1.8551 (VOLUME-WALL_OUTER)
G1 X5.0726 Y-1.8551 (VOLUME-WALL_OUTER)
M05 (Stop Spindle)
G1 F148.8189 X5.0726 Y-2.3949 (VOLUME-WALL_OUTER-FORWARD TIP WIPE)
G1 X5.3938 Y-2.3949 (VOLUME-WALL_OUTER-FORWARD TIP WIPE)
G1 X5.3938 Y-2.0058 (VOLUME-WALL_OUTER-FORWARD TIP WIPE)
G01 Z1.6000 F59.0551 (TRAVEL-Lift Tip For Travel)
G00 X5.0726 Y1.8551 (TRAVEL)
G1 Z1.3500 (TRAVEL-Lower Tip)
(TYPE:VOLUME)
M03 S75 (Turn Spindle ON)
G04 P80 (Dwell)
M03 S110 (Change Spindle Speed)
G1 F118.1102 X5.3938 Y1.8551 (VOLUME-WALL_OUTER)
G1 X5.3938 Y2.3949 (VOLUME-WALL_OUTER)
G1 X5.0726 Y2.3949 (VOLUME-WALL_OUTER)
G1 X5.0726 Y1.8551 (VOLUME-WALL_OUTER)
M05 (Stop Spindle)
G1 F148.8189 X5.3938 Y1.8551 (VOLUME-WALL_OUTER-FORWARD TIP WIPE)
G1 X5.3938 Y2.3949 (VOLUME-WALL_OUTER-FORWARD TIP WIPE)
G1 X5.0726 Y2.3949 (VOLUME-WALL_OUTER-FORWARD TIP WIPE)
G1 X5.0726 Y2.3270 (VOLUME-WALL_OUTER-FORWARD TIP WIPE)
G01 Z1.6000 F59.0551 (TRAVEL-Lift Tip For Travel)
G00 X2.5704 Y1.8551 (TRAVEL)
G1 Z1.3500 (TRAVEL-Lower Tip)
(TYPE:VOLUME)
M03 S75 (Turn Spindle ON)
G04 P80 (Dwell)
M03 S110 (Change Spindle Speed)
G1 F118.1102 X2.8916 Y1.8551 (VOLUME-WALL_OUTER)
G1 X2.8915 Y2.3949 (VOLUME-WALL_OUTER)
G1 X2.5704 Y2.3949 (VOLUME-WALL_OUTER)
G1 X2.5704 Y1.8551 (VOLUME-WALL_OUTER)
M05 (Stop Spindle)
G1 F148.8189 X2.8916 Y1.8551 (VOLUME-WALL_OUTER-FORWARD TIP WIPE)
G1 X2.8915 Y2.3949 (VOLUME-WALL_OUTER-FORWARD TIP WIPE)
G1 X2.5704 Y2.3949 (VOLUME-WALL_OUTER-FORWARD TIP WIPE)
G1 X2.5704 Y2.3269 (VOLUME-WALL_OUTER-FORWARD TIP WIPE)
(BEGINNING LAYER: 28)
G01 Z1.6500 F59.0551 (TRAVEL-Lift Tip For Travel)
G00 X-2.4843 Y1.8551 (TRAVEL)
G1 Z1.4000 (TRAVEL-Lower Tip)
(TYPE:VOLUME)
M03 S75 (Turn Spindle ON)
G04 P80 (Dwell)
M03 S110 (Change Spindle Speed)
G1 F118.1102 X-2.4843 Y2.3949 (VOLUME-WALL_OUTER)
G1 X-2.7927 Y2.3949 (VOLUME-WALL_OUTER)
G1 X-2.7927 Y1.8551 (VOLUME-WALL_OUTER)
G1 X-2.4843 Y1.8551 (VOLUME-WALL_OUTER)
M05 (Stop Spindle)
G1 F148.8189 X-2.4843 Y2.3949 (VOLUME-WALL_OUTER-FORWARD TIP WIPE)
G1 X-2.7927 Y2.3949 (VOLUME-WALL_OUTER-FORWARD TIP WIPE)
G1 X-2.7927 Y1.9930 (VOLUME-WALL_OUTER-FORWARD TIP WIPE)
G01 Z1.6500 F59.0551 (TRAVEL-Lift Tip For Travel)
G00 X-4.9854 Y1.8551 (TRAVEL)
G1 Z1.4000 (TRAVEL-Lower Tip)
(TYPE:VOLUME)
M03 S75 (Turn Spindle ON)
G04 P80 (Dwell)
M03 S110 (Change Spindle Speed)
G1 F118.1102 X-4.9854 Y2.3949 (VOLUME-WALL_OUTER)
G1 X-5.2938 Y2.3949 (VOLUME-WALL_OUTER)
G1 X-5.2938 Y1.8551 (VOLUME-WALL_OUTER)
G1 X-4.9854 Y1.8551 (VOLUME-WALL_OUTER)
M05 (Stop Spindle)
G1 F148.8189 X-4.9854 Y2.3949 (VOLUME-WALL_OUTER-FORWARD TIP WIPE)
G1 X-5.2938 Y2.3949 (VOLUME-WALL_OUTER-FORWARD TIP WIPE)
G1 X-5.2938 Y1.9930 (VOLUME-WALL_OUTER-FORWARD TIP WIPE)
G01 Z1.6500 F59.0551 (TRAVEL-Lift Tip For Travel)
G00 X-4.9854 Y-1.8551 (TRAVEL)
G1 Z1.4000 (TRAVEL-Lower Tip)
(TYPE:VOLUME)
M03 S75 (Turn Spindle ON)
G04 P80 (Dwell)
M03 S110 (Change Spindle Speed)
G1 F118.1102 X-5.2938 Y-1.8551 (VOLUME-WALL_OUTER)
G1 X-5.2938 Y-2.3949 (VOLUME-WALL_OUTER)
G1 X-4.9854 Y-2.3949 (VOLUME-WALL_OUTER)
G1 X-4.9854 Y-1.8551 (VOLUME-WALL_OUTER)
M05 (Stop Spindle)
G1 F148.8189 X-5.2938 Y-1.8551 (VOLUME-WALL_OUTER-FORWARD TIP WIPE)
G1 X-5.2938 Y-2.3949 (VOLUME-WALL_OUTER-FORWARD TIP WIPE)
G1 X-4.9854 Y-2.3949 (VOLUME-WALL_OUTER-FORWARD TIP WIPE)
G1 X-4.9854 Y-2.3014 (VOLUME-WALL_OUTER-FORWARD TIP WIPE)
G01 Z1.6500 F59.0551 (TRAVEL-Lift Tip For Travel)
G00 X-2.4843 Y-1.8551 (TRAVEL)
G1 Z1.4000 (TRAVEL-Lower Tip)
(TYPE:VOLUME)
M03 S75 (Turn Spindle ON)
G04 P80 (Dwell)
M03 S110 (Change Spindle Speed)
G1 F118.1102 X-2.7926 Y-1.8551 (VOLUME-WALL_OUTER)
G1 X-2.7927 Y-2.3949 (VOLUME-WALL_OUTER)
G1 X-2.4843 Y-2.3949 (VOLUME-WALL_OUTER)
G1 X-2.4843 Y-1.8551 (VOLUME-WALL_OUTER)
M05 (Stop Spindle)
G1 F148.8189 X-2.7926 Y-1.8551 (VOLUME-WALL_OUTER-FORWARD TIP WIPE)
G1 X-2.7927 Y-2.3949 (VOLUME-WALL_OUTER-FORWARD TIP WIPE)
G1 X-2.4843 Y-2.3949 (VOLUME-WALL_OUTER-FORWARD TIP WIPE)
G1 X-2.4843 Y-2.3013 (VOLUME-WALL_OUTER-FORWARD TIP WIPE)
G01 Z1.6500 F59.0551 (TRAVEL-Lift Tip For Travel)
G00 X2.5774 Y-1.8551 (TRAVEL)
G1 Z1.4000 (TRAVEL-Lower Tip)
(TYPE:VOLUME)
M03 S75 (Turn Spindle ON)
G04 P80 (Dwell)
M03 S110 (Change Spindle Speed)
G1 F118.1102 X2.5773 Y-2.3949 (VOLUME-WALL_OUTER)
G1 X2.8857 Y-2.3949 (VOLUME-WALL_OUTER)
G1 X2.8857 Y-1.8551 (VOLUME-WALL_OUTER)
G1 X2.5774 Y-1.8551 (VOLUME-WALL_OUTER)
M05 (Stop Spindle)
G1 F148.8189 X2.5773 Y-2.3949 (VOLUME-WALL_OUTER-FORWARD TIP WIPE)
G1 X2.8857 Y-2.3949 (VOLUME-WALL_OUTER-FORWARD TIP WIPE)
G1 X2.8857 Y-1.9930 (VOLUME-WALL_OUTER-FORWARD TIP WIPE)
G01 Z1.6500 F59.0551 (TRAVEL-Lift Tip For Travel)
G00 X5.0785 Y-1.8551 (TRAVEL)
G1 Z1.4000 (TRAVEL-Lower Tip)
(TYPE:VOLUME)
M03 S75 (Turn Spindle ON)
G04 P80 (Dwell)
M03 S110 (Change Spindle Speed)
G1 F118.1102 X5.0785 Y-2.3949 (VOLUME-WALL_OUTER)
G1 X5.3869 Y-2.3949 (VOLUME-WALL_OUTER)
G1 X5.3869 Y-1.8551 (VOLUME-WALL_OUTER)
G1 X5.0785 Y-1.8551 (VOLUME-WALL_OUTER)
M05 (Stop Spindle)
G1 F148.8189 X5.0785 Y-2.3949 (VOLUME-WALL_OUTER-FORWARD TIP WIPE)
G1 X5.3869 Y-2.3949 (VOLUME-WALL_OUTER-FORWARD TIP WIPE)
G1 X5.3869 Y-1.9930 (VOLUME-WALL_OUTER-FORWARD TIP WIPE)
G01 Z1.6500 F59.0551 (TRAVEL-Lift Tip For Travel)
G00 X5.0785 Y1.8551 (TRAVEL)
G1 Z1.4000 (TRAVEL-Lower Tip)
(TYPE:VOLUME)
M03 S75 (Turn Spindle ON)
G04 P80 (Dwell)
M03 S110 (Change Spindle Speed)
G1 F118.1102 X5.3869 Y1.8551 (VOLUME-WALL_OUTER)
G1 X5.3869 Y2.3949 (VOLUME-WALL_OUTER)
G1 X5.0785 Y2.3949 (VOLUME-WALL_OUTER)
G1 X5.0785 Y1.8551 (VOLUME-WALL_OUTER)
M05 (Stop Spindle)
G1 F148.8189 X5.3869 Y1.8551 (VOLUME-WALL_OUTER-FORWARD TIP WIPE)
G1 X5.3869 Y2.3949 (VOLUME-WALL_OUTER-FORWARD TIP WIPE)
G1 X5.0785 Y2.3949 (VOLUME-WALL_OUTER-FORWARD TIP WIPE)
G1 X5.0785 Y2.3014 (VOLUME-WALL_OUTER-FORWARD TIP WIPE)
G01 Z1.6500 F59.0551 (TRAVEL-Lift Tip For Travel)
G00 X2.5773 Y1.8551 (TRAVEL)
G1 Z1.4000 (TRAVEL-Lower Tip)
(TYPE:VOLUME)
M03 S75 (Turn Spindle ON)
G04 P80 (Dwell)
M03 S110 (Change Spindle Speed)
G1 F118.1102 X2.8857 Y1.8551 (VOLUME-WALL_OUTER)
G1 X2.8857 Y2.3949 (VOLUME-WALL_OUTER)
G1 X2.5774 Y2.3949 (VOLUME-WALL_OUTER)
G1 X2.5773 Y1.8551 (VOLUME-WALL_OUTER)
M05 (Stop Spindle)
G1 F148.8189 X2.8857 Y1.8551 (VOLUME-WALL_OUTER-FORWARD TIP WIPE)
G1 X2.8857 Y2.3949 (VOLUME-WALL_OUTER-FORWARD TIP WIPE)
G1 X2.5774 Y2.3949 (VOLUME-WALL_OUTER-FORWARD TIP WIPE)
G1 X2.5773 Y2.3013 (VOLUME-WALL_OUTER-FORWARD TIP WIPE)
(BEGINNING LAYER: 29)
G01 Z1.7000 F59.0551 (TRAVEL-Lift Tip For Travel)
G00 X-2.4883 Y1.8551 (TRAVEL)
G1 Z1.4500 (TRAVEL-Lower Tip)
(TYPE:VOLUME)
M03 S75 (Turn Spindle ON)
G04 P80 (Dwell)
M03 S110 (Change Spindle Speed)
G1 F118.1102 X-2.4883 Y2.3949 (VOLUME-WALL_OUTER)
G1 X-2.7885 Y2.3949 (VOLUME-WALL_OUTER)
G1 X-2.7885 Y1.8551 (VOLUME-WALL_OUTER)
G1 X-2.4883 Y1.8551 (VOLUME-WALL_OUTER)
M05 (Stop Spindle)
G1 F148.8189 X-2.4883 Y2.3949 (VOLUME-WALL_OUTER-FORWARD TIP WIPE)
G1 X-2.7885 Y2.3949 (VOLUME-WALL_OUTER-FORWARD TIP WIPE)
G1 X-2.7885 Y1.9849 (VOLUME-WALL_OUTER-FORWARD TIP WIPE)
G01 Z1.7000 F59.0551 (TRAVEL-Lift Tip For Travel)
G00 X-4.9896 Y1.8551 (TRAVEL)
G1 Z1.4500 (TRAVEL-Lower Tip)
(TYPE:VOLUME)
M03 S75 (Turn Spindle ON)
G04 P80 (Dwell)
M03 S110 (Change Spindle Speed)
G1 F118.1102 X-4.9896 Y2.3949 (VOLUME-WALL_OUTER)
G1 X-5.2898 Y2.3949 (VOLUME-WALL_OUTER)
G1 X-5.2899 Y1.8551 (VOLUME-WALL_OUTER)
G1 X-4.9896 Y1.8551 (VOLUME-WALL_OUTER)
M05 (Stop Spindle)
G1 F148.8189 X-4.9896 Y2.3949 (VOLUME-WALL_OUTER-FORWARD TIP WIPE)
G1 X-5.2898 Y2.3949 (VOLUME-WALL_OUTER-FORWARD TIP WIPE)
G1 X-5.2899 Y1.9848 (VOLUME-WALL_OUTER-FORWARD TIP WIPE)
G01 Z1.7000 F59.0551 (TRAVEL-Lift Tip For Travel)
G00 X-4.9896 Y-1.8551 (TRAVEL)
G1 Z1.4500 (TRAVEL-Lower Tip)
(TYPE:VOLUME)
M03 S75 (Turn Spindle ON)
G04 P80 (Dwell)
M03 S110 (Change Spindle Speed)
G1 F118.1102 X-5.2898 Y-1.8551 (VOLUME-WALL_OUTER)
G1 X-5.2899 Y-2.3949 (VOLUME-WALL_OUTER)
G1 X-4.9896 Y-2.3949 (VOLUME-WALL_OUTER)
G1 X-4.9896 Y-1.8551 (VOLUME-WALL_OUTER)
M05 (Stop Spindle)
G1 F148.8189 X-5.2898 Y-1.8551 (VOLUME-WALL_OUTER-FORWARD TIP WIPE)
G1 X-5.2899 Y-2.3949 (VOLUME-WALL_OUTER-FORWARD TIP WIPE)
G1 X-4.9896 Y-2.3949 (VOLUME-WALL_OUTER-FORWARD TIP WIPE)
G1 X-4.9896 Y-2.2852 (VOLUME-WALL_OUTER-FORWARD TIP WIPE)
G01 Z1.7000 F59.0551 (TRAVEL-Lift Tip For Travel)
G00 X-2.4883 Y-1.8551 (TRAVEL)
G1 Z1.4500 (TRAVEL-Lower Tip)
(TYPE:VOLUME)
M03 S75 (Turn Spindle ON)
G04 P80 (Dwell)
M03 S110 (Change Spindle Speed)
G1 F118.1102 X-2.7885 Y-1.8551 (VOLUME-WALL_OUTER)
G1 X-2.7885 Y-2.3949 (VOLUME-WALL_OUTER)
G1 X-2.4883 Y-2.3949 (VOLUME-WALL_OUTER)
G1 X-2.4883 Y-1.8551 (VOLUME-WALL_OUTER)
M05 (Stop Spindle)
G1 F148.8189 X-2.7885 Y-1.8551 (VOLUME-WALL_OUTER-FORWARD TIP WIPE)
G1 X-2.7885 Y-2.3949 (VOLUME-WALL_OUTER-FORWARD TIP WIPE)
G1 X-2.4883 Y-2.3949 (VOLUME-WALL_OUTER-FORWARD TIP WIPE)
G1 X-2.4883 Y-2.2851 (VOLUME-WALL_OUTER-FORWARD TIP WIPE)
G01 Z1.7000 F59.0551 (TRAVEL-Lift Tip For Travel)
G00 X2.5813 Y-1.8551 (TRAVEL)
G1 Z1.4500 (TRAVEL-Lower Tip)
(TYPE:VOLUME)
M03 S75 (Turn Spindle ON)
G04 P80 (Dwell)
M03 S110 (Change Spindle Speed)
G1 F118.1102 X2.5813 Y-2.3949 (VOLUME-WALL_OUTER)
G1 X2.8815 Y-2.3949 (VOLUME-WALL_OUTER)
G1 X2.8815 Y-1.8551 (VOLUME-WALL_OUTER)
G1 X2.5813 Y-1.8551 (VOLUME-WALL_OUTER)
M05 (Stop Spindle)
G1 F148.8189 X2.5813 Y-2.3949 (VOLUME-WALL_OUTER-FORWARD TIP WIPE)
G1 X2.8815 Y-2.3949 (VOLUME-WALL_OUTER-FORWARD TIP WIPE)
G1 X2.8815 Y-1.9849 (VOLUME-WALL_OUTER-FORWARD TIP WIPE)
G01 Z1.7000 F59.0551 (TRAVEL-Lift Tip For Travel)
G00 X5.0827 Y-1.8551 (TRAVEL)
G1 Z1.4500 (TRAVEL-Lower Tip)
(TYPE:VOLUME)
M03 S75 (Turn Spindle ON)
G04 P80 (Dwell)
M03 S110 (Change Spindle Speed)
G1 F118.1102 X5.0826 Y-2.3949 (VOLUME-WALL_OUTER)
G1 X5.3829 Y-2.3949 (VOLUME-WALL_OUTER)
G1 X5.3829 Y-1.8551 (VOLUME-WALL_OUTER)
G1 X5.0827 Y-1.8551 (VOLUME-WALL_OUTER)
M05 (Stop Spindle)
G1 F148.8189 X5.0826 Y-2.3949 (VOLUME-WALL_OUTER-FORWARD TIP WIPE)
G1 X5.3829 Y-2.3949 (VOLUME-WALL_OUTER-FORWARD TIP WIPE)
G1 X5.3829 Y-1.9849 (VOLUME-WALL_OUTER-FORWARD TIP WIPE)
G01 Z1.7000 F59.0551 (TRAVEL-Lift Tip For Travel)
G00 X5.0826 Y1.8551 (TRAVEL)
G1 Z1.4500 (TRAVEL-Lower Tip)
(TYPE:VOLUME)
M03 S75 (Turn Spindle ON)
G04 P80 (Dwell)
M03 S110 (Change Spindle Speed)
G1 F118.1102 X5.3829 Y1.8551 (VOLUME-WALL_OUTER)
G1 X5.3829 Y2.3949 (VOLUME-WALL_OUTER)
G1 X5.0826 Y2.3949 (VOLUME-WALL_OUTER)
G1 X5.0826 Y1.8551 (VOLUME-WALL_OUTER)
M05 (Stop Spindle)
G1 F148.8189 X5.3829 Y1.8551 (VOLUME-WALL_OUTER-FORWARD TIP WIPE)
G1 X5.3829 Y2.3949 (VOLUME-WALL_OUTER-FORWARD TIP WIPE)
G1 X5.0826 Y2.3949 (VOLUME-WALL_OUTER-FORWARD TIP WIPE)
G1 X5.0826 Y2.2852 (VOLUME-WALL_OUTER-FORWARD TIP WIPE)
G01 Z1.7000 F59.0551 (TRAVEL-Lift Tip For Travel)
G00 X2.5813 Y1.8551 (TRAVEL)
G1 Z1.4500 (TRAVEL-Lower Tip)
(TYPE:VOLUME)
M03 S75 (Turn Spindle ON)
G04 P80 (Dwell)
M03 S110 (Change Spindle Speed)
G1 F118.1102 X2.8815 Y1.8551 (VOLUME-WALL_OUTER)
G1 X2.8815 Y2.3949 (VOLUME-WALL_OUTER)
G1 X2.5813 Y2.3949 (VOLUME-WALL_OUTER)
G1 X2.5813 Y1.8551 (VOLUME-WALL_OUTER)
M05 (Stop Spindle)
G1 F148.8189 X2.8815 Y1.8551 (VOLUME-WALL_OUTER-FORWARD TIP WIPE)
G1 X2.8815 Y2.3949 (VOLUME-WALL_OUTER-FORWARD TIP WIPE)
G1 X2.5813 Y2.3949 (VOLUME-WALL_OUTER-FORWARD TIP WIPE)
G1 X2.5813 Y2.2851 (VOLUME-WALL_OUTER-FORWARD TIP WIPE)
(BEGINNING LAYER: 30)
G01 Z1.7500 F59.0551 (TRAVEL-Lift Tip For Travel)
G00 X-2.4922 Y1.8551 (TRAVEL)
G1 Z1.5000 (TRAVEL-Lower Tip)
(TYPE:VOLUME)
M03 S75 (Turn Spindle ON)
G04 P80 (Dwell)
M03 S110 (Change Spindle Speed)
G1 F118.1102 X-2.4922 Y2.3949 (VOLUME-WALL_OUTER)
G1 X-2.7844 Y2.3949 (VOLUME-WALL_OUTER)
G1 X-2.7844 Y1.8551 (VOLUME-WALL_OUTER)
G1 X-2.4922 Y1.8551 (VOLUME-WALL_OUTER)
M05 (Stop Spindle)
G1 F148.8189 X-2.4922 Y2.3949 (VOLUME-WALL_OUTER-FORWARD TIP WIPE)
G1 X-2.7844 Y2.3949 (VOLUME-WALL_OUTER-FORWARD TIP WIPE)
G1 X-2.7844 Y1.9768 (VOLUME-WALL_OUTER-FORWARD TIP WIPE)
G01 Z1.7500 F59.0551 (TRAVEL-Lift Tip For Travel)
G00 X-4.9937 Y1.8551 (TRAVEL)
G1 Z1.5000 (TRAVEL-Lower Tip)
(TYPE:VOLUME)
M03 S75 (Turn Spindle ON)
G04 P80 (Dwell)
M03 S110 (Change Spindle Speed)
G1 F118.1102 X-4.9937 Y2.3949 (VOLUME-WALL_OUTER)
G1 X-5.2859 Y2.3949 (VOLUME-WALL_OUTER)
G1 X-5.2859 Y1.8551 (VOLUME-WALL_OUTER)
G1 X-4.9937 Y1.8551 (VOLUME-WALL_OUTER)
M05 (Stop Spindle)
G1 F148.8189 X-4.9937 Y2.3949 (VOLUME-WALL_OUTER-FORWARD TIP WIPE)
G1 X-5.2859 Y2.3949 (VOLUME-WALL_OUTER-FORWARD TIP WIPE)
G1 X-5.2859 Y1.9768 (VOLUME-WALL_OUTER-FORWARD TIP WIPE)
G01 Z1.7500 F59.0551 (TRAVEL-Lift Tip For Travel)
G00 X-4.9937 Y-1.8551 (TRAVEL)
G1 Z1.5000 (TRAVEL-Lower Tip)
(TYPE:VOLUME)
M03 S75 (Turn Spindle ON)
G04 P80 (Dwell)
M03 S110 (Change Spindle Speed)
G1 F118.1102 X-5.2859 Y-1.8551 (VOLUME-WALL_OUTER)
G1 X-5.2859 Y-2.3949 (VOLUME-WALL_OUTER)
G1 X-4.9937 Y-2.3949 (VOLUME-WALL_OUTER)
G1 X-4.9937 Y-1.8551 (VOLUME-WALL_OUTER)
M05 (Stop Spindle)
G1 F148.8189 X-5.2859 Y-1.8551 (VOLUME-WALL_OUTER-FORWARD TIP WIPE)
G1 X-5.2859 Y-2.3949 (VOLUME-WALL_OUTER-FORWARD TIP WIPE)
G1 X-4.9937 Y-2.3949 (VOLUME-WALL_OUTER-FORWARD TIP WIPE)
G1 X-4.9937 Y-2.2690 (VOLUME-WALL_OUTER-FORWARD TIP WIPE)
G01 Z1.7500 F59.0551 (TRAVEL-Lift Tip For Travel)
G00 X-2.4922 Y-1.8551 (TRAVEL)
G1 Z1.5000 (TRAVEL-Lower Tip)
(TYPE:VOLUME)
M03 S75 (Turn Spindle ON)
G04 P80 (Dwell)
M03 S110 (Change Spindle Speed)
G1 F118.1102 X-2.7843 Y-1.8551 (VOLUME-WALL_OUTER)
G1 X-2.7844 Y-2.3949 (VOLUME-WALL_OUTER)
G1 X-2.4922 Y-2.3949 (VOLUME-WALL_OUTER)
G1 X-2.4922 Y-1.8551 (VOLUME-WALL_OUTER)
M05 (Stop Spindle)
G1 F148.8189 X-2.7843 Y-1.8551 (VOLUME-WALL_OUTER-FORWARD TIP WIPE)
G1 X-2.7844 Y-2.3949 (VOLUME-WALL_OUTER-FORWARD TIP WIPE)
G1 X-2.4922 Y-2.3949 (VOLUME-WALL_OUTER-FORWARD TIP WIPE)
G1 X-2.4922 Y-2.2689 (VOLUME-WALL_OUTER-FORWARD TIP WIPE)
G01 Z1.7500 F59.0551 (TRAVEL-Lift Tip For Travel)
G00 X2.5852 Y-1.8551 (TRAVEL)
G1 Z1.5000 (TRAVEL-Lower Tip)
(TYPE:VOLUME)
M03 S75 (Turn Spindle ON)
G04 P80 (Dwell)
M03 S110 (Change Spindle Speed)
G1 F118.1102 X2.5852 Y-2.3949 (VOLUME-WALL_OUTER)
G1 X2.8774 Y-2.3949 (VOLUME-WALL_OUTER)
G1 X2.8774 Y-1.8551 (VOLUME-WALL_OUTER)
G1 X2.5852 Y-1.8551 (VOLUME-WALL_OUTER)
M05 (Stop Spindle)
G1 F148.8189 X2.5852 Y-2.3949 (VOLUME-WALL_OUTER-FORWARD TIP WIPE)
G1 X2.8774 Y-2.3949 (VOLUME-WALL_OUTER-FORWARD TIP WIPE)
G1 X2.8774 Y-1.9769 (VOLUME-WALL_OUTER-FORWARD TIP WIPE)
