%O98765
(Optimal Parameters % Elongation)
(GCode File generated by the ORNL Slicer Version 1.10.05 distributed to Hybrid Manufacturing Technologies)
(ORNL Slicer GCode File)
(GCODE Syntax: Hybrid-Haas)
(Filename: Hexagon Pyramid Test Article (1))

(Sliced by: April G)
(Slicing notes: OP #1)
(Sliced on: 4/23/2019)
(Layer count: 60)
(Expected Weight: 0.6lbs)
(Expected Build Time: 0 days, 0 hours, 15 minutes)
(Minimum Layer Time: 0 minutes, 8 seconds)
(Maximum Layer Time: 0 minutes, 18 seconds)
(XYZ Translation Data: 1.8447,-2.11,-1)
(Slicing Parameters)
(Nozzle Diameter: 0.12in)
(Layer Height: 0.05in)
(Printer Base Offset: 0.0000in)
(Minimum Table Value: 0.0000in)
(Default Extrusion Width: 0.210in)
(Inset Extrusion Width: 0.210in)
(Infill Extrusion Width: 0.000in)
(Skin Extrusion Width: 0.000in)
(Downskin Count: 0)
(Upskin Count: 0)
(Number of Insets: 1)

T9M6
G90G00G54X0.5Y0.5F50
G43H9
(Layer count: 60)
(BEGINNING LAYER: 1)
G00 X-1.3527 Y0.0207 (TRAVEL)
G01 Z0.3000 F59.0551 (TRAVEL-Lift Tip For Travel)
G00 X-1.3527 Y0.0207 (TRAVEL)
G1 Z0.0500 (TRAVEL-Lower Tip)
(TYPE:VOLUME)
M03 S75 (Turn Spindle ON)
G04 P80 (Dwell)
M03 S111 (Change Spindle Speed)
G1 F115.7480 X-2.5419 Y2.0806 (VOLUME-WALL_OUTER)
G1 X-4.9209 Y2.0806 (VOLUME-WALL_OUTER)
G1 X-6.1101 Y0.0207 (VOLUME-WALL_OUTER)
G1 X-4.9209 Y-2.0392 (VOLUME-WALL_OUTER)
G1 X-2.5419 Y-2.0392 (VOLUME-WALL_OUTER)
G1 X-1.3527 Y0.0207 (VOLUME-WALL_OUTER)
M05 (Stop Spindle)
G1 F132.2835 X-1.8527 Y0.8867 (VOLUME-WALL_OUTER-FORWARD TIP WIPE)
G01 Z0.3000 F59.0551 (TRAVEL-Lift Tip For Travel)
G00 X1.6520 Y0.0047 (TRAVEL)
G1 Z0.0500 (TRAVEL-Lower Tip)
(TYPE:VOLUME)
M03 S75 (Turn Spindle ON)
G04 P80 (Dwell)
M03 S111 (Change Spindle Speed)
G1 F115.7480 X2.8307 Y-2.0371 (VOLUME-WALL_OUTER)
G1 X5.1889 Y-2.0371 (VOLUME-WALL_OUTER)
G1 X6.3676 Y0.0047 (VOLUME-WALL_OUTER)
G1 X5.1889 Y2.0466 (VOLUME-WALL_OUTER)
G1 X2.8307 Y2.0466 (VOLUME-WALL_OUTER)
G1 X1.6520 Y0.0047 (VOLUME-WALL_OUTER)
M05 (Stop Spindle)
G1 F132.2835 X2.1520 Y-0.8613 (VOLUME-WALL_OUTER-FORWARD TIP WIPE)
(BEGINNING LAYER: 2)
G01 Z0.3500 F59.0551 (TRAVEL-Lift Tip For Travel)
G00 X-1.3527 Y0.0207 (TRAVEL)
G1 Z0.1000 (TRAVEL-Lower Tip)
(TYPE:VOLUME)
M03 S75 (Turn Spindle ON)
G04 P80 (Dwell)
M03 S111 (Change Spindle Speed)
G1 F115.7480 X-2.5419 Y2.0806 (VOLUME-WALL_OUTER)
G1 X-4.9209 Y2.0806 (VOLUME-WALL_OUTER)
G1 X-6.1101 Y0.0207 (VOLUME-WALL_OUTER)
G1 X-4.9209 Y-2.0392 (VOLUME-WALL_OUTER)
G1 X-2.5419 Y-2.0392 (VOLUME-WALL_OUTER)
G1 X-1.3527 Y0.0207 (VOLUME-WALL_OUTER)
M05 (Stop Spindle)
G1 F132.2835 X-1.8527 Y0.8867 (VOLUME-WALL_OUTER-FORWARD TIP WIPE)
G01 Z0.3500 F59.0551 (TRAVEL-Lift Tip For Travel)
G00 X1.6936 Y0.0047 (TRAVEL)
G1 Z0.1000 (TRAVEL-Lower Tip)
(TYPE:VOLUME)
M03 S75 (Turn Spindle ON)
G04 P80 (Dwell)
M03 S111 (Change Spindle Speed)
G1 F115.7480 X2.8516 Y-2.0010 (VOLUME-WALL_OUTER)
G1 X5.1680 Y-2.0010 (VOLUME-WALL_OUTER)
G1 X6.3260 Y0.0047 (VOLUME-WALL_OUTER)
G1 X5.1680 Y2.0106 (VOLUME-WALL_OUTER)
G1 X2.8516 Y2.0106 (VOLUME-WALL_OUTER)
G1 X1.6936 Y0.0047 (VOLUME-WALL_OUTER)
M05 (Stop Spindle)
G1 F132.2835 X2.1936 Y-0.8613 (VOLUME-WALL_OUTER-FORWARD TIP WIPE)
(BEGINNING LAYER: 3)
G01 Z0.4000 F59.0551 (TRAVEL-Lift Tip For Travel)
G00 X-1.3527 Y0.0207 (TRAVEL)
G1 Z0.1500 (TRAVEL-Lower Tip)
(TYPE:VOLUME)
M03 S75 (Turn Spindle ON)
G04 P80 (Dwell)
M03 S111 (Change Spindle Speed)
G1 F115.7480 X-2.5419 Y2.0806 (VOLUME-WALL_OUTER)
G1 X-4.9209 Y2.0806 (VOLUME-WALL_OUTER)
G1 X-6.1101 Y0.0207 (VOLUME-WALL_OUTER)
G1 X-4.9209 Y-2.0392 (VOLUME-WALL_OUTER)
G1 X-2.5419 Y-2.0392 (VOLUME-WALL_OUTER)
G1 X-1.3527 Y0.0207 (VOLUME-WALL_OUTER)
M05 (Stop Spindle)
G1 F132.2835 X-1.8527 Y0.8867 (VOLUME-WALL_OUTER-FORWARD TIP WIPE)
G01 Z0.4000 F59.0551 (TRAVEL-Lift Tip For Travel)
G00 X1.7353 Y0.0047 (TRAVEL)
G1 Z0.1500 (TRAVEL-Lower Tip)
(TYPE:VOLUME)
M03 S75 (Turn Spindle ON)
G04 P80 (Dwell)
M03 S111 (Change Spindle Speed)
G1 F115.7480 X2.8724 Y-1.9649 (VOLUME-WALL_OUTER)
G1 X5.1472 Y-1.9649 (VOLUME-WALL_OUTER)
G1 X6.2843 Y0.0047 (VOLUME-WALL_OUTER)
G1 X5.1472 Y1.9744 (VOLUME-WALL_OUTER)
G1 X2.8724 Y1.9744 (VOLUME-WALL_OUTER)
G1 X1.7353 Y0.0047 (VOLUME-WALL_OUTER)
M05 (Stop Spindle)
G1 F132.2835 X2.2353 Y-0.8614 (VOLUME-WALL_OUTER-FORWARD TIP WIPE)
(BEGINNING LAYER: 4)
G01 Z0.4500 F59.0551 (TRAVEL-Lift Tip For Travel)
G00 X-1.3528 Y0.0207 (TRAVEL)
G1 Z0.2000 (TRAVEL-Lower Tip)
(TYPE:VOLUME)
M03 S75 (Turn Spindle ON)
G04 P80 (Dwell)
M03 S111 (Change Spindle Speed)
G1 F115.7480 X-2.5420 Y2.0806 (VOLUME-WALL_OUTER)
G1 X-4.9209 Y2.0806 (VOLUME-WALL_OUTER)
G1 X-6.1101 Y0.0207 (VOLUME-WALL_OUTER)
G1 X-4.9209 Y-2.0392 (VOLUME-WALL_OUTER)
G1 X-2.5419 Y-2.0392 (VOLUME-WALL_OUTER)
G1 X-1.3528 Y0.0207 (VOLUME-WALL_OUTER)
M05 (Stop Spindle)
G1 F132.2835 X-1.8528 Y0.8867 (VOLUME-WALL_OUTER-FORWARD TIP WIPE)
G01 Z0.4500 F59.0551 (TRAVEL-Lift Tip For Travel)
G00 X1.7770 Y0.0047 (TRAVEL)
G1 Z0.2000 (TRAVEL-Lower Tip)
(TYPE:VOLUME)
M03 S75 (Turn Spindle ON)
G04 P80 (Dwell)
M03 S111 (Change Spindle Speed)
G1 F115.7480 X2.8933 Y-1.9289 (VOLUME-WALL_OUTER)
G1 X5.1263 Y-1.9289 (VOLUME-WALL_OUTER)
G1 X6.2426 Y0.0047 (VOLUME-WALL_OUTER)
G1 X5.1263 Y1.9384 (VOLUME-WALL_OUTER)
G1 X2.8933 Y1.9384 (VOLUME-WALL_OUTER)
G1 X1.7770 Y0.0047 (VOLUME-WALL_OUTER)
M05 (Stop Spindle)
G1 F132.2835 X2.2770 Y-0.8613 (VOLUME-WALL_OUTER-FORWARD TIP WIPE)
(BEGINNING LAYER: 5)
G01 Z0.5000 F59.0551 (TRAVEL-Lift Tip For Travel)
G00 X-1.3527 Y0.0207 (TRAVEL)
G1 Z0.2500 (TRAVEL-Lower Tip)
(TYPE:VOLUME)
M03 S75 (Turn Spindle ON)
G04 P80 (Dwell)
M03 S111 (Change Spindle Speed)
G1 F115.7480 X-2.5419 Y2.0806 (VOLUME-WALL_OUTER)
G1 X-4.9209 Y2.0806 (VOLUME-WALL_OUTER)
G1 X-6.1101 Y0.0207 (VOLUME-WALL_OUTER)
G1 X-4.9209 Y-2.0392 (VOLUME-WALL_OUTER)
G1 X-2.5419 Y-2.0392 (VOLUME-WALL_OUTER)
G1 X-1.3527 Y0.0207 (VOLUME-WALL_OUTER)
M05 (Stop Spindle)
G1 F132.2835 X-1.8527 Y0.8867 (VOLUME-WALL_OUTER-FORWARD TIP WIPE)
G01 Z0.5000 F59.0551 (TRAVEL-Lift Tip For Travel)
G00 X1.8187 Y0.0047 (TRAVEL)
G1 Z0.2500 (TRAVEL-Lower Tip)
(TYPE:VOLUME)
M03 S75 (Turn Spindle ON)
G04 P80 (Dwell)
M03 S111 (Change Spindle Speed)
G1 F115.7480 X2.9141 Y-1.8928 (VOLUME-WALL_OUTER)
G1 X5.1055 Y-1.8928 (VOLUME-WALL_OUTER)
G1 X6.2009 Y0.0047 (VOLUME-WALL_OUTER)
G1 X5.1055 Y1.9023 (VOLUME-WALL_OUTER)
G1 X2.9141 Y1.9023 (VOLUME-WALL_OUTER)
G1 X1.8187 Y0.0047 (VOLUME-WALL_OUTER)
M05 (Stop Spindle)
G1 F132.2835 X2.3187 Y-0.8614 (VOLUME-WALL_OUTER-FORWARD TIP WIPE)
(BEGINNING LAYER: 6)
G01 Z0.5500 F59.0551 (TRAVEL-Lift Tip For Travel)
G00 X-1.3527 Y0.0207 (TRAVEL)
G1 Z0.3000 (TRAVEL-Lower Tip)
(TYPE:VOLUME)
M03 S75 (Turn Spindle ON)
G04 P80 (Dwell)
M03 S111 (Change Spindle Speed)
G1 F115.7480 X-2.5419 Y2.0806 (VOLUME-WALL_OUTER)
G1 X-4.9209 Y2.0806 (VOLUME-WALL_OUTER)
G1 X-6.1101 Y0.0207 (VOLUME-WALL_OUTER)
G1 X-4.9209 Y-2.0392 (VOLUME-WALL_OUTER)
G1 X-2.5419 Y-2.0392 (VOLUME-WALL_OUTER)
G1 X-1.3527 Y0.0207 (VOLUME-WALL_OUTER)
M05 (Stop Spindle)
G1 F132.2835 X-1.8527 Y0.8867 (VOLUME-WALL_OUTER-FORWARD TIP WIPE)
G01 Z0.5500 F59.0551 (TRAVEL-Lift Tip For Travel)
G00 X1.8603 Y0.0047 (TRAVEL)
G1 Z0.3000 (TRAVEL-Lower Tip)
(TYPE:VOLUME)
M03 S75 (Turn Spindle ON)
G04 P80 (Dwell)
M03 S111 (Change Spindle Speed)
G1 F115.7480 X2.9349 Y-1.8567 (VOLUME-WALL_OUTER)
G1 X5.0847 Y-1.8567 (VOLUME-WALL_OUTER)
G1 X6.1593 Y0.0047 (VOLUME-WALL_OUTER)
G1 X5.0847 Y1.8662 (VOLUME-WALL_OUTER)
G1 X2.9349 Y1.8662 (VOLUME-WALL_OUTER)
G1 X1.8603 Y0.0047 (VOLUME-WALL_OUTER)
M05 (Stop Spindle)
G1 F132.2835 X2.3603 Y-0.8613 (VOLUME-WALL_OUTER-FORWARD TIP WIPE)
(BEGINNING LAYER: 7)
G01 Z0.6000 F59.0551 (TRAVEL-Lift Tip For Travel)
G00 X-1.3527 Y0.0207 (TRAVEL)
G1 Z0.3500 (TRAVEL-Lower Tip)
(TYPE:VOLUME)
M03 S75 (Turn Spindle ON)
G04 P80 (Dwell)
M03 S111 (Change Spindle Speed)
G1 F115.7480 X-2.5419 Y2.0806 (VOLUME-WALL_OUTER)
G1 X-4.9209 Y2.0806 (VOLUME-WALL_OUTER)
G1 X-6.1101 Y0.0207 (VOLUME-WALL_OUTER)
G1 X-4.9209 Y-2.0392 (VOLUME-WALL_OUTER)
G1 X-2.5419 Y-2.0392 (VOLUME-WALL_OUTER)
G1 X-1.3527 Y0.0207 (VOLUME-WALL_OUTER)
M05 (Stop Spindle)
G1 F132.2835 X-1.8527 Y0.8867 (VOLUME-WALL_OUTER-FORWARD TIP WIPE)
G01 Z0.6000 F59.0551 (TRAVEL-Lift Tip For Travel)
G00 X1.9020 Y0.0047 (TRAVEL)
G1 Z0.3500 (TRAVEL-Lower Tip)
(TYPE:VOLUME)
M03 S75 (Turn Spindle ON)
G04 P80 (Dwell)
M03 S111 (Change Spindle Speed)
G1 F115.7480 X2.9557 Y-1.8206 (VOLUME-WALL_OUTER)
G1 X5.0639 Y-1.8206 (VOLUME-WALL_OUTER)
G1 X6.1176 Y0.0047 (VOLUME-WALL_OUTER)
G1 X5.0639 Y1.8301 (VOLUME-WALL_OUTER)
G1 X2.9557 Y1.8301 (VOLUME-WALL_OUTER)
G1 X1.9020 Y0.0047 (VOLUME-WALL_OUTER)
M05 (Stop Spindle)
G1 F132.2835 X2.4020 Y-0.8613 (VOLUME-WALL_OUTER-FORWARD TIP WIPE)
(BEGINNING LAYER: 8)
G01 Z0.6500 F59.0551 (TRAVEL-Lift Tip For Travel)
G00 X-1.3527 Y0.0207 (TRAVEL)
G1 Z0.4000 (TRAVEL-Lower Tip)
(TYPE:VOLUME)
M03 S75 (Turn Spindle ON)
G04 P80 (Dwell)
M03 S111 (Change Spindle Speed)
G1 F115.7480 X-2.5419 Y2.0806 (VOLUME-WALL_OUTER)
G1 X-4.9209 Y2.0806 (VOLUME-WALL_OUTER)
G1 X-6.1101 Y0.0207 (VOLUME-WALL_OUTER)
G1 X-4.9209 Y-2.0392 (VOLUME-WALL_OUTER)
G1 X-2.5419 Y-2.0392 (VOLUME-WALL_OUTER)
G1 X-1.3527 Y0.0207 (VOLUME-WALL_OUTER)
M05 (Stop Spindle)
G1 F132.2835 X-1.8527 Y0.8867 (VOLUME-WALL_OUTER-FORWARD TIP WIPE)
G01 Z0.6500 F59.0551 (TRAVEL-Lift Tip For Travel)
G00 X1.9436 Y0.0047 (TRAVEL)
G1 Z0.4000 (TRAVEL-Lower Tip)
(TYPE:VOLUME)
M03 S75 (Turn Spindle ON)
G04 P80 (Dwell)
M03 S111 (Change Spindle Speed)
G1 F115.7480 X2.9766 Y-1.7845 (VOLUME-WALL_OUTER)
G1 X5.0430 Y-1.7845 (VOLUME-WALL_OUTER)
G1 X6.0760 Y0.0047 (VOLUME-WALL_OUTER)
G1 X5.0430 Y1.7940 (VOLUME-WALL_OUTER)
G1 X2.9766 Y1.7940 (VOLUME-WALL_OUTER)
G1 X1.9436 Y0.0047 (VOLUME-WALL_OUTER)
M05 (Stop Spindle)
G1 F132.2835 X2.4436 Y-0.8614 (VOLUME-WALL_OUTER-FORWARD TIP WIPE)
(BEGINNING LAYER: 9)
G01 Z0.7000 F59.0551 (TRAVEL-Lift Tip For Travel)
G00 X-1.3527 Y0.0207 (TRAVEL)
G1 Z0.4500 (TRAVEL-Lower Tip)
(TYPE:VOLUME)
M03 S75 (Turn Spindle ON)
G04 P80 (Dwell)
M03 S111 (Change Spindle Speed)
G1 F115.7480 X-2.5419 Y2.0806 (VOLUME-WALL_OUTER)
G1 X-4.9209 Y2.0806 (VOLUME-WALL_OUTER)
G1 X-6.1101 Y0.0207 (VOLUME-WALL_OUTER)
G1 X-4.9209 Y-2.0392 (VOLUME-WALL_OUTER)
G1 X-2.5419 Y-2.0392 (VOLUME-WALL_OUTER)
G1 X-1.3527 Y0.0207 (VOLUME-WALL_OUTER)
M05 (Stop Spindle)
G1 F132.2835 X-1.8527 Y0.8867 (VOLUME-WALL_OUTER-FORWARD TIP WIPE)
G01 Z0.7000 F59.0551 (TRAVEL-Lift Tip For Travel)
G00 X1.9853 Y0.0047 (TRAVEL)
G1 Z0.4500 (TRAVEL-Lower Tip)
(TYPE:VOLUME)
M03 S75 (Turn Spindle ON)
G04 P80 (Dwell)
M03 S111 (Change Spindle Speed)
G1 F115.7480 X2.9974 Y-1.7484 (VOLUME-WALL_OUTER)
G1 X5.0222 Y-1.7484 (VOLUME-WALL_OUTER)
G1 X6.0343 Y0.0047 (VOLUME-WALL_OUTER)
G1 X5.0222 Y1.7580 (VOLUME-WALL_OUTER)
G1 X2.9974 Y1.7580 (VOLUME-WALL_OUTER)
G1 X1.9853 Y0.0047 (VOLUME-WALL_OUTER)
M05 (Stop Spindle)
G1 F132.2835 X2.4853 Y-0.8613 (VOLUME-WALL_OUTER-FORWARD TIP WIPE)
(BEGINNING LAYER: 10)
G01 Z0.7500 F59.0551 (TRAVEL-Lift Tip For Travel)
G00 X-1.3527 Y0.0207 (TRAVEL)
G1 Z0.5000 (TRAVEL-Lower Tip)
(TYPE:VOLUME)
M03 S75 (Turn Spindle ON)
G04 P80 (Dwell)
M03 S111 (Change Spindle Speed)
G1 F115.7480 X-2.5419 Y2.0806 (VOLUME-WALL_OUTER)
G1 X-4.9209 Y2.0806 (VOLUME-WALL_OUTER)
G1 X-6.1101 Y0.0207 (VOLUME-WALL_OUTER)
G1 X-4.9209 Y-2.0392 (VOLUME-WALL_OUTER)
G1 X-2.5419 Y-2.0392 (VOLUME-WALL_OUTER)
G1 X-1.3527 Y0.0207 (VOLUME-WALL_OUTER)
M05 (Stop Spindle)
G1 F132.2835 X-1.8527 Y0.8867 (VOLUME-WALL_OUTER-FORWARD TIP WIPE)
G01 Z0.7500 F59.0551 (TRAVEL-Lift Tip For Travel)
G00 X2.0270 Y0.0047 (TRAVEL)
G1 Z0.5000 (TRAVEL-Lower Tip)
(TYPE:VOLUME)
M03 S75 (Turn Spindle ON)
G04 P80 (Dwell)
M03 S111 (Change Spindle Speed)
G1 F115.7480 X3.0183 Y-1.7124 (VOLUME-WALL_OUTER)
G1 X5.0013 Y-1.7124 (VOLUME-WALL_OUTER)
G1 X5.9926 Y0.0047 (VOLUME-WALL_OUTER)
G1 X5.0013 Y1.7219 (VOLUME-WALL_OUTER)
G1 X3.0183 Y1.7219 (VOLUME-WALL_OUTER)
G1 X2.0270 Y0.0047 (VOLUME-WALL_OUTER)
M05 (Stop Spindle)
G1 F132.2835 X2.5270 Y-0.8613 (VOLUME-WALL_OUTER-FORWARD TIP WIPE)
(BEGINNING LAYER: 11)
G01 Z0.8000 F59.0551 (TRAVEL-Lift Tip For Travel)
G00 X-1.3527 Y0.0207 (TRAVEL)
G1 Z0.5500 (TRAVEL-Lower Tip)
(TYPE:VOLUME)
M03 S75 (Turn Spindle ON)
G04 P80 (Dwell)
M03 S111 (Change Spindle Speed)
G1 F115.7480 X-2.5419 Y2.0806 (VOLUME-WALL_OUTER)
G1 X-4.9209 Y2.0806 (VOLUME-WALL_OUTER)
G1 X-6.1101 Y0.0207 (VOLUME-WALL_OUTER)
G1 X-4.9209 Y-2.0392 (VOLUME-WALL_OUTER)
G1 X-2.5419 Y-2.0392 (VOLUME-WALL_OUTER)
G1 X-1.3527 Y0.0207 (VOLUME-WALL_OUTER)
M05 (Stop Spindle)
G1 F132.2835 X-1.8527 Y0.8867 (VOLUME-WALL_OUTER-FORWARD TIP WIPE)
G01 Z0.8000 F59.0551 (TRAVEL-Lift Tip For Travel)
G00 X2.0686 Y0.0047 (TRAVEL)
G1 Z0.5500 (TRAVEL-Lower Tip)
(TYPE:VOLUME)
M03 S75 (Turn Spindle ON)
G04 P80 (Dwell)
M03 S111 (Change Spindle Speed)
G1 F115.7480 X3.0391 Y-1.6763 (VOLUME-WALL_OUTER)
G1 X4.9805 Y-1.6763 (VOLUME-WALL_OUTER)
G1 X5.9510 Y0.0047 (VOLUME-WALL_OUTER)
G1 X4.9805 Y1.6858 (VOLUME-WALL_OUTER)
G1 X3.0391 Y1.6858 (VOLUME-WALL_OUTER)
G1 X2.0686 Y0.0047 (VOLUME-WALL_OUTER)
M05 (Stop Spindle)
G1 F132.2835 X2.5686 Y-0.8613 (VOLUME-WALL_OUTER-FORWARD TIP WIPE)
(BEGINNING LAYER: 12)
G01 Z0.8500 F59.0551 (TRAVEL-Lift Tip For Travel)
G00 X-1.3527 Y0.0207 (TRAVEL)
G1 Z0.6000 (TRAVEL-Lower Tip)
(TYPE:VOLUME)
M03 S75 (Turn Spindle ON)
G04 P80 (Dwell)
M03 S111 (Change Spindle Speed)
G1 F115.7480 X-2.5419 Y2.0806 (VOLUME-WALL_OUTER)
G1 X-4.9209 Y2.0806 (VOLUME-WALL_OUTER)
G1 X-6.1101 Y0.0207 (VOLUME-WALL_OUTER)
G1 X-4.9209 Y-2.0392 (VOLUME-WALL_OUTER)
G1 X-2.5419 Y-2.0392 (VOLUME-WALL_OUTER)
G1 X-1.3527 Y0.0207 (VOLUME-WALL_OUTER)
M05 (Stop Spindle)
G1 F132.2835 X-1.8527 Y0.8867 (VOLUME-WALL_OUTER-FORWARD TIP WIPE)
G01 Z0.8500 F59.0551 (TRAVEL-Lift Tip For Travel)
G00 X2.1103 Y0.0047 (TRAVEL)
G1 Z0.6000 (TRAVEL-Lower Tip)
(TYPE:VOLUME)
M03 S75 (Turn Spindle ON)
G04 P80 (Dwell)
M03 S111 (Change Spindle Speed)
G1 F115.7480 X3.0599 Y-1.6402 (VOLUME-WALL_OUTER)
G1 X4.9597 Y-1.6402 (VOLUME-WALL_OUTER)
G1 X5.9093 Y0.0047 (VOLUME-WALL_OUTER)
G1 X4.9597 Y1.6497 (VOLUME-WALL_OUTER)
G1 X3.0599 Y1.6497 (VOLUME-WALL_OUTER)
G1 X2.1103 Y0.0047 (VOLUME-WALL_OUTER)
M05 (Stop Spindle)
G1 F132.2835 X2.6103 Y-0.8613 (VOLUME-WALL_OUTER-FORWARD TIP WIPE)
(BEGINNING LAYER: 13)
G01 Z0.9000 F59.0551 (TRAVEL-Lift Tip For Travel)
G00 X-1.3527 Y0.0207 (TRAVEL)
G1 Z0.6500 (TRAVEL-Lower Tip)
(TYPE:VOLUME)
M03 S75 (Turn Spindle ON)
G04 P80 (Dwell)
M03 S111 (Change Spindle Speed)
G1 F115.7480 X-2.5419 Y2.0806 (VOLUME-WALL_OUTER)
G1 X-4.9209 Y2.0806 (VOLUME-WALL_OUTER)
G1 X-6.1101 Y0.0207 (VOLUME-WALL_OUTER)
G1 X-4.9209 Y-2.0392 (VOLUME-WALL_OUTER)
G1 X-2.5419 Y-2.0392 (VOLUME-WALL_OUTER)
G1 X-1.3527 Y0.0207 (VOLUME-WALL_OUTER)
M05 (Stop Spindle)
G1 F132.2835 X-1.8527 Y0.8867 (VOLUME-WALL_OUTER-FORWARD TIP WIPE)
G01 Z0.9000 F59.0551 (TRAVEL-Lift Tip For Travel)
G00 X2.1520 Y0.0048 (TRAVEL)
G1 Z0.6500 (TRAVEL-Lower Tip)
(TYPE:VOLUME)
M03 S75 (Turn Spindle ON)
G04 P80 (Dwell)
M03 S111 (Change Spindle Speed)
G1 F115.7480 X3.0807 Y-1.6041 (VOLUME-WALL_OUTER)
G1 X4.9389 Y-1.6041 (VOLUME-WALL_OUTER)
G1 X5.8676 Y0.0048 (VOLUME-WALL_OUTER)
G1 X4.9389 Y1.6136 (VOLUME-WALL_OUTER)
G1 X3.0807 Y1.6136 (VOLUME-WALL_OUTER)
G1 X2.1520 Y0.0048 (VOLUME-WALL_OUTER)
M05 (Stop Spindle)
G1 F132.2835 X2.6520 Y-0.8613 (VOLUME-WALL_OUTER-FORWARD TIP WIPE)
(BEGINNING LAYER: 14)
G01 Z0.9500 F59.0551 (TRAVEL-Lift Tip For Travel)
G00 X-1.3527 Y0.0207 (TRAVEL)
G1 Z0.7000 (TRAVEL-Lower Tip)
(TYPE:VOLUME)
M03 S75 (Turn Spindle ON)
G04 P80 (Dwell)
M03 S111 (Change Spindle Speed)
G1 F115.7480 X-2.5419 Y2.0806 (VOLUME-WALL_OUTER)
G1 X-4.9209 Y2.0806 (VOLUME-WALL_OUTER)
G1 X-6.1101 Y0.0207 (VOLUME-WALL_OUTER)
G1 X-4.9209 Y-2.0392 (VOLUME-WALL_OUTER)
G1 X-2.5419 Y-2.0392 (VOLUME-WALL_OUTER)
G1 X-1.3527 Y0.0207 (VOLUME-WALL_OUTER)
M05 (Stop Spindle)
G1 F132.2835 X-1.8527 Y0.8867 (VOLUME-WALL_OUTER-FORWARD TIP WIPE)
G01 Z0.9500 F59.0551 (TRAVEL-Lift Tip For Travel)
G00 X2.1936 Y0.0047 (TRAVEL)
G1 Z0.7000 (TRAVEL-Lower Tip)
(TYPE:VOLUME)
M03 S75 (Turn Spindle ON)
G04 P80 (Dwell)
M03 S111 (Change Spindle Speed)
G1 F115.7480 X3.1016 Y-1.5680 (VOLUME-WALL_OUTER)
G1 X4.9180 Y-1.5680 (VOLUME-WALL_OUTER)
G1 X5.8260 Y0.0047 (VOLUME-WALL_OUTER)
G1 X4.9180 Y1.5775 (VOLUME-WALL_OUTER)
G1 X3.1016 Y1.5775 (VOLUME-WALL_OUTER)
G1 X2.1936 Y0.0047 (VOLUME-WALL_OUTER)
M05 (Stop Spindle)
G1 F132.2835 X2.6936 Y-0.8614 (VOLUME-WALL_OUTER-FORWARD TIP WIPE)
(BEGINNING LAYER: 15)
G01 Z1.0000 F59.0551 (TRAVEL-Lift Tip For Travel)
G00 X-1.3527 Y0.0207 (TRAVEL)
G1 Z0.7500 (TRAVEL-Lower Tip)
(TYPE:VOLUME)
M03 S75 (Turn Spindle ON)
G04 P80 (Dwell)
M03 S111 (Change Spindle Speed)
G1 F115.7480 X-2.5419 Y2.0806 (VOLUME-WALL_OUTER)
G1 X-4.9209 Y2.0806 (VOLUME-WALL_OUTER)
G1 X-6.1101 Y0.0207 (VOLUME-WALL_OUTER)
G1 X-4.9209 Y-2.0392 (VOLUME-WALL_OUTER)
G1 X-2.5419 Y-2.0392 (VOLUME-WALL_OUTER)
G1 X-1.3527 Y0.0207 (VOLUME-WALL_OUTER)
M05 (Stop Spindle)
G1 F132.2835 X-1.8527 Y0.8867 (VOLUME-WALL_OUTER-FORWARD TIP WIPE)
G01 Z1.0000 F59.0551 (TRAVEL-Lift Tip For Travel)
G00 X2.2353 Y0.0047 (TRAVEL)
G1 Z0.7500 (TRAVEL-Lower Tip)
(TYPE:VOLUME)
M03 S75 (Turn Spindle ON)
G04 P80 (Dwell)
M03 S111 (Change Spindle Speed)
G1 F115.7480 X3.1224 Y-1.5319 (VOLUME-WALL_OUTER)
G1 X4.8972 Y-1.5319 (VOLUME-WALL_OUTER)
G1 X5.7843 Y0.0047 (VOLUME-WALL_OUTER)
G1 X4.8972 Y1.5415 (VOLUME-WALL_OUTER)
G1 X3.1224 Y1.5415 (VOLUME-WALL_OUTER)
G1 X2.2353 Y0.0047 (VOLUME-WALL_OUTER)
M05 (Stop Spindle)
G1 F132.2835 X2.7353 Y-0.8613 (VOLUME-WALL_OUTER-FORWARD TIP WIPE)
(BEGINNING LAYER: 16)
G01 Z1.0500 F59.0551 (TRAVEL-Lift Tip For Travel)
G00 X-1.3527 Y0.0207 (TRAVEL)
G1 Z0.8000 (TRAVEL-Lower Tip)
(TYPE:VOLUME)
M03 S75 (Turn Spindle ON)
G04 P80 (Dwell)
M03 S111 (Change Spindle Speed)
G1 F115.7480 X-2.5419 Y2.0806 (VOLUME-WALL_OUTER)
G1 X-4.9209 Y2.0806 (VOLUME-WALL_OUTER)
G1 X-6.1101 Y0.0207 (VOLUME-WALL_OUTER)
G1 X-4.9209 Y-2.0392 (VOLUME-WALL_OUTER)
G1 X-2.5419 Y-2.0392 (VOLUME-WALL_OUTER)
G1 X-1.3527 Y0.0207 (VOLUME-WALL_OUTER)
M05 (Stop Spindle)
G1 F132.2835 X-1.8527 Y0.8867 (VOLUME-WALL_OUTER-FORWARD TIP WIPE)
G01 Z1.0500 F59.0551 (TRAVEL-Lift Tip For Travel)
G00 X2.2770 Y0.0047 (TRAVEL)
G1 Z0.8000 (TRAVEL-Lower Tip)
(TYPE:VOLUME)
M03 S75 (Turn Spindle ON)
G04 P80 (Dwell)
M03 S111 (Change Spindle Speed)
G1 F115.7480 X3.1433 Y-1.4958 (VOLUME-WALL_OUTER)
G1 X4.8763 Y-1.4958 (VOLUME-WALL_OUTER)
G1 X5.7426 Y0.0047 (VOLUME-WALL_OUTER)
G1 X4.8763 Y1.5054 (VOLUME-WALL_OUTER)
G1 X3.1433 Y1.5054 (VOLUME-WALL_OUTER)
G1 X2.2770 Y0.0047 (VOLUME-WALL_OUTER)
M05 (Stop Spindle)
G1 F132.2835 X2.7770 Y-0.8613 (VOLUME-WALL_OUTER-FORWARD TIP WIPE)
(BEGINNING LAYER: 17)
G01 Z1.1000 F59.0551 (TRAVEL-Lift Tip For Travel)
G00 X-1.3527 Y0.0207 (TRAVEL)
G1 Z0.8500 (TRAVEL-Lower Tip)
(TYPE:VOLUME)
M03 S75 (Turn Spindle ON)
G04 P80 (Dwell)
M03 S111 (Change Spindle Speed)
G1 F115.7480 X-2.5419 Y2.0806 (VOLUME-WALL_OUTER)
G1 X-4.9209 Y2.0806 (VOLUME-WALL_OUTER)
G1 X-6.1101 Y0.0207 (VOLUME-WALL_OUTER)
G1 X-4.9209 Y-2.0392 (VOLUME-WALL_OUTER)
G1 X-2.5419 Y-2.0392 (VOLUME-WALL_OUTER)
G1 X-1.3527 Y0.0207 (VOLUME-WALL_OUTER)
M05 (Stop Spindle)
G1 F132.2835 X-1.8527 Y0.8867 (VOLUME-WALL_OUTER-FORWARD TIP WIPE)
G01 Z1.1000 F59.0551 (TRAVEL-Lift Tip For Travel)
G00 X2.3186 Y0.0047 (TRAVEL)
G1 Z0.8500 (TRAVEL-Lower Tip)
(TYPE:VOLUME)
M03 S75 (Turn Spindle ON)
G04 P80 (Dwell)
M03 S111 (Change Spindle Speed)
G1 F115.7480 X3.1641 Y-1.4598 (VOLUME-WALL_OUTER)
G1 X4.8555 Y-1.4598 (VOLUME-WALL_OUTER)
G1 X5.7010 Y0.0047 (VOLUME-WALL_OUTER)
G1 X4.8555 Y1.4693 (VOLUME-WALL_OUTER)
G1 X3.1641 Y1.4693 (VOLUME-WALL_OUTER)
G1 X2.3186 Y0.0047 (VOLUME-WALL_OUTER)
M05 (Stop Spindle)
G1 F132.2835 X2.8186 Y-0.8614 (VOLUME-WALL_OUTER-FORWARD TIP WIPE)
(BEGINNING LAYER: 18)
G01 Z1.1500 F59.0551 (TRAVEL-Lift Tip For Travel)
G00 X-1.3527 Y0.0207 (TRAVEL)
G1 Z0.9000 (TRAVEL-Lower Tip)
(TYPE:VOLUME)
M03 S75 (Turn Spindle ON)
G04 P80 (Dwell)
M03 S111 (Change Spindle Speed)
G1 F115.7480 X-2.5419 Y2.0806 (VOLUME-WALL_OUTER)
G1 X-4.9209 Y2.0806 (VOLUME-WALL_OUTER)
G1 X-6.1101 Y0.0207 (VOLUME-WALL_OUTER)
G1 X-4.9209 Y-2.0392 (VOLUME-WALL_OUTER)
G1 X-2.5419 Y-2.0392 (VOLUME-WALL_OUTER)
G1 X-1.3527 Y0.0207 (VOLUME-WALL_OUTER)
M05 (Stop Spindle)
G1 F132.2835 X-1.8527 Y0.8867 (VOLUME-WALL_OUTER-FORWARD TIP WIPE)
G01 Z1.1500 F59.0551 (TRAVEL-Lift Tip For Travel)
G00 X2.3603 Y0.0047 (TRAVEL)
G1 Z0.9000 (TRAVEL-Lower Tip)
(TYPE:VOLUME)
M03 S75 (Turn Spindle ON)
G04 P80 (Dwell)
M03 S111 (Change Spindle Speed)
G1 F115.7480 X3.1849 Y-1.4237 (VOLUME-WALL_OUTER)
G1 X4.8347 Y-1.4237 (VOLUME-WALL_OUTER)
G1 X5.6593 Y0.0047 (VOLUME-WALL_OUTER)
G1 X4.8347 Y1.4332 (VOLUME-WALL_OUTER)
G1 X3.1849 Y1.4332 (VOLUME-WALL_OUTER)
G1 X2.3603 Y0.0047 (VOLUME-WALL_OUTER)
M05 (Stop Spindle)
G1 F132.2835 X2.8603 Y-0.8614 (VOLUME-WALL_OUTER-FORWARD TIP WIPE)
(BEGINNING LAYER: 19)
G01 Z1.2000 F59.0551 (TRAVEL-Lift Tip For Travel)
G00 X-1.3527 Y0.0207 (TRAVEL)
G1 Z0.9500 (TRAVEL-Lower Tip)
(TYPE:VOLUME)
M03 S75 (Turn Spindle ON)
G04 P80 (Dwell)
M03 S111 (Change Spindle Speed)
G1 F115.7480 X-2.5419 Y2.0806 (VOLUME-WALL_OUTER)
G1 X-4.9209 Y2.0806 (VOLUME-WALL_OUTER)
G1 X-6.1101 Y0.0207 (VOLUME-WALL_OUTER)
G1 X-4.9209 Y-2.0392 (VOLUME-WALL_OUTER)
G1 X-2.5419 Y-2.0392 (VOLUME-WALL_OUTER)
G1 X-1.3527 Y0.0207 (VOLUME-WALL_OUTER)
M05 (Stop Spindle)
G1 F132.2835 X-1.8527 Y0.8867 (VOLUME-WALL_OUTER-FORWARD TIP WIPE)
G01 Z1.2000 F59.0551 (TRAVEL-Lift Tip For Travel)
G00 X2.4020 Y0.0047 (TRAVEL)
G1 Z0.9500 (TRAVEL-Lower Tip)
(TYPE:VOLUME)
M03 S75 (Turn Spindle ON)
G04 P80 (Dwell)
M03 S111 (Change Spindle Speed)
G1 F115.7480 X3.2057 Y-1.3876 (VOLUME-WALL_OUTER)
G1 X4.8139 Y-1.3876 (VOLUME-WALL_OUTER)
G1 X5.6176 Y0.0047 (VOLUME-WALL_OUTER)
G1 X4.8139 Y1.3971 (VOLUME-WALL_OUTER)
G1 X3.2057 Y1.3971 (VOLUME-WALL_OUTER)
G1 X2.4020 Y0.0047 (VOLUME-WALL_OUTER)
M05 (Stop Spindle)
G1 F132.2835 X2.9020 Y-0.8614 (VOLUME-WALL_OUTER-FORWARD TIP WIPE)
(BEGINNING LAYER: 20)
G01 Z1.2500 F59.0551 (TRAVEL-Lift Tip For Travel)
G00 X-1.3527 Y0.0207 (TRAVEL)
G1 Z1.0000 (TRAVEL-Lower Tip)
(TYPE:VOLUME)
M03 S75 (Turn Spindle ON)
G04 P80 (Dwell)
M03 S111 (Change Spindle Speed)
G1 F115.7480 X-2.5419 Y2.0806 (VOLUME-WALL_OUTER)
G1 X-4.9209 Y2.0806 (VOLUME-WALL_OUTER)
G1 X-6.1101 Y0.0207 (VOLUME-WALL_OUTER)
G1 X-4.9209 Y-2.0392 (VOLUME-WALL_OUTER)
G1 X-2.5419 Y-2.0392 (VOLUME-WALL_OUTER)
G1 X-1.3527 Y0.0207 (VOLUME-WALL_OUTER)
M05 (Stop Spindle)
G1 F132.2835 X-1.8527 Y0.8867 (VOLUME-WALL_OUTER-FORWARD TIP WIPE)
G01 Z1.2500 F59.0551 (TRAVEL-Lift Tip For Travel)
G00 X2.4436 Y0.0047 (TRAVEL)
G1 Z1.0000 (TRAVEL-Lower Tip)
(TYPE:VOLUME)
M03 S75 (Turn Spindle ON)
G04 P80 (Dwell)
M03 S111 (Change Spindle Speed)
G1 F115.7480 X3.2266 Y-1.3515 (VOLUME-WALL_OUTER)
G1 X4.7930 Y-1.3515 (VOLUME-WALL_OUTER)
G1 X5.5760 Y0.0047 (VOLUME-WALL_OUTER)
G1 X4.7930 Y1.3610 (VOLUME-WALL_OUTER)
G1 X3.2266 Y1.3610 (VOLUME-WALL_OUTER)
G1 X2.4436 Y0.0047 (VOLUME-WALL_OUTER)
M05 (Stop Spindle)
G1 F132.2835 X2.9436 Y-0.8613 (VOLUME-WALL_OUTER-FORWARD TIP WIPE)
(BEGINNING LAYER: 21)
G01 Z1.3000 F59.0551 (TRAVEL-Lift Tip For Travel)
G00 X-1.3527 Y0.0207 (TRAVEL)
G1 Z1.0500 (TRAVEL-Lower Tip)
(TYPE:VOLUME)
M03 S75 (Turn Spindle ON)
G04 P80 (Dwell)
M03 S111 (Change Spindle Speed)
G1 F115.7480 X-2.5419 Y2.0806 (VOLUME-WALL_OUTER)
G1 X-4.9209 Y2.0806 (VOLUME-WALL_OUTER)
G1 X-6.1101 Y0.0207 (VOLUME-WALL_OUTER)
G1 X-4.9209 Y-2.0392 (VOLUME-WALL_OUTER)
G1 X-2.5419 Y-2.0392 (VOLUME-WALL_OUTER)
G1 X-1.3527 Y0.0207 (VOLUME-WALL_OUTER)
M05 (Stop Spindle)
G1 F132.2835 X-1.8527 Y0.8867 (VOLUME-WALL_OUTER-FORWARD TIP WIPE)
G01 Z1.3000 F59.0551 (TRAVEL-Lift Tip For Travel)
G00 X2.4853 Y0.0047 (TRAVEL)
G1 Z1.0500 (TRAVEL-Lower Tip)
(TYPE:VOLUME)
M03 S75 (Turn Spindle ON)
G04 P80 (Dwell)
M03 S111 (Change Spindle Speed)
G1 F115.7480 X3.2474 Y-1.3154 (VOLUME-WALL_OUTER)
G1 X4.7722 Y-1.3154 (VOLUME-WALL_OUTER)
G1 X5.5343 Y0.0047 (VOLUME-WALL_OUTER)
G1 X4.7722 Y1.3249 (VOLUME-WALL_OUTER)
G1 X3.2474 Y1.3249 (VOLUME-WALL_OUTER)
G1 X2.4853 Y0.0047 (VOLUME-WALL_OUTER)
M05 (Stop Spindle)
G1 F132.2835 X2.9853 Y-0.8614 (VOLUME-WALL_OUTER-FORWARD TIP WIPE)
(BEGINNING LAYER: 22)
G01 Z1.3500 F59.0551 (TRAVEL-Lift Tip For Travel)
G00 X-1.3527 Y0.0207 (TRAVEL)
G1 Z1.1000 (TRAVEL-Lower Tip)
(TYPE:VOLUME)
M03 S75 (Turn Spindle ON)
G04 P80 (Dwell)
M03 S111 (Change Spindle Speed)
G1 F115.7480 X-2.5419 Y2.0806 (VOLUME-WALL_OUTER)
G1 X-4.9209 Y2.0806 (VOLUME-WALL_OUTER)
G1 X-6.1101 Y0.0207 (VOLUME-WALL_OUTER)
G1 X-4.9209 Y-2.0392 (VOLUME-WALL_OUTER)
G1 X-2.5419 Y-2.0392 (VOLUME-WALL_OUTER)
G1 X-1.3527 Y0.0207 (VOLUME-WALL_OUTER)
M05 (Stop Spindle)
G1 F132.2835 X-1.8527 Y0.8867 (VOLUME-WALL_OUTER-FORWARD TIP WIPE)
G01 Z1.3500 F59.0551 (TRAVEL-Lift Tip For Travel)
G00 X2.5270 Y0.0047 (TRAVEL)
G1 Z1.1000 (TRAVEL-Lower Tip)
(TYPE:VOLUME)
M03 S75 (Turn Spindle ON)
G04 P80 (Dwell)
M03 S111 (Change Spindle Speed)
G1 F115.7480 X3.2683 Y-1.2793 (VOLUME-WALL_OUTER)
G1 X4.7513 Y-1.2793 (VOLUME-WALL_OUTER)
G1 X5.4926 Y0.0047 (VOLUME-WALL_OUTER)
G1 X4.7513 Y1.2889 (VOLUME-WALL_OUTER)
G1 X3.2683 Y1.2889 (VOLUME-WALL_OUTER)
G1 X2.5270 Y0.0047 (VOLUME-WALL_OUTER)
M05 (Stop Spindle)
G1 F132.2835 X3.0270 Y-0.8614 (VOLUME-WALL_OUTER-FORWARD TIP WIPE)
(BEGINNING LAYER: 23)
G01 Z1.4000 F59.0551 (TRAVEL-Lift Tip For Travel)
G00 X-1.3527 Y0.0207 (TRAVEL)
G1 Z1.1500 (TRAVEL-Lower Tip)
(TYPE:VOLUME)
M03 S75 (Turn Spindle ON)
G04 P80 (Dwell)
M03 S111 (Change Spindle Speed)
G1 F115.7480 X-2.5419 Y2.0806 (VOLUME-WALL_OUTER)
G1 X-4.9209 Y2.0806 (VOLUME-WALL_OUTER)
G1 X-6.1101 Y0.0207 (VOLUME-WALL_OUTER)
G1 X-4.9209 Y-2.0392 (VOLUME-WALL_OUTER)
G1 X-2.5419 Y-2.0392 (VOLUME-WALL_OUTER)
G1 X-1.3527 Y0.0207 (VOLUME-WALL_OUTER)
M05 (Stop Spindle)
G1 F132.2835 X-1.8527 Y0.8867 (VOLUME-WALL_OUTER-FORWARD TIP WIPE)
G01 Z1.4000 F59.0551 (TRAVEL-Lift Tip For Travel)
G00 X2.5686 Y0.0047 (TRAVEL)
G1 Z1.1500 (TRAVEL-Lower Tip)
(TYPE:VOLUME)
M03 S75 (Turn Spindle ON)
G04 P80 (Dwell)
M03 S111 (Change Spindle Speed)
G1 F115.7480 X3.2891 Y-1.2433 (VOLUME-WALL_OUTER)
G1 X4.7305 Y-1.2433 (VOLUME-WALL_OUTER)
G1 X5.4510 Y0.0047 (VOLUME-WALL_OUTER)
G1 X4.7305 Y1.2528 (VOLUME-WALL_OUTER)
G1 X3.2891 Y1.2528 (VOLUME-WALL_OUTER)
G1 X2.5686 Y0.0047 (VOLUME-WALL_OUTER)
M05 (Stop Spindle)
G1 F132.2835 X3.0686 Y-0.8613 (VOLUME-WALL_OUTER-FORWARD TIP WIPE)
(BEGINNING LAYER: 24)
G01 Z1.4500 F59.0551 (TRAVEL-Lift Tip For Travel)
G00 X-1.3527 Y0.0207 (TRAVEL)
G1 Z1.2000 (TRAVEL-Lower Tip)
(TYPE:VOLUME)
M03 S75 (Turn Spindle ON)
G04 P80 (Dwell)
M03 S111 (Change Spindle Speed)
G1 F115.7480 X-2.5419 Y2.0806 (VOLUME-WALL_OUTER)
G1 X-4.9209 Y2.0806 (VOLUME-WALL_OUTER)
G1 X-6.1101 Y0.0207 (VOLUME-WALL_OUTER)
G1 X-4.9209 Y-2.0392 (VOLUME-WALL_OUTER)
G1 X-2.5419 Y-2.0392 (VOLUME-WALL_OUTER)
G1 X-1.3527 Y0.0207 (VOLUME-WALL_OUTER)
M05 (Stop Spindle)
G1 F132.2835 X-1.8527 Y0.8867 (VOLUME-WALL_OUTER-FORWARD TIP WIPE)
G01 Z1.4500 F59.0551 (TRAVEL-Lift Tip For Travel)
G00 X2.6103 Y0.0047 (TRAVEL)
G1 Z1.2000 (TRAVEL-Lower Tip)
(TYPE:VOLUME)
M03 S75 (Turn Spindle ON)
G04 P80 (Dwell)
M03 S111 (Change Spindle Speed)
G1 F115.7480 X3.3099 Y-1.2072 (VOLUME-WALL_OUTER)
G1 X4.7097 Y-1.2072 (VOLUME-WALL_OUTER)
G1 X5.4093 Y0.0047 (VOLUME-WALL_OUTER)
G1 X4.7097 Y1.2167 (VOLUME-WALL_OUTER)
G1 X3.3099 Y1.2167 (VOLUME-WALL_OUTER)
G1 X2.6103 Y0.0047 (VOLUME-WALL_OUTER)
M05 (Stop Spindle)
G1 F132.2835 X3.1103 Y-0.8613 (VOLUME-WALL_OUTER-FORWARD TIP WIPE)
(BEGINNING LAYER: 25)
G01 Z1.5000 F59.0551 (TRAVEL-Lift Tip For Travel)
G00 X-1.3527 Y0.0207 (TRAVEL)
G1 Z1.2500 (TRAVEL-Lower Tip)
(TYPE:VOLUME)
M03 S75 (Turn Spindle ON)
G04 P80 (Dwell)
M03 S111 (Change Spindle Speed)
G1 F115.7480 X-2.5419 Y2.0806 (VOLUME-WALL_OUTER)
G1 X-4.9209 Y2.0806 (VOLUME-WALL_OUTER)
G1 X-6.1101 Y0.0207 (VOLUME-WALL_OUTER)
G1 X-4.9209 Y-2.0392 (VOLUME-WALL_OUTER)
G1 X-2.5419 Y-2.0392 (VOLUME-WALL_OUTER)
G1 X-1.3527 Y0.0207 (VOLUME-WALL_OUTER)
M05 (Stop Spindle)
G1 F132.2835 X-1.8527 Y0.8867 (VOLUME-WALL_OUTER-FORWARD TIP WIPE)
G01 Z1.5000 F59.0551 (TRAVEL-Lift Tip For Travel)
G00 X2.6520 Y0.0047 (TRAVEL)
G1 Z1.2500 (TRAVEL-Lower Tip)
(TYPE:VOLUME)
M03 S75 (Turn Spindle ON)
G04 P80 (Dwell)
M03 S111 (Change Spindle Speed)
G1 F115.7480 X3.3307 Y-1.1711 (VOLUME-WALL_OUTER)
G1 X4.6889 Y-1.1711 (VOLUME-WALL_OUTER)
G1 X5.3676 Y0.0047 (VOLUME-WALL_OUTER)
G1 X4.6889 Y1.1806 (VOLUME-WALL_OUTER)
G1 X3.3307 Y1.1806 (VOLUME-WALL_OUTER)
G1 X2.6520 Y0.0047 (VOLUME-WALL_OUTER)
M05 (Stop Spindle)
G1 F132.2835 X3.1519 Y-0.8613 (VOLUME-WALL_OUTER-FORWARD TIP WIPE)
(BEGINNING LAYER: 26)
G01 Z1.5500 F59.0551 (TRAVEL-Lift Tip For Travel)
G00 X-1.3527 Y0.0207 (TRAVEL)
G1 Z1.3000 (TRAVEL-Lower Tip)
(TYPE:VOLUME)
M03 S75 (Turn Spindle ON)
G04 P80 (Dwell)
M03 S111 (Change Spindle Speed)
G1 F115.7480 X-2.5419 Y2.0806 (VOLUME-WALL_OUTER)
G1 X-4.9209 Y2.0806 (VOLUME-WALL_OUTER)
G1 X-6.1101 Y0.0207 (VOLUME-WALL_OUTER)
G1 X-4.9209 Y-2.0392 (VOLUME-WALL_OUTER)
G1 X-2.5419 Y-2.0392 (VOLUME-WALL_OUTER)
G1 X-1.3527 Y0.0207 (VOLUME-WALL_OUTER)
M05 (Stop Spindle)
G1 F132.2835 X-1.8527 Y0.8867 (VOLUME-WALL_OUTER-FORWARD TIP WIPE)
G01 Z1.5500 F59.0551 (TRAVEL-Lift Tip For Travel)
G00 X2.6936 Y0.0047 (TRAVEL)
G1 Z1.3000 (TRAVEL-Lower Tip)
(TYPE:VOLUME)
M03 S75 (Turn Spindle ON)
G04 P80 (Dwell)
M03 S111 (Change Spindle Speed)
G1 F115.7480 X3.3516 Y-1.1350 (VOLUME-WALL_OUTER)
G1 X4.6680 Y-1.1350 (VOLUME-WALL_OUTER)
G1 X5.3260 Y0.0047 (VOLUME-WALL_OUTER)
G1 X4.6680 Y1.1445 (VOLUME-WALL_OUTER)
G1 X3.3516 Y1.1445 (VOLUME-WALL_OUTER)
G1 X2.6936 Y0.0047 (VOLUME-WALL_OUTER)
M05 (Stop Spindle)
G1 F132.2835 X3.1936 Y-0.8614 (VOLUME-WALL_OUTER-FORWARD TIP WIPE)
(BEGINNING LAYER: 27)
G01 Z1.6000 F59.0551 (TRAVEL-Lift Tip For Travel)
G00 X-1.3527 Y0.0207 (TRAVEL)
G1 Z1.3500 (TRAVEL-Lower Tip)
(TYPE:VOLUME)
M03 S75 (Turn Spindle ON)
G04 P80 (Dwell)
M03 S111 (Change Spindle Speed)
G1 F115.7480 X-2.5419 Y2.0806 (VOLUME-WALL_OUTER)
G1 X-4.9209 Y2.0806 (VOLUME-WALL_OUTER)
G1 X-6.1101 Y0.0207 (VOLUME-WALL_OUTER)
G1 X-4.9209 Y-2.0392 (VOLUME-WALL_OUTER)
G1 X-2.5419 Y-2.0392 (VOLUME-WALL_OUTER)
G1 X-1.3527 Y0.0207 (VOLUME-WALL_OUTER)
M05 (Stop Spindle)
G1 F132.2835 X-1.8527 Y0.8867 (VOLUME-WALL_OUTER-FORWARD TIP WIPE)
G01 Z1.6000 F59.0551 (TRAVEL-Lift Tip For Travel)
G00 X2.7353 Y0.0047 (TRAVEL)
G1 Z1.3500 (TRAVEL-Lower Tip)
(TYPE:VOLUME)
M03 S75 (Turn Spindle ON)
G04 P80 (Dwell)
M03 S111 (Change Spindle Speed)
G1 F115.7480 X3.3724 Y-1.0989 (VOLUME-WALL_OUTER)
G1 X4.6472 Y-1.0989 (VOLUME-WALL_OUTER)
G1 X5.2843 Y0.0047 (VOLUME-WALL_OUTER)
G1 X4.6472 Y1.1084 (VOLUME-WALL_OUTER)
G1 X3.3724 Y1.1084 (VOLUME-WALL_OUTER)
G1 X2.7353 Y0.0047 (VOLUME-WALL_OUTER)
M05 (Stop Spindle)
G1 F132.2835 X3.2353 Y-0.8614 (VOLUME-WALL_OUTER-FORWARD TIP WIPE)
(BEGINNING LAYER: 28)
G01 Z1.6500 F59.0551 (TRAVEL-Lift Tip For Travel)
G00 X-1.3527 Y0.0207 (TRAVEL)
G1 Z1.4000 (TRAVEL-Lower Tip)
(TYPE:VOLUME)
M03 S75 (Turn Spindle ON)
G04 P80 (Dwell)
M03 S111 (Change Spindle Speed)
G1 F115.7480 X-2.5419 Y2.0806 (VOLUME-WALL_OUTER)
G1 X-4.9209 Y2.0806 (VOLUME-WALL_OUTER)
G1 X-6.1101 Y0.0207 (VOLUME-WALL_OUTER)
G1 X-4.9209 Y-2.0392 (VOLUME-WALL_OUTER)
G1 X-2.5419 Y-2.0392 (VOLUME-WALL_OUTER)
G1 X-1.3527 Y0.0207 (VOLUME-WALL_OUTER)
M05 (Stop Spindle)
G1 F132.2835 X-1.8527 Y0.8867 (VOLUME-WALL_OUTER-FORWARD TIP WIPE)
G01 Z1.6500 F59.0551 (TRAVEL-Lift Tip For Travel)
G00 X2.7770 Y0.0047 (TRAVEL)
G1 Z1.4000 (TRAVEL-Lower Tip)
(TYPE:VOLUME)
M03 S75 (Turn Spindle ON)
G04 P80 (Dwell)
M03 S111 (Change Spindle Speed)
G1 F115.7480 X3.3933 Y-1.0628 (VOLUME-WALL_OUTER)
G1 X4.6263 Y-1.0628 (VOLUME-WALL_OUTER)
G1 X5.2426 Y0.0047 (VOLUME-WALL_OUTER)
G1 X4.6263 Y1.0723 (VOLUME-WALL_OUTER)
G1 X3.3933 Y1.0723 (VOLUME-WALL_OUTER)
G1 X2.7770 Y0.0047 (VOLUME-WALL_OUTER)
M05 (Stop Spindle)
G1 F132.2835 X3.2770 Y-0.8613 (VOLUME-WALL_OUTER-FORWARD TIP WIPE)
(BEGINNING LAYER: 29)
G01 Z1.7000 F59.0551 (TRAVEL-Lift Tip For Travel)
G00 X-1.3527 Y0.0207 (TRAVEL)
G1 Z1.4500 (TRAVEL-Lower Tip)
(TYPE:VOLUME)
M03 S75 (Turn Spindle ON)
G04 P80 (Dwell)
M03 S111 (Change Spindle Speed)
G1 F115.7480 X-2.5419 Y2.0806 (VOLUME-WALL_OUTER)
G1 X-4.9209 Y2.0806 (VOLUME-WALL_OUTER)
G1 X-6.1101 Y0.0207 (VOLUME-WALL_OUTER)
G1 X-4.9209 Y-2.0392 (VOLUME-WALL_OUTER)
G1 X-2.5419 Y-2.0392 (VOLUME-WALL_OUTER)
G1 X-1.3527 Y0.0207 (VOLUME-WALL_OUTER)
M05 (Stop Spindle)
G1 F132.2835 X-1.8527 Y0.8867 (VOLUME-WALL_OUTER-FORWARD TIP WIPE)
G01 Z1.7000 F59.0551 (TRAVEL-Lift Tip For Travel)
G00 X2.8186 Y0.0047 (TRAVEL)
G1 Z1.4500 (TRAVEL-Lower Tip)
(TYPE:VOLUME)
M03 S75 (Turn Spindle ON)
G04 P80 (Dwell)
M03 S111 (Change Spindle Speed)
G1 F115.7480 X3.4141 Y-1.0268 (VOLUME-WALL_OUTER)
G1 X4.6055 Y-1.0268 (VOLUME-WALL_OUTER)
G1 X5.2010 Y0.0047 (VOLUME-WALL_OUTER)
G1 X4.6055 Y1.0363 (VOLUME-WALL_OUTER)
G1 X3.4141 Y1.0363 (VOLUME-WALL_OUTER)
G1 X2.8186 Y0.0047 (VOLUME-WALL_OUTER)
M05 (Stop Spindle)
G1 F132.2835 X3.3186 Y-0.8613 (VOLUME-WALL_OUTER-FORWARD TIP WIPE)
(BEGINNING LAYER: 30)
G01 Z1.7500 F59.0551 (TRAVEL-Lift Tip For Travel)
G00 X-1.3527 Y0.0207 (TRAVEL)
G1 Z1.5000 (TRAVEL-Lower Tip)
(TYPE:VOLUME)
M03 S75 (Turn Spindle ON)
G04 P80 (Dwell)
M03 S111 (Change Spindle Speed)
G1 F115.7480 X-2.5419 Y2.0806 (VOLUME-WALL_OUTER)
G1 X-4.9209 Y2.0806 (VOLUME-WALL_OUTER)
G1 X-6.1101 Y0.0207 (VOLUME-WALL_OUTER)
G1 X-4.9209 Y-2.0392 (VOLUME-WALL_OUTER)
G1 X-2.5419 Y-2.0392 (VOLUME-WALL_OUTER)
G1 X-1.3527 Y0.0207 (VOLUME-WALL_OUTER)
M05 (Stop Spindle)
G1 F132.2835 X-1.8527 Y0.8867 (VOLUME-WALL_OUTER-FORWARD TIP WIPE)
G01 Z1.7500 F59.0551 (TRAVEL-Lift Tip For Travel)
G00 X2.8604 Y0.0048 (TRAVEL)
G1 Z1.5000 (TRAVEL-Lower Tip)
(TYPE:VOLUME)
M03 S75 (Turn Spindle ON)
G04 P80 (Dwell)
M03 S111 (Change Spindle Speed)
G1 F115.7480 X3.4352 Y-0.9907 (VOLUME-WALL_OUTER)
G1 X4.5844 Y-0.9907 (VOLUME-WALL_OUTER)
G1 X5.1593 Y0.0048 (VOLUME-WALL_OUTER)
G1 X4.5847 Y1.0002 (VOLUME-WALL_OUTER)
G1 X3.4349 Y1.0002 (VOLUME-WALL_OUTER)
G1 X2.8604 Y0.0048 (VOLUME-WALL_OUTER)
M05 (Stop Spindle)
G1 F132.2835 X3.3604 Y-0.8612 (VOLUME-WALL_OUTER-FORWARD TIP WIPE)
(BEGINNING LAYER: 31)
G01 Z1.8000 F59.0551 (TRAVEL-Lift Tip For Travel)
G00 X-1.3527 Y0.0207 (TRAVEL)
G1 Z1.5500 (TRAVEL-Lower Tip)
(TYPE:VOLUME)
M03 S75 (Turn Spindle ON)
G04 P80 (Dwell)
M03 S111 (Change Spindle Speed)
G1 F115.7480 X-2.5419 Y2.0806 (VOLUME-WALL_OUTER)
G1 X-4.9209 Y2.0806 (VOLUME-WALL_OUTER)
G1 X-6.1101 Y0.0207 (VOLUME-WALL_OUTER)
G1 X-4.9209 Y-2.0392 (VOLUME-WALL_OUTER)
G1 X-2.5419 Y-2.0392 (VOLUME-WALL_OUTER)
G1 X-1.3527 Y0.0207 (VOLUME-WALL_OUTER)
M05 (Stop Spindle)
G1 F132.2835 X-1.8527 Y0.8867 (VOLUME-WALL_OUTER-FORWARD TIP WIPE)
G01 Z1.8000 F59.0551 (TRAVEL-Lift Tip For Travel)
G00 X2.9020 Y0.0047 (TRAVEL)
G1 Z1.5500 (TRAVEL-Lower Tip)
(TYPE:VOLUME)
M03 S75 (Turn Spindle ON)
G04 P80 (Dwell)
M03 S111 (Change Spindle Speed)
G1 F115.7480 X3.4557 Y-0.9546 (VOLUME-WALL_OUTER)
G1 X4.5639 Y-0.9546 (VOLUME-WALL_OUTER)
G1 X5.1176 Y0.0047 (VOLUME-WALL_OUTER)
G1 X4.5639 Y0.9641 (VOLUME-WALL_OUTER)
G1 X3.4557 Y0.9641 (VOLUME-WALL_OUTER)
G1 X2.9020 Y0.0047 (VOLUME-WALL_OUTER)
M05 (Stop Spindle)
G1 F132.2835 X3.4019 Y-0.8614 (VOLUME-WALL_OUTER-FORWARD TIP WIPE)
(BEGINNING LAYER: 32)
G01 Z1.8500 F59.0551 (TRAVEL-Lift Tip For Travel)
G00 X-1.3527 Y0.0207 (TRAVEL)
G1 Z1.6000 (TRAVEL-Lower Tip)
(TYPE:VOLUME)
M03 S75 (Turn Spindle ON)
G04 P80 (Dwell)
M03 S111 (Change Spindle Speed)
G1 F115.7480 X-2.5419 Y2.0806 (VOLUME-WALL_OUTER)
G1 X-4.9209 Y2.0806 (VOLUME-WALL_OUTER)
G1 X-6.1101 Y0.0207 (VOLUME-WALL_OUTER)
G1 X-4.9209 Y-2.0392 (VOLUME-WALL_OUTER)
G1 X-2.5419 Y-2.0392 (VOLUME-WALL_OUTER)
G1 X-1.3527 Y0.0207 (VOLUME-WALL_OUTER)
M05 (Stop Spindle)
G1 F132.2835 X-1.8527 Y0.8867 (VOLUME-WALL_OUTER-FORWARD TIP WIPE)
G01 Z1.8500 F59.0551 (TRAVEL-Lift Tip For Travel)
G00 X2.9436 Y0.0047 (TRAVEL)
G1 Z1.6000 (TRAVEL-Lower Tip)
(TYPE:VOLUME)
M03 S75 (Turn Spindle ON)
G04 P80 (Dwell)
M03 S111 (Change Spindle Speed)
G1 F115.7480 X3.4766 Y-0.9185 (VOLUME-WALL_OUTER)
G1 X4.5430 Y-0.9185 (VOLUME-WALL_OUTER)
G1 X5.0760 Y0.0047 (VOLUME-WALL_OUTER)
G1 X4.5430 Y0.9280 (VOLUME-WALL_OUTER)
G1 X3.4766 Y0.9280 (VOLUME-WALL_OUTER)
G1 X2.9436 Y0.0047 (VOLUME-WALL_OUTER)
M05 (Stop Spindle)
G1 F132.2835 X3.4436 Y-0.8614 (VOLUME-WALL_OUTER-FORWARD TIP WIPE)
(BEGINNING LAYER: 33)
G01 Z1.9000 F59.0551 (TRAVEL-Lift Tip For Travel)
G00 X-1.3527 Y0.0207 (TRAVEL)
G1 Z1.6500 (TRAVEL-Lower Tip)
(TYPE:VOLUME)
M03 S75 (Turn Spindle ON)
G04 P80 (Dwell)
M03 S111 (Change Spindle Speed)
G1 F115.7480 X-2.5419 Y2.0806 (VOLUME-WALL_OUTER)
G1 X-4.9209 Y2.0806 (VOLUME-WALL_OUTER)
G1 X-6.1101 Y0.0207 (VOLUME-WALL_OUTER)
G1 X-4.9209 Y-2.0392 (VOLUME-WALL_OUTER)
G1 X-2.5419 Y-2.0392 (VOLUME-WALL_OUTER)
G1 X-1.3527 Y0.0207 (VOLUME-WALL_OUTER)
M05 (Stop Spindle)
G1 F132.2835 X-1.8527 Y0.8867 (VOLUME-WALL_OUTER-FORWARD TIP WIPE)
G01 Z1.9000 F59.0551 (TRAVEL-Lift Tip For Travel)
G00 X2.9853 Y0.0047 (TRAVEL)
G1 Z1.6500 (TRAVEL-Lower Tip)
(TYPE:VOLUME)
M03 S75 (Turn Spindle ON)
G04 P80 (Dwell)
M03 S111 (Change Spindle Speed)
G1 F115.7480 X3.4974 Y-0.8824 (VOLUME-WALL_OUTER)
G1 X4.5222 Y-0.8824 (VOLUME-WALL_OUTER)
G1 X5.0343 Y0.0047 (VOLUME-WALL_OUTER)
G1 X4.5222 Y0.8919 (VOLUME-WALL_OUTER)
G1 X3.4974 Y0.8919 (VOLUME-WALL_OUTER)
G1 X2.9853 Y0.0047 (VOLUME-WALL_OUTER)
M05 (Stop Spindle)
G1 F132.2835 X3.4852 Y-0.8613 (VOLUME-WALL_OUTER-FORWARD TIP WIPE)
(BEGINNING LAYER: 34)
G01 Z1.9500 F59.0551 (TRAVEL-Lift Tip For Travel)
G00 X-1.3527 Y0.0207 (TRAVEL)
G1 Z1.7000 (TRAVEL-Lower Tip)
(TYPE:VOLUME)
M03 S75 (Turn Spindle ON)
G04 P80 (Dwell)
M03 S111 (Change Spindle Speed)
G1 F115.7480 X-2.5419 Y2.0806 (VOLUME-WALL_OUTER)
G1 X-4.9209 Y2.0806 (VOLUME-WALL_OUTER)
G1 X-6.1101 Y0.0207 (VOLUME-WALL_OUTER)
G1 X-4.9209 Y-2.0392 (VOLUME-WALL_OUTER)
G1 X-2.5419 Y-2.0392 (VOLUME-WALL_OUTER)
G1 X-1.3527 Y0.0207 (VOLUME-WALL_OUTER)
M05 (Stop Spindle)
G1 F132.2835 X-1.8527 Y0.8867 (VOLUME-WALL_OUTER-FORWARD TIP WIPE)
G01 Z1.9500 F59.0551 (TRAVEL-Lift Tip For Travel)
G00 X3.0270 Y0.0047 (TRAVEL)
G1 Z1.7000 (TRAVEL-Lower Tip)
(TYPE:VOLUME)
M03 S75 (Turn Spindle ON)
G04 P80 (Dwell)
M03 S111 (Change Spindle Speed)
G1 F115.7480 X3.5183 Y-0.8463 (VOLUME-WALL_OUTER)
G1 X4.5013 Y-0.8463 (VOLUME-WALL_OUTER)
G1 X4.9926 Y0.0047 (VOLUME-WALL_OUTER)
G1 X4.5013 Y0.8558 (VOLUME-WALL_OUTER)
G1 X3.5183 Y0.8558 (VOLUME-WALL_OUTER)
G1 X3.0270 Y0.0047 (VOLUME-WALL_OUTER)
M05 (Stop Spindle)
G1 F132.2835 X3.5183 Y-0.8463 (VOLUME-WALL_OUTER-FORWARD TIP WIPE)
G1 X3.5356 Y-0.8463 (VOLUME-WALL_OUTER-FORWARD TIP WIPE)
(BEGINNING LAYER: 35)
G01 Z2.0000 F59.0551 (TRAVEL-Lift Tip For Travel)
G00 X-1.3527 Y0.0207 (TRAVEL)
G1 Z1.7500 (TRAVEL-Lower Tip)
(TYPE:VOLUME)
M03 S75 (Turn Spindle ON)
G04 P80 (Dwell)
M03 S111 (Change Spindle Speed)
G1 F115.7480 X-2.5419 Y2.0806 (VOLUME-WALL_OUTER)
G1 X-4.9209 Y2.0806 (VOLUME-WALL_OUTER)
G1 X-6.1101 Y0.0207 (VOLUME-WALL_OUTER)
G1 X-4.9209 Y-2.0392 (VOLUME-WALL_OUTER)
G1 X-2.5419 Y-2.0392 (VOLUME-WALL_OUTER)
G1 X-1.3527 Y0.0207 (VOLUME-WALL_OUTER)
M05 (Stop Spindle)
G1 F132.2835 X-1.8527 Y0.8867 (VOLUME-WALL_OUTER-FORWARD TIP WIPE)
G01 Z2.0000 F59.0551 (TRAVEL-Lift Tip For Travel)
G00 X3.0686 Y0.0047 (TRAVEL)
G1 Z1.7500 (TRAVEL-Lower Tip)
(TYPE:VOLUME)
M03 S75 (Turn Spindle ON)
G04 P80 (Dwell)
M03 S111 (Change Spindle Speed)
G1 F115.7480 X3.5391 Y-0.8103 (VOLUME-WALL_OUTER)
G1 X4.4805 Y-0.8103 (VOLUME-WALL_OUTER)
G1 X4.9510 Y0.0047 (VOLUME-WALL_OUTER)
G1 X4.4805 Y0.8198 (VOLUME-WALL_OUTER)
G1 X3.5391 Y0.8198 (VOLUME-WALL_OUTER)
G1 X3.0686 Y0.0047 (VOLUME-WALL_OUTER)
M05 (Stop Spindle)
G1 F132.2835 X3.5391 Y-0.8103 (VOLUME-WALL_OUTER-FORWARD TIP WIPE)
G1 X3.5981 Y-0.8103 (VOLUME-WALL_OUTER-FORWARD TIP WIPE)
(BEGINNING LAYER: 36)
G01 Z2.0500 F59.0551 (TRAVEL-Lift Tip For Travel)
G00 X-1.3527 Y0.0207 (TRAVEL)
G1 Z1.8000 (TRAVEL-Lower Tip)
(TYPE:VOLUME)
M03 S75 (Turn Spindle ON)
G04 P80 (Dwell)
M03 S111 (Change Spindle Speed)
G1 F115.7480 X-2.5419 Y2.0806 (VOLUME-WALL_OUTER)
G1 X-4.9209 Y2.0806 (VOLUME-WALL_OUTER)
G1 X-6.1101 Y0.0207 (VOLUME-WALL_OUTER)
G1 X-4.9209 Y-2.0392 (VOLUME-WALL_OUTER)
G1 X-2.5419 Y-2.0392 (VOLUME-WALL_OUTER)
G1 X-1.3527 Y0.0207 (VOLUME-WALL_OUTER)
M05 (Stop Spindle)
G1 F132.2835 X-1.8527 Y0.8867 (VOLUME-WALL_OUTER-FORWARD TIP WIPE)
G01 Z2.0500 F59.0551 (TRAVEL-Lift Tip For Travel)
G00 X3.1104 Y0.0048 (TRAVEL)
G1 Z1.8000 (TRAVEL-Lower Tip)
(TYPE:VOLUME)
M03 S75 (Turn Spindle ON)
G04 P80 (Dwell)
M03 S111 (Change Spindle Speed)
G1 F115.7480 X3.5602 Y-0.7742 (VOLUME-WALL_OUTER)
G1 X4.4594 Y-0.7742 (VOLUME-WALL_OUTER)
G1 X4.9093 Y0.0048 (VOLUME-WALL_OUTER)
G1 X4.4597 Y0.7837 (VOLUME-WALL_OUTER)
G1 X3.5599 Y0.7837 (VOLUME-WALL_OUTER)
G1 X3.1104 Y0.0048 (VOLUME-WALL_OUTER)
M05 (Stop Spindle)
G1 F132.2835 X3.5602 Y-0.7742 (VOLUME-WALL_OUTER-FORWARD TIP WIPE)
G1 X3.6607 Y-0.7742 (VOLUME-WALL_OUTER-FORWARD TIP WIPE)
(BEGINNING LAYER: 37)
G01 Z2.1000 F59.0551 (TRAVEL-Lift Tip For Travel)
G00 X-1.3527 Y0.0207 (TRAVEL)
G1 Z1.8500 (TRAVEL-Lower Tip)
(TYPE:VOLUME)
M03 S75 (Turn Spindle ON)
G04 P80 (Dwell)
M03 S111 (Change Spindle Speed)
G1 F115.7480 X-2.5419 Y2.0806 (VOLUME-WALL_OUTER)
G1 X-4.9209 Y2.0806 (VOLUME-WALL_OUTER)
G1 X-6.1101 Y0.0207 (VOLUME-WALL_OUTER)
G1 X-4.9209 Y-2.0392 (VOLUME-WALL_OUTER)
G1 X-2.5419 Y-2.0392 (VOLUME-WALL_OUTER)
G1 X-1.3527 Y0.0207 (VOLUME-WALL_OUTER)
M05 (Stop Spindle)
G1 F132.2835 X-1.8527 Y0.8867 (VOLUME-WALL_OUTER-FORWARD TIP WIPE)
G01 Z2.1000 F59.0551 (TRAVEL-Lift Tip For Travel)
G00 X3.1519 Y0.0047 (TRAVEL)
G1 Z1.8500 (TRAVEL-Lower Tip)
(TYPE:VOLUME)
M03 S75 (Turn Spindle ON)
G04 P80 (Dwell)
M03 S111 (Change Spindle Speed)
G1 F115.7480 X3.5807 Y-0.7381 (VOLUME-WALL_OUTER)
G1 X4.4389 Y-0.7381 (VOLUME-WALL_OUTER)
G1 X4.8677 Y0.0047 (VOLUME-WALL_OUTER)
G1 X4.4389 Y0.7476 (VOLUME-WALL_OUTER)
G1 X3.5807 Y0.7476 (VOLUME-WALL_OUTER)
G1 X3.1519 Y0.0047 (VOLUME-WALL_OUTER)
M05 (Stop Spindle)
G1 F132.2835 X3.5807 Y-0.7381 (VOLUME-WALL_OUTER-FORWARD TIP WIPE)
G1 X3.7230 Y-0.7381 (VOLUME-WALL_OUTER-FORWARD TIP WIPE)
(BEGINNING LAYER: 38)
G01 Z2.1500 F59.0551 (TRAVEL-Lift Tip For Travel)
G00 X-1.3527 Y0.0207 (TRAVEL)
G1 Z1.9000 (TRAVEL-Lower Tip)
(TYPE:VOLUME)
M03 S75 (Turn Spindle ON)
G04 P80 (Dwell)
M03 S111 (Change Spindle Speed)
G1 F115.7480 X-2.5419 Y2.0806 (VOLUME-WALL_OUTER)
G1 X-4.9209 Y2.0806 (VOLUME-WALL_OUTER)
G1 X-6.1101 Y0.0207 (VOLUME-WALL_OUTER)
G1 X-4.9209 Y-2.0392 (VOLUME-WALL_OUTER)
G1 X-2.5419 Y-2.0392 (VOLUME-WALL_OUTER)
G1 X-1.3527 Y0.0207 (VOLUME-WALL_OUTER)
M05 (Stop Spindle)
G1 F132.2835 X-1.8527 Y0.8867 (VOLUME-WALL_OUTER-FORWARD TIP WIPE)
G01 Z2.1500 F59.0551 (TRAVEL-Lift Tip For Travel)
G00 X3.1936 Y0.0047 (TRAVEL)
G1 Z1.9000 (TRAVEL-Lower Tip)
(TYPE:VOLUME)
M03 S75 (Turn Spindle ON)
G04 P80 (Dwell)
M03 S111 (Change Spindle Speed)
G1 F115.7480 X3.6016 Y-0.7020 (VOLUME-WALL_OUTER)
G1 X4.4180 Y-0.7020 (VOLUME-WALL_OUTER)
G1 X4.8260 Y0.0047 (VOLUME-WALL_OUTER)
G1 X4.4180 Y0.7115 (VOLUME-WALL_OUTER)
G1 X3.6016 Y0.7115 (VOLUME-WALL_OUTER)
G1 X3.1936 Y0.0047 (VOLUME-WALL_OUTER)
M05 (Stop Spindle)
G1 F132.2835 X3.6016 Y-0.7020 (VOLUME-WALL_OUTER-FORWARD TIP WIPE)
G1 X3.7856 Y-0.7020 (VOLUME-WALL_OUTER-FORWARD TIP WIPE)
(BEGINNING LAYER: 39)
G01 Z2.2000 F59.0551 (TRAVEL-Lift Tip For Travel)
G00 X-1.3527 Y0.0207 (TRAVEL)
G1 Z1.9500 (TRAVEL-Lower Tip)
(TYPE:VOLUME)
M03 S75 (Turn Spindle ON)
G04 P80 (Dwell)
M03 S111 (Change Spindle Speed)
G1 F115.7480 X-2.5419 Y2.0806 (VOLUME-WALL_OUTER)
G1 X-4.9209 Y2.0806 (VOLUME-WALL_OUTER)
G1 X-6.1101 Y0.0207 (VOLUME-WALL_OUTER)
G1 X-4.9209 Y-2.0392 (VOLUME-WALL_OUTER)
G1 X-2.5419 Y-2.0392 (VOLUME-WALL_OUTER)
G1 X-1.3527 Y0.0207 (VOLUME-WALL_OUTER)
M05 (Stop Spindle)
G1 F132.2835 X-1.8527 Y0.8867 (VOLUME-WALL_OUTER-FORWARD TIP WIPE)
G01 Z2.2000 F59.0551 (TRAVEL-Lift Tip For Travel)
G00 X3.2353 Y0.0047 (TRAVEL)
G1 Z1.9500 (TRAVEL-Lower Tip)
(TYPE:VOLUME)
M03 S75 (Turn Spindle ON)
G04 P80 (Dwell)
M03 S111 (Change Spindle Speed)
G1 F115.7480 X3.6224 Y-0.6659 (VOLUME-WALL_OUTER)
G1 X4.3972 Y-0.6659 (VOLUME-WALL_OUTER)
G1 X4.7843 Y0.0047 (VOLUME-WALL_OUTER)
G1 X4.3972 Y0.6754 (VOLUME-WALL_OUTER)
G1 X3.6224 Y0.6754 (VOLUME-WALL_OUTER)
G1 X3.2353 Y0.0047 (VOLUME-WALL_OUTER)
M05 (Stop Spindle)
G1 F132.2835 X3.6224 Y-0.6659 (VOLUME-WALL_OUTER-FORWARD TIP WIPE)
G1 X3.8480 Y-0.6659 (VOLUME-WALL_OUTER-FORWARD TIP WIPE)
(BEGINNING LAYER: 40)
G01 Z2.2500 F59.0551 (TRAVEL-Lift Tip For Travel)
G00 X-1.3527 Y0.0207 (TRAVEL)
G1 Z2.0000 (TRAVEL-Lower Tip)
(TYPE:VOLUME)
M03 S75 (Turn Spindle ON)
G04 P80 (Dwell)
M03 S111 (Change Spindle Speed)
G1 F115.7480 X-2.5419 Y2.0806 (VOLUME-WALL_OUTER)
G1 X-4.9209 Y2.0806 (VOLUME-WALL_OUTER)
G1 X-6.1101 Y0.0207 (VOLUME-WALL_OUTER)
G1 X-4.9209 Y-2.0392 (VOLUME-WALL_OUTER)
G1 X-2.5419 Y-2.0392 (VOLUME-WALL_OUTER)
G1 X-1.3527 Y0.0207 (VOLUME-WALL_OUTER)
M05 (Stop Spindle)
G1 F132.2835 X-1.8527 Y0.8867 (VOLUME-WALL_OUTER-FORWARD TIP WIPE)
G01 Z2.2500 F59.0551 (TRAVEL-Lift Tip For Travel)
G00 X3.2770 Y0.0047 (TRAVEL)
G1 Z2.0000 (TRAVEL-Lower Tip)
(TYPE:VOLUME)
M03 S75 (Turn Spindle ON)
G04 P80 (Dwell)
M03 S111 (Change Spindle Speed)
G1 F115.7480 X3.6433 Y-0.6298 (VOLUME-WALL_OUTER)
G1 X4.3763 Y-0.6298 (VOLUME-WALL_OUTER)
G1 X4.7426 Y0.0047 (VOLUME-WALL_OUTER)
G1 X4.3763 Y0.6393 (VOLUME-WALL_OUTER)
G1 X3.6433 Y0.6393 (VOLUME-WALL_OUTER)
G1 X3.2770 Y0.0047 (VOLUME-WALL_OUTER)
M05 (Stop Spindle)
G1 F132.2835 X3.6433 Y-0.6298 (VOLUME-WALL_OUTER-FORWARD TIP WIPE)
G1 X3.9106 Y-0.6298 (VOLUME-WALL_OUTER-FORWARD TIP WIPE)
(BEGINNING LAYER: 41)
G01 Z2.3000 F59.0551 (TRAVEL-Lift Tip For Travel)
G00 X-1.3527 Y0.0207 (TRAVEL)
G1 Z2.0500 (TRAVEL-Lower Tip)
(TYPE:VOLUME)
M03 S75 (Turn Spindle ON)
G04 P80 (Dwell)
M03 S111 (Change Spindle Speed)
G1 F115.7480 X-2.5419 Y2.0806 (VOLUME-WALL_OUTER)
G1 X-4.9209 Y2.0806 (VOLUME-WALL_OUTER)
G1 X-6.1101 Y0.0207 (VOLUME-WALL_OUTER)
G1 X-4.9209 Y-2.0392 (VOLUME-WALL_OUTER)
G1 X-2.5419 Y-2.0392 (VOLUME-WALL_OUTER)
G1 X-1.3527 Y0.0207 (VOLUME-WALL_OUTER)
M05 (Stop Spindle)
G1 F132.2835 X-1.8527 Y0.8867 (VOLUME-WALL_OUTER-FORWARD TIP WIPE)
G01 Z2.3000 F59.0551 (TRAVEL-Lift Tip For Travel)
G00 X3.3186 Y0.0047 (TRAVEL)
G1 Z2.0500 (TRAVEL-Lower Tip)
(TYPE:VOLUME)
M03 S75 (Turn Spindle ON)
G04 P80 (Dwell)
M03 S111 (Change Spindle Speed)
G1 F115.7480 X3.6641 Y-0.5938 (VOLUME-WALL_OUTER)
G1 X4.3555 Y-0.5938 (VOLUME-WALL_OUTER)
G1 X4.7010 Y0.0047 (VOLUME-WALL_OUTER)
G1 X4.3555 Y0.6032 (VOLUME-WALL_OUTER)
G1 X3.6641 Y0.6032 (VOLUME-WALL_OUTER)
G1 X3.3186 Y0.0047 (VOLUME-WALL_OUTER)
M05 (Stop Spindle)
G1 F132.2835 X3.6641 Y-0.5938 (VOLUME-WALL_OUTER-FORWARD TIP WIPE)
G1 X3.9731 Y-0.5938 (VOLUME-WALL_OUTER-FORWARD TIP WIPE)
(BEGINNING LAYER: 42)
G01 Z2.3500 F59.0551 (TRAVEL-Lift Tip For Travel)
G00 X-1.3527 Y0.0207 (TRAVEL)
G1 Z2.1000 (TRAVEL-Lower Tip)
(TYPE:VOLUME)
M03 S75 (Turn Spindle ON)
G04 P80 (Dwell)
M03 S111 (Change Spindle Speed)
G1 F115.7480 X-2.5419 Y2.0806 (VOLUME-WALL_OUTER)
G1 X-4.9209 Y2.0806 (VOLUME-WALL_OUTER)
G1 X-6.1101 Y0.0207 (VOLUME-WALL_OUTER)
G1 X-4.9209 Y-2.0392 (VOLUME-WALL_OUTER)
G1 X-2.5419 Y-2.0392 (VOLUME-WALL_OUTER)
G1 X-1.3527 Y0.0207 (VOLUME-WALL_OUTER)
M05 (Stop Spindle)
G1 F132.2835 X-1.8527 Y0.8867 (VOLUME-WALL_OUTER-FORWARD TIP WIPE)
G01 Z2.3500 F59.0551 (TRAVEL-Lift Tip For Travel)
G00 X3.3604 Y0.0048 (TRAVEL)
G1 Z2.1000 (TRAVEL-Lower Tip)
(TYPE:VOLUME)
M03 S75 (Turn Spindle ON)
G04 P80 (Dwell)
M03 S111 (Change Spindle Speed)
G1 F115.7480 X3.6851 Y-0.5577 (VOLUME-WALL_OUTER)
G1 X4.3345 Y-0.5577 (VOLUME-WALL_OUTER)
G1 X4.6593 Y0.0048 (VOLUME-WALL_OUTER)
G1 X4.3347 Y0.5672 (VOLUME-WALL_OUTER)
G1 X3.6849 Y0.5672 (VOLUME-WALL_OUTER)
G1 X3.3604 Y0.0048 (VOLUME-WALL_OUTER)
M05 (Stop Spindle)
G1 F132.2835 X3.6851 Y-0.5577 (VOLUME-WALL_OUTER-FORWARD TIP WIPE)
G1 X4.0356 Y-0.5577 (VOLUME-WALL_OUTER-FORWARD TIP WIPE)
(BEGINNING LAYER: 43)
G01 Z2.4000 F59.0551 (TRAVEL-Lift Tip For Travel)
G00 X-1.3527 Y0.0207 (TRAVEL)
G1 Z2.1500 (TRAVEL-Lower Tip)
(TYPE:VOLUME)
M03 S75 (Turn Spindle ON)
G04 P80 (Dwell)
M03 S111 (Change Spindle Speed)
G1 F115.7480 X-2.5419 Y2.0806 (VOLUME-WALL_OUTER)
G1 X-4.9209 Y2.0806 (VOLUME-WALL_OUTER)
G1 X-6.1101 Y0.0207 (VOLUME-WALL_OUTER)
G1 X-4.9209 Y-2.0392 (VOLUME-WALL_OUTER)
G1 X-2.5419 Y-2.0392 (VOLUME-WALL_OUTER)
G1 X-1.3527 Y0.0207 (VOLUME-WALL_OUTER)
M05 (Stop Spindle)
G1 F132.2835 X-1.8527 Y0.8867 (VOLUME-WALL_OUTER-FORWARD TIP WIPE)
G01 Z2.4000 F59.0551 (TRAVEL-Lift Tip For Travel)
G00 X3.4019 Y0.0047 (TRAVEL)
G1 Z2.1500 (TRAVEL-Lower Tip)
(TYPE:VOLUME)
M03 S75 (Turn Spindle ON)
G04 P80 (Dwell)
M03 S111 (Change Spindle Speed)
G1 F115.7480 X3.7057 Y-0.5216 (VOLUME-WALL_OUTER)
G1 X4.3139 Y-0.5216 (VOLUME-WALL_OUTER)
G1 X4.6177 Y0.0047 (VOLUME-WALL_OUTER)
G1 X4.3139 Y0.5311 (VOLUME-WALL_OUTER)
G1 X3.7057 Y0.5311 (VOLUME-WALL_OUTER)
G1 X3.4019 Y0.0047 (VOLUME-WALL_OUTER)
M05 (Stop Spindle)
G1 F132.2835 X3.7057 Y-0.5216 (VOLUME-WALL_OUTER-FORWARD TIP WIPE)
G1 X4.0980 Y-0.5216 (VOLUME-WALL_OUTER-FORWARD TIP WIPE)
(BEGINNING LAYER: 44)
G01 Z2.4500 F59.0551 (TRAVEL-Lift Tip For Travel)
G00 X-1.3527 Y0.0207 (TRAVEL)
G1 Z2.2000 (TRAVEL-Lower Tip)
(TYPE:VOLUME)
M03 S75 (Turn Spindle ON)
G04 P80 (Dwell)
M03 S111 (Change Spindle Speed)
G1 F115.7480 X-2.5419 Y2.0806 (VOLUME-WALL_OUTER)
G1 X-4.9209 Y2.0806 (VOLUME-WALL_OUTER)
G1 X-6.1101 Y0.0207 (VOLUME-WALL_OUTER)
G1 X-4.9209 Y-2.0392 (VOLUME-WALL_OUTER)
G1 X-2.5419 Y-2.0392 (VOLUME-WALL_OUTER)
G1 X-1.3527 Y0.0207 (VOLUME-WALL_OUTER)
M05 (Stop Spindle)
G1 F132.2835 X-1.8527 Y0.8867 (VOLUME-WALL_OUTER-FORWARD TIP WIPE)
G01 Z2.4500 F59.0551 (TRAVEL-Lift Tip For Travel)
G00 X3.4436 Y0.0047 (TRAVEL)
G1 Z2.2000 (TRAVEL-Lower Tip)
(TYPE:VOLUME)
M03 S75 (Turn Spindle ON)
G04 P80 (Dwell)
M03 S111 (Change Spindle Speed)
G1 F115.7480 X3.7266 Y-0.4855 (VOLUME-WALL_OUTER)
G1 X4.2930 Y-0.4855 (VOLUME-WALL_OUTER)
G1 X4.5760 Y0.0047 (VOLUME-WALL_OUTER)
G1 X4.2930 Y0.4950 (VOLUME-WALL_OUTER)
G1 X3.7266 Y0.4950 (VOLUME-WALL_OUTER)
G1 X3.4436 Y0.0047 (VOLUME-WALL_OUTER)
M05 (Stop Spindle)
G1 F132.2835 X3.7266 Y-0.4855 (VOLUME-WALL_OUTER-FORWARD TIP WIPE)
G1 X4.1606 Y-0.4855 (VOLUME-WALL_OUTER-FORWARD TIP WIPE)
(BEGINNING LAYER: 45)
G01 Z2.5000 F59.0551 (TRAVEL-Lift Tip For Travel)
G00 X-1.3527 Y0.0207 (TRAVEL)
G1 Z2.2500 (TRAVEL-Lower Tip)
(TYPE:VOLUME)
M03 S75 (Turn Spindle ON)
G04 P80 (Dwell)
M03 S111 (Change Spindle Speed)
G1 F115.7480 X-2.5419 Y2.0806 (VOLUME-WALL_OUTER)
G1 X-4.9209 Y2.0806 (VOLUME-WALL_OUTER)
G1 X-6.1101 Y0.0207 (VOLUME-WALL_OUTER)
G1 X-4.9209 Y-2.0392 (VOLUME-WALL_OUTER)
G1 X-2.5419 Y-2.0392 (VOLUME-WALL_OUTER)
G1 X-1.3527 Y0.0207 (VOLUME-WALL_OUTER)
M05 (Stop Spindle)
G1 F132.2835 X-1.8527 Y0.8867 (VOLUME-WALL_OUTER-FORWARD TIP WIPE)
G01 Z2.5000 F59.0551 (TRAVEL-Lift Tip For Travel)
G00 X3.4852 Y0.0047 (TRAVEL)
G1 Z2.2500 (TRAVEL-Lower Tip)
(TYPE:VOLUME)
M03 S75 (Turn Spindle ON)
G04 P80 (Dwell)
M03 S111 (Change Spindle Speed)
G1 F115.7480 X3.7474 Y-0.4494 (VOLUME-WALL_OUTER)
G1 X4.2722 Y-0.4494 (VOLUME-WALL_OUTER)
G1 X4.5344 Y0.0047 (VOLUME-WALL_OUTER)
G1 X4.2722 Y0.4589 (VOLUME-WALL_OUTER)
G1 X3.7474 Y0.4589 (VOLUME-WALL_OUTER)
G1 X3.4852 Y0.0047 (VOLUME-WALL_OUTER)
M05 (Stop Spindle)
G1 F132.2835 X3.7474 Y-0.4494 (VOLUME-WALL_OUTER-FORWARD TIP WIPE)
G1 X4.2230 Y-0.4494 (VOLUME-WALL_OUTER-FORWARD TIP WIPE)
(BEGINNING LAYER: 46)
G01 Z2.5500 F59.0551 (TRAVEL-Lift Tip For Travel)
G00 X-1.3527 Y0.0207 (TRAVEL)
G1 Z2.3000 (TRAVEL-Lower Tip)
(TYPE:VOLUME)
M03 S75 (Turn Spindle ON)
G04 P80 (Dwell)
M03 S111 (Change Spindle Speed)
G1 F115.7480 X-2.5419 Y2.0806 (VOLUME-WALL_OUTER)
G1 X-4.9209 Y2.0806 (VOLUME-WALL_OUTER)
G1 X-6.1101 Y0.0207 (VOLUME-WALL_OUTER)
G1 X-4.9209 Y-2.0392 (VOLUME-WALL_OUTER)
G1 X-2.5419 Y-2.0392 (VOLUME-WALL_OUTER)
G1 X-1.3527 Y0.0207 (VOLUME-WALL_OUTER)
M05 (Stop Spindle)
G1 F132.2835 X-1.8527 Y0.8867 (VOLUME-WALL_OUTER-FORWARD TIP WIPE)
G01 Z2.5500 F59.0551 (TRAVEL-Lift Tip For Travel)
G00 X3.5269 Y0.0047 (TRAVEL)
G1 Z2.3000 (TRAVEL-Lower Tip)
(TYPE:VOLUME)
M03 S75 (Turn Spindle ON)
G04 P80 (Dwell)
M03 S111 (Change Spindle Speed)
G1 F115.7480 X3.7683 Y-0.4133 (VOLUME-WALL_OUTER)
G1 X4.2513 Y-0.4133 (VOLUME-WALL_OUTER)
G1 X4.4927 Y0.0047 (VOLUME-WALL_OUTER)
G1 X4.2513 Y0.4228 (VOLUME-WALL_OUTER)
G1 X3.7683 Y0.4228 (VOLUME-WALL_OUTER)
G1 X3.5269 Y0.0047 (VOLUME-WALL_OUTER)
M05 (Stop Spindle)
G1 F132.2835 X3.7683 Y-0.4133 (VOLUME-WALL_OUTER-FORWARD TIP WIPE)
G1 X4.2513 Y-0.4133 (VOLUME-WALL_OUTER-FORWARD TIP WIPE)
G1 X4.2685 Y-0.3837 (VOLUME-WALL_OUTER-FORWARD TIP WIPE)
(BEGINNING LAYER: 47)
G01 Z2.6000 F59.0551 (TRAVEL-Lift Tip For Travel)
G00 X-1.3527 Y0.0207 (TRAVEL)
G1 Z2.3500 (TRAVEL-Lower Tip)
(TYPE:VOLUME)
M03 S75 (Turn Spindle ON)
G04 P80 (Dwell)
M03 S111 (Change Spindle Speed)
G1 F115.7480 X-2.5419 Y2.0806 (VOLUME-WALL_OUTER)
G1 X-4.9209 Y2.0806 (VOLUME-WALL_OUTER)
G1 X-6.1101 Y0.0207 (VOLUME-WALL_OUTER)
G1 X-4.9209 Y-2.0392 (VOLUME-WALL_OUTER)
G1 X-2.5419 Y-2.0392 (VOLUME-WALL_OUTER)
G1 X-1.3527 Y0.0207 (VOLUME-WALL_OUTER)
M05 (Stop Spindle)
G1 F132.2835 X-1.8527 Y0.8867 (VOLUME-WALL_OUTER-FORWARD TIP WIPE)
G01 Z2.6000 F59.0551 (TRAVEL-Lift Tip For Travel)
G00 X3.5687 Y0.0048 (TRAVEL)
G1 Z2.3500 (TRAVEL-Lower Tip)
(TYPE:VOLUME)
M03 S75 (Turn Spindle ON)
G04 P80 (Dwell)
M03 S111 (Change Spindle Speed)
G1 F115.7480 X3.7893 Y-0.3772 (VOLUME-WALL_OUTER)
G1 X4.2303 Y-0.3772 (VOLUME-WALL_OUTER)
G1 X4.4509 Y0.0048 (VOLUME-WALL_OUTER)
G1 X4.2305 Y0.3867 (VOLUME-WALL_OUTER)
G1 X3.7891 Y0.3867 (VOLUME-WALL_OUTER)
G1 X3.5687 Y0.0048 (VOLUME-WALL_OUTER)
M05 (Stop Spindle)
G1 F132.2835 X3.7893 Y-0.3772 (VOLUME-WALL_OUTER-FORWARD TIP WIPE)
G1 X4.2303 Y-0.3772 (VOLUME-WALL_OUTER-FORWARD TIP WIPE)
G1 X4.2893 Y-0.2751 (VOLUME-WALL_OUTER-FORWARD TIP WIPE)
(BEGINNING LAYER: 48)
G01 Z2.6500 F59.0551 (TRAVEL-Lift Tip For Travel)
G00 X-1.3527 Y0.0207 (TRAVEL)
G1 Z2.4000 (TRAVEL-Lower Tip)
(TYPE:VOLUME)
M03 S75 (Turn Spindle ON)
G04 P80 (Dwell)
M03 S111 (Change Spindle Speed)
G1 F115.7480 X-2.5419 Y2.0806 (VOLUME-WALL_OUTER)
G1 X-4.9209 Y2.0806 (VOLUME-WALL_OUTER)
G1 X-6.1101 Y0.0207 (VOLUME-WALL_OUTER)
G1 X-4.9209 Y-2.0392 (VOLUME-WALL_OUTER)
G1 X-2.5419 Y-2.0392 (VOLUME-WALL_OUTER)
G1 X-1.3527 Y0.0207 (VOLUME-WALL_OUTER)
M05 (Stop Spindle)
G1 F132.2835 X-1.8527 Y0.8867 (VOLUME-WALL_OUTER-FORWARD TIP WIPE)
G01 Z2.6500 F59.0551 (TRAVEL-Lift Tip For Travel)
G00 X3.6104 Y0.0047 (TRAVEL)
G1 Z2.4000 (TRAVEL-Lower Tip)
(TYPE:VOLUME)
M03 S75 (Turn Spindle ON)
G04 P80 (Dwell)
M03 S111 (Change Spindle Speed)
G1 F115.7480 X3.8102 Y-0.3412 (VOLUME-WALL_OUTER)
G1 X4.2094 Y-0.3412 (VOLUME-WALL_OUTER)
G1 X4.4093 Y0.0047 (VOLUME-WALL_OUTER)
G1 X4.2094 Y0.3506 (VOLUME-WALL_OUTER)
G1 X3.8102 Y0.3506 (VOLUME-WALL_OUTER)
G1 X3.6104 Y0.0047 (VOLUME-WALL_OUTER)
M05 (Stop Spindle)
G1 F132.2835 X3.8102 Y-0.3412 (VOLUME-WALL_OUTER-FORWARD TIP WIPE)
G1 X4.2094 Y-0.3412 (VOLUME-WALL_OUTER-FORWARD TIP WIPE)
G1 X4.3102 Y-0.1669 (VOLUME-WALL_OUTER-FORWARD TIP WIPE)
(BEGINNING LAYER: 49)
G01 Z2.7000 F59.0551 (TRAVEL-Lift Tip For Travel)
G00 X-1.3527 Y0.0207 (TRAVEL)
G1 Z2.4500 (TRAVEL-Lower Tip)
(TYPE:VOLUME)
M03 S75 (Turn Spindle ON)
G04 P80 (Dwell)
M03 S111 (Change Spindle Speed)
G1 F115.7480 X-2.5419 Y2.0806 (VOLUME-WALL_OUTER)
G1 X-4.9209 Y2.0806 (VOLUME-WALL_OUTER)
G1 X-6.1101 Y0.0207 (VOLUME-WALL_OUTER)
G1 X-4.9209 Y-2.0392 (VOLUME-WALL_OUTER)
G1 X-2.5419 Y-2.0392 (VOLUME-WALL_OUTER)
G1 X-1.3527 Y0.0207 (VOLUME-WALL_OUTER)
M05 (Stop Spindle)
G1 F132.2835 X-1.8527 Y0.8867 (VOLUME-WALL_OUTER-FORWARD TIP WIPE)
G01 Z2.7000 F59.0551 (TRAVEL-Lift Tip For Travel)
G00 X3.6520 Y0.0047 (TRAVEL)
G1 Z2.4500 (TRAVEL-Lower Tip)
(TYPE:VOLUME)
M03 S75 (Turn Spindle ON)
G04 P80 (Dwell)
M03 S111 (Change Spindle Speed)
G1 F115.7480 X3.8307 Y-0.3051 (VOLUME-WALL_OUTER)
G1 X4.1889 Y-0.3051 (VOLUME-WALL_OUTER)
G1 X4.3676 Y0.0047 (VOLUME-WALL_OUTER)
G1 X4.1888 Y0.3146 (VOLUME-WALL_OUTER)
G1 X3.8308 Y0.3146 (VOLUME-WALL_OUTER)
G1 X3.6520 Y0.0047 (VOLUME-WALL_OUTER)
M05 (Stop Spindle)
G1 F132.2835 X3.8307 Y-0.3051 (VOLUME-WALL_OUTER-FORWARD TIP WIPE)
G1 X4.1889 Y-0.3051 (VOLUME-WALL_OUTER-FORWARD TIP WIPE)
G1 X4.3310 Y-0.0589 (VOLUME-WALL_OUTER-FORWARD TIP WIPE)
(BEGINNING LAYER: 50)
G01 Z2.7500 F59.0551 (TRAVEL-Lift Tip For Travel)
G00 X-1.3527 Y0.0207 (TRAVEL)
G1 Z2.5000 (TRAVEL-Lower Tip)
(TYPE:VOLUME)
M03 S75 (Turn Spindle ON)
G04 P80 (Dwell)
M03 S111 (Change Spindle Speed)
G1 F115.7480 X-2.5419 Y2.0806 (VOLUME-WALL_OUTER)
G1 X-4.9209 Y2.0806 (VOLUME-WALL_OUTER)
G1 X-6.1101 Y0.0207 (VOLUME-WALL_OUTER)
G1 X-4.9209 Y-2.0392 (VOLUME-WALL_OUTER)
G1 X-2.5419 Y-2.0392 (VOLUME-WALL_OUTER)
G1 X-1.3527 Y0.0207 (VOLUME-WALL_OUTER)
M05 (Stop Spindle)
G1 F132.2835 X-1.8527 Y0.8867 (VOLUME-WALL_OUTER-FORWARD TIP WIPE)
G01 Z2.7500 F59.0551 (TRAVEL-Lift Tip For Travel)
G00 X3.6936 Y0.0047 (TRAVEL)
G1 Z2.5000 (TRAVEL-Lower Tip)
(TYPE:VOLUME)
M03 S75 (Turn Spindle ON)
G04 P80 (Dwell)
M03 S111 (Change Spindle Speed)
G1 F115.7480 X3.8516 Y-0.2690 (VOLUME-WALL_OUTER)
G1 X4.1680 Y-0.2690 (VOLUME-WALL_OUTER)
G1 X4.3260 Y0.0047 (VOLUME-WALL_OUTER)
G1 X4.1680 Y0.2785 (VOLUME-WALL_OUTER)
G1 X3.8516 Y0.2785 (VOLUME-WALL_OUTER)
G1 X3.6936 Y0.0047 (VOLUME-WALL_OUTER)
M05 (Stop Spindle)
G1 F132.2835 X3.8516 Y-0.2690 (VOLUME-WALL_OUTER-FORWARD TIP WIPE)
G1 X4.1680 Y-0.2690 (VOLUME-WALL_OUTER-FORWARD TIP WIPE)
G1 X4.3260 Y0.0047 (VOLUME-WALL_OUTER-FORWARD TIP WIPE)
G1 X4.3002 Y0.0494 (VOLUME-WALL_OUTER-FORWARD TIP WIPE)
(BEGINNING LAYER: 51)
G01 Z2.8000 F59.0551 (TRAVEL-Lift Tip For Travel)
G00 X-1.3528 Y0.0207 (TRAVEL)
G1 Z2.5500 (TRAVEL-Lower Tip)
(TYPE:VOLUME)
M03 S75 (Turn Spindle ON)
G04 P80 (Dwell)
M03 S111 (Change Spindle Speed)
G1 F115.7480 X-2.5419 Y2.0806 (VOLUME-WALL_OUTER)
G1 X-4.9209 Y2.0806 (VOLUME-WALL_OUTER)
G1 X-6.1101 Y0.0207 (VOLUME-WALL_OUTER)
G1 X-4.9209 Y-2.0392 (VOLUME-WALL_OUTER)
G1 X-2.5420 Y-2.0392 (VOLUME-WALL_OUTER)
G1 X-1.3528 Y0.0207 (VOLUME-WALL_OUTER)
M05 (Stop Spindle)
G1 F132.2835 X-1.8528 Y0.8868 (VOLUME-WALL_OUTER-FORWARD TIP WIPE)
G01 Z2.8000 F59.0551 (TRAVEL-Lift Tip For Travel)
G00 X3.7352 Y0.0048 (TRAVEL)
G1 Z2.5500 (TRAVEL-Lower Tip)
(TYPE:VOLUME)
M03 S75 (Turn Spindle ON)
G04 P80 (Dwell)
M03 S111 (Change Spindle Speed)
G1 F115.7480 X3.8724 Y-0.2329 (VOLUME-WALL_OUTER)
G1 X4.1472 Y-0.2329 (VOLUME-WALL_OUTER)
G1 X4.2844 Y0.0048 (VOLUME-WALL_OUTER)
G1 X4.1472 Y0.2424 (VOLUME-WALL_OUTER)
G1 X3.8724 Y0.2424 (VOLUME-WALL_OUTER)
G1 X3.7352 Y0.0048 (VOLUME-WALL_OUTER)
M05 (Stop Spindle)
G1 F132.2835 X3.8724 Y-0.2329 (VOLUME-WALL_OUTER-FORWARD TIP WIPE)
G1 X4.1472 Y-0.2329 (VOLUME-WALL_OUTER-FORWARD TIP WIPE)
G1 X4.2844 Y0.0048 (VOLUME-WALL_OUTER-FORWARD TIP WIPE)
G1 X4.1961 Y0.1576 (VOLUME-WALL_OUTER-FORWARD TIP WIPE)
(BEGINNING LAYER: 52)
G01 Z2.8500 F59.0551 (TRAVEL-Lift Tip For Travel)
G00 X-1.3527 Y0.0207 (TRAVEL)
G1 Z2.6000 (TRAVEL-Lower Tip)
(TYPE:VOLUME)
M03 S75 (Turn Spindle ON)
G04 P80 (Dwell)
M03 S111 (Change Spindle Speed)
G1 F115.7480 X-2.5419 Y2.0806 (VOLUME-WALL_OUTER)
G1 X-4.9209 Y2.0806 (VOLUME-WALL_OUTER)
G1 X-6.1101 Y0.0207 (VOLUME-WALL_OUTER)
G1 X-4.9209 Y-2.0392 (VOLUME-WALL_OUTER)
G1 X-2.5419 Y-2.0392 (VOLUME-WALL_OUTER)
G1 X-1.3527 Y0.0207 (VOLUME-WALL_OUTER)
M05 (Stop Spindle)
G1 F132.2835 X-1.8527 Y0.8867 (VOLUME-WALL_OUTER-FORWARD TIP WIPE)
G01 Z2.8500 F59.0551 (TRAVEL-Lift Tip For Travel)
G00 X3.7770 Y0.0047 (TRAVEL)
G1 Z2.6000 (TRAVEL-Lower Tip)
(TYPE:VOLUME)
M03 S75 (Turn Spindle ON)
G04 P80 (Dwell)
M03 S111 (Change Spindle Speed)
G1 F115.7480 X3.8935 Y-0.1969 (VOLUME-WALL_OUTER)
G1 X4.1261 Y-0.1969 (VOLUME-WALL_OUTER)
G1 X4.2426 Y0.0047 (VOLUME-WALL_OUTER)
G1 X4.1261 Y0.2063 (VOLUME-WALL_OUTER)
G1 X3.8935 Y0.2063 (VOLUME-WALL_OUTER)
G1 X3.7770 Y0.0047 (VOLUME-WALL_OUTER)
M05 (Stop Spindle)
G1 F132.2835 X3.8935 Y-0.1969 (VOLUME-WALL_OUTER-FORWARD TIP WIPE)
G1 X4.1261 Y-0.1969 (VOLUME-WALL_OUTER-FORWARD TIP WIPE)
G1 X4.2426 Y0.0047 (VOLUME-WALL_OUTER-FORWARD TIP WIPE)
G1 X4.1261 Y0.2063 (VOLUME-WALL_OUTER-FORWARD TIP WIPE)
G1 X4.0572 Y0.2063 (VOLUME-WALL_OUTER-FORWARD TIP WIPE)
(BEGINNING LAYER: 53)
G01 Z2.9000 F59.0551 (TRAVEL-Lift Tip For Travel)
G00 X-1.3527 Y0.0207 (TRAVEL)
G1 Z2.6500 (TRAVEL-Lower Tip)
(TYPE:VOLUME)
M03 S75 (Turn Spindle ON)
G04 P80 (Dwell)
M03 S111 (Change Spindle Speed)
G1 F115.7480 X-2.5419 Y2.0806 (VOLUME-WALL_OUTER)
G1 X-4.9209 Y2.0806 (VOLUME-WALL_OUTER)
G1 X-6.1101 Y0.0207 (VOLUME-WALL_OUTER)
G1 X-4.9209 Y-2.0392 (VOLUME-WALL_OUTER)
G1 X-2.5419 Y-2.0392 (VOLUME-WALL_OUTER)
G1 X-1.3527 Y0.0207 (VOLUME-WALL_OUTER)
M05 (Stop Spindle)
G1 F132.2835 X-1.8527 Y0.8867 (VOLUME-WALL_OUTER-FORWARD TIP WIPE)
G01 Z2.9000 F59.0551 (TRAVEL-Lift Tip For Travel)
G00 X3.8187 Y0.0048 (TRAVEL)
G1 Z2.6500 (TRAVEL-Lower Tip)
(TYPE:VOLUME)
M03 S75 (Turn Spindle ON)
G04 P80 (Dwell)
M03 S111 (Change Spindle Speed)
G1 F115.7480 X3.9143 Y-0.1607 (VOLUME-WALL_OUTER)
G1 X4.1054 Y-0.1607 (VOLUME-WALL_OUTER)
G1 X4.2009 Y0.0048 (VOLUME-WALL_OUTER)
G1 X4.1055 Y0.1702 (VOLUME-WALL_OUTER)
G1 X3.9141 Y0.1702 (VOLUME-WALL_OUTER)
G1 X3.8187 Y0.0048 (VOLUME-WALL_OUTER)
M05 (Stop Spindle)
G1 F132.2835 X3.9143 Y-0.1607 (VOLUME-WALL_OUTER-FORWARD TIP WIPE)
G1 X4.1054 Y-0.1607 (VOLUME-WALL_OUTER-FORWARD TIP WIPE)
G1 X4.2009 Y0.0048 (VOLUME-WALL_OUTER-FORWARD TIP WIPE)
G1 X4.1055 Y0.1702 (VOLUME-WALL_OUTER-FORWARD TIP WIPE)
G1 X3.9141 Y0.1702 (VOLUME-WALL_OUTER-FORWARD TIP WIPE)
G1 X3.8920 Y0.1319 (VOLUME-WALL_OUTER-FORWARD TIP WIPE)
(BEGINNING LAYER: 54)
G01 Z2.9500 F59.0551 (TRAVEL-Lift Tip For Travel)
G00 X-1.3527 Y0.0207 (TRAVEL)
G1 Z2.7000 (TRAVEL-Lower Tip)
(TYPE:VOLUME)
M03 S75 (Turn Spindle ON)
G04 P80 (Dwell)
M03 S111 (Change Spindle Speed)
G1 F115.7480 X-2.5419 Y2.0806 (VOLUME-WALL_OUTER)
G1 X-4.9209 Y2.0806 (VOLUME-WALL_OUTER)
G1 X-6.1101 Y0.0207 (VOLUME-WALL_OUTER)
G1 X-4.9209 Y-2.0392 (VOLUME-WALL_OUTER)
G1 X-2.5419 Y-2.0392 (VOLUME-WALL_OUTER)
G1 X-1.3527 Y0.0207 (VOLUME-WALL_OUTER)
M05 (Stop Spindle)
G1 F132.2835 X-1.8527 Y0.8867 (VOLUME-WALL_OUTER-FORWARD TIP WIPE)
G01 Z2.9500 F59.0551 (TRAVEL-Lift Tip For Travel)
G00 X3.8604 Y0.0047 (TRAVEL)
G1 Z2.7000 (TRAVEL-Lower Tip)
(TYPE:VOLUME)
M03 S75 (Turn Spindle ON)
G04 P80 (Dwell)
M03 S111 (Change Spindle Speed)
G1 F115.7480 X3.9351 Y-0.1247 (VOLUME-WALL_OUTER)
G1 X4.0845 Y-0.1247 (VOLUME-WALL_OUTER)
G1 X4.1593 Y0.0047 (VOLUME-WALL_OUTER)
G1 X4.0845 Y0.1341 (VOLUME-WALL_OUTER)
G1 X3.9351 Y0.1341 (VOLUME-WALL_OUTER)
G1 X3.8604 Y0.0047 (VOLUME-WALL_OUTER)
M05 (Stop Spindle)
G1 F132.2835 X3.9351 Y-0.1247 (VOLUME-WALL_OUTER-FORWARD TIP WIPE)
G1 X4.0845 Y-0.1247 (VOLUME-WALL_OUTER-FORWARD TIP WIPE)
G1 X4.1593 Y0.0047 (VOLUME-WALL_OUTER-FORWARD TIP WIPE)
G1 X4.0845 Y0.1341 (VOLUME-WALL_OUTER-FORWARD TIP WIPE)
G1 X3.9351 Y0.1341 (VOLUME-WALL_OUTER-FORWARD TIP WIPE)
G1 X3.8604 Y0.0047 (VOLUME-WALL_OUTER-FORWARD TIP WIPE)
G1 X3.8604 Y0.0047 (VOLUME-WALL_OUTER-FORWARD TIP WIPE)
G1 X3.9121 Y-0.0849 (VOLUME-WALL_OUTER-FORWARD TIP WIPE)
(BEGINNING LAYER: 55)
G01 Z3.0000 F59.0551 (TRAVEL-Lift Tip For Travel)
G00 X-1.3527 Y0.0207 (TRAVEL)
G1 Z2.7500 (TRAVEL-Lower Tip)
(TYPE:VOLUME)
M03 S75 (Turn Spindle ON)
G04 P80 (Dwell)
M03 S111 (Change Spindle Speed)
G1 F115.7480 X-2.5419 Y2.0806 (VOLUME-WALL_OUTER)
G1 X-4.9209 Y2.0806 (VOLUME-WALL_OUTER)
G1 X-6.1101 Y0.0207 (VOLUME-WALL_OUTER)
G1 X-4.9209 Y-2.0392 (VOLUME-WALL_OUTER)
G1 X-2.5419 Y-2.0392 (VOLUME-WALL_OUTER)
G1 X-1.3527 Y0.0207 (VOLUME-WALL_OUTER)
M05 (Stop Spindle)
G1 F132.2835 X-1.8527 Y0.8867 (VOLUME-WALL_OUTER-FORWARD TIP WIPE)
G01 Z3.0000 F59.0551 (TRAVEL-Lift Tip For Travel)
G00 X3.9020 Y0.0047 (TRAVEL)
G1 Z2.7500 (TRAVEL-Lower Tip)
(TYPE:VOLUME)
M03 S75 (Turn Spindle ON)
G04 P80 (Dwell)
M03 S111 (Change Spindle Speed)
G1 F115.7480 X3.9559 Y-0.0886 (VOLUME-WALL_OUTER)
G1 X4.0637 Y-0.0886 (VOLUME-WALL_OUTER)
G1 X4.1176 Y0.0047 (VOLUME-WALL_OUTER)
G1 X4.0638 Y0.0981 (VOLUME-WALL_OUTER)
G1 X3.9558 Y0.0981 (VOLUME-WALL_OUTER)
G1 X3.9020 Y0.0047 (VOLUME-WALL_OUTER)
M05 (Stop Spindle)
G1 F132.2835 X3.9559 Y-0.0886 (VOLUME-WALL_OUTER-FORWARD TIP WIPE)
G1 X4.0637 Y-0.0886 (VOLUME-WALL_OUTER-FORWARD TIP WIPE)
G1 X4.1176 Y0.0047 (VOLUME-WALL_OUTER-FORWARD TIP WIPE)
G1 X4.0638 Y0.0981 (VOLUME-WALL_OUTER-FORWARD TIP WIPE)
G1 X3.9558 Y0.0981 (VOLUME-WALL_OUTER-FORWARD TIP WIPE)
G1 X3.9020 Y0.0047 (VOLUME-WALL_OUTER-FORWARD TIP WIPE)
G1 X3.9020 Y0.0047 (VOLUME-WALL_OUTER-FORWARD TIP WIPE)
G1 X3.9559 Y-0.0886 (VOLUME-WALL_OUTER-FORWARD TIP WIPE)
G1 X4.0637 Y-0.0886 (VOLUME-WALL_OUTER-FORWARD TIP WIPE)
G1 X4.1176 Y0.0047 (VOLUME-WALL_OUTER-FORWARD TIP WIPE)
G1 X4.1027 Y0.0307 (VOLUME-WALL_OUTER-FORWARD TIP WIPE)
(BEGINNING LAYER: 56)
G01 Z3.0500 F59.0551 (TRAVEL-Lift Tip For Travel)
G00 X-1.3527 Y0.0207 (TRAVEL)
G1 Z2.8000 (TRAVEL-Lower Tip)
(TYPE:VOLUME)
M03 S75 (Turn Spindle ON)
G04 P80 (Dwell)
M03 S111 (Change Spindle Speed)
G1 F115.7480 X-2.5419 Y2.0806 (VOLUME-WALL_OUTER)
G1 X-4.9209 Y2.0806 (VOLUME-WALL_OUTER)
G1 X-6.1101 Y0.0207 (VOLUME-WALL_OUTER)
G1 X-4.9209 Y-2.0392 (VOLUME-WALL_OUTER)
G1 X-2.5419 Y-2.0392 (VOLUME-WALL_OUTER)
G1 X-1.3527 Y0.0207 (VOLUME-WALL_OUTER)
M05 (Stop Spindle)
G1 F132.2835 X-1.8527 Y0.8867 (VOLUME-WALL_OUTER-FORWARD TIP WIPE)
G01 Z3.0500 F59.0551 (TRAVEL-Lift Tip For Travel)
G00 X3.9436 Y0.0047 (TRAVEL)
G1 Z2.8000 (TRAVEL-Lower Tip)
(TYPE:VOLUME)
M03 S75 (Turn Spindle ON)
G04 P80 (Dwell)
M03 S111 (Change Spindle Speed)
G1 F115.7480 X3.9767 Y-0.0525 (VOLUME-WALL_OUTER)
G1 X4.0429 Y-0.0525 (VOLUME-WALL_OUTER)
G1 X4.0760 Y0.0047 (VOLUME-WALL_OUTER)
G1 X4.0429 Y0.0620 (VOLUME-WALL_OUTER)
G1 X3.9767 Y0.0620 (VOLUME-WALL_OUTER)
G1 X3.9436 Y0.0047 (VOLUME-WALL_OUTER)
M05 (Stop Spindle)
G1 F132.2835 X3.9767 Y-0.0525 (VOLUME-WALL_OUTER-FORWARD TIP WIPE)
G1 X4.0429 Y-0.0525 (VOLUME-WALL_OUTER-FORWARD TIP WIPE)
G1 X4.0760 Y0.0047 (VOLUME-WALL_OUTER-FORWARD TIP WIPE)
G1 X4.0429 Y0.0620 (VOLUME-WALL_OUTER-FORWARD TIP WIPE)
G1 X3.9767 Y0.0620 (VOLUME-WALL_OUTER-FORWARD TIP WIPE)
G1 X3.9436 Y0.0047 (VOLUME-WALL_OUTER-FORWARD TIP WIPE)
G1 X3.9436 Y0.0047 (VOLUME-WALL_OUTER-FORWARD TIP WIPE)
G1 X3.9767 Y-0.0525 (VOLUME-WALL_OUTER-FORWARD TIP WIPE)
G1 X4.0429 Y-0.0525 (VOLUME-WALL_OUTER-FORWARD TIP WIPE)
G1 X4.0760 Y0.0047 (VOLUME-WALL_OUTER-FORWARD TIP WIPE)
G1 X4.0429 Y0.0620 (VOLUME-WALL_OUTER-FORWARD TIP WIPE)
G1 X3.9767 Y0.0620 (VOLUME-WALL_OUTER-FORWARD TIP WIPE)
G1 X3.9436 Y0.0047 (VOLUME-WALL_OUTER-FORWARD TIP WIPE)
G1 X3.9436 Y0.0047 (VOLUME-WALL_OUTER-FORWARD TIP WIPE)
G1 X3.9767 Y-0.0525 (VOLUME-WALL_OUTER-FORWARD TIP WIPE)
G1 X4.0429 Y-0.0525 (VOLUME-WALL_OUTER-FORWARD TIP WIPE)
G1 X4.0760 Y0.0047 (VOLUME-WALL_OUTER-FORWARD TIP WIPE)
G1 X4.0720 Y0.0116 (VOLUME-WALL_OUTER-FORWARD TIP WIPE)
(BEGINNING LAYER: 57)
G01 Z3.1000 F59.0551 (TRAVEL-Lift Tip For Travel)
G00 X-1.3528 Y0.0207 (TRAVEL)
G1 Z2.8500 (TRAVEL-Lower Tip)
(TYPE:VOLUME)
M03 S75 (Turn Spindle ON)
G04 P80 (Dwell)
M03 S111 (Change Spindle Speed)
G1 F115.7480 X-2.5419 Y2.0806 (VOLUME-WALL_OUTER)
G1 X-4.9209 Y2.0806 (VOLUME-WALL_OUTER)
G1 X-6.1101 Y0.0207 (VOLUME-WALL_OUTER)
G1 X-4.9209 Y-2.0392 (VOLUME-WALL_OUTER)
G1 X-2.5420 Y-2.0392 (VOLUME-WALL_OUTER)
G1 X-1.3528 Y0.0207 (VOLUME-WALL_OUTER)
M05 (Stop Spindle)
G1 F132.2835 X-1.8528 Y0.8868 (VOLUME-WALL_OUTER-FORWARD TIP WIPE)
(BEGINNING LAYER: 58)
G01 Z3.1500 F59.0551 (TRAVEL-Lift Tip For Travel)
G00 X-1.3527 Y0.0207 (TRAVEL)
G1 Z2.9000 (TRAVEL-Lower Tip)
(TYPE:VOLUME)
M03 S75 (Turn Spindle ON)
G04 P80 (Dwell)
M03 S111 (Change Spindle Speed)
G1 F115.7480 X-2.5419 Y2.0806 (VOLUME-WALL_OUTER)
G1 X-4.9209 Y2.0806 (VOLUME-WALL_OUTER)
G1 X-6.1101 Y0.0207 (VOLUME-WALL_OUTER)
G1 X-4.9209 Y-2.0392 (VOLUME-WALL_OUTER)
G1 X-2.5419 Y-2.0392 (VOLUME-WALL_OUTER)
G1 X-1.3527 Y0.0207 (VOLUME-WALL_OUTER)
M05 (Stop Spindle)
G1 F132.2835 X-1.8527 Y0.8867 (VOLUME-WALL_OUTER-FORWARD TIP WIPE)
(BEGINNING LAYER: 59)
G01 Z3.2000 F59.0551 (TRAVEL-Lift Tip For Travel)
G00 X-1.3527 Y0.0207 (TRAVEL)
G1 Z2.9500 (TRAVEL-Lower Tip)
(TYPE:VOLUME)
M03 S75 (Turn Spindle ON)
G04 P80 (Dwell)
M03 S111 (Change Spindle Speed)
G1 F115.7480 X-2.5419 Y2.0806 (VOLUME-WALL_OUTER)
G1 X-4.9209 Y2.0806 (VOLUME-WALL_OUTER)
G1 X-6.1101 Y0.0207 (VOLUME-WALL_OUTER)
G1 X-4.9209 Y-2.0392 (VOLUME-WALL_OUTER)
G1 X-2.5419 Y-2.0392 (VOLUME-WALL_OUTER)
G1 X-1.3527 Y0.0207 (VOLUME-WALL_OUTER)
M05 (Stop Spindle)
G1 F132.2835 X-1.8527 Y0.8867 (VOLUME-WALL_OUTER-FORWARD TIP WIPE)
(BEGINNING LAYER: 60)
G01 Z3.2500 F59.0551 (TRAVEL-Lift Tip For Travel)
G00 X-1.3527 Y0.0207 (TRAVEL)
G1 Z3.0000 (TRAVEL-Lower Tip)
(TYPE:VOLUME)
M03 S75 (Turn Spindle ON)
G04 P80 (Dwell)
M03 S111 (Change Spindle Speed)
G1 F115.7480 X-2.5419 Y2.0806 (VOLUME-WALL_OUTER)
G1 X-4.9209 Y2.0806 (VOLUME-WALL_OUTER)
G1 X-6.1101 Y0.0207 (VOLUME-WALL_OUTER)
G1 X-4.9209 Y-2.0392 (VOLUME-WALL_OUTER)
G1 X-2.5419 Y-2.0392 (VOLUME-WALL_OUTER)
G1 X-1.3527 Y0.0207 (VOLUME-WALL_OUTER)
M05 (Stop Spindle)
G1 F132.2835 X-1.8527 Y0.8867 (VOLUME-WALL_OUTER-FORWARD TIP WIPE)
G91Z0.5
G91G28Y0.0
M19 (Orient Spindle)
M30 (END OF GCODE)

%

(Printer Settings)
(printAreaDepth 406400)
(printAreaWidth 304800)
(printAreaHeight 190500)
(xOffset 0)
(yOffset 0)
(printerBaseOffset 0)
(zTableOffset 0)
(zTableMinimum 0)
(zTableMaximum 0)
(UseDoffingStation 0)
(DoffingStationW 0)
(majorDistance 0)
(minorDistance 0)
(showLayerTimes 0)
(partAutocenter 0)
(gcodeSyntax 11)
(includeStartPoint 0)
(materialLoad 0)
(waitForUser 0)
(demoBoundingBox 0)
(useRelCS 0)
(useSubroutine 0)
(usePurge 0)
(purgeX 0)
(purgeY 0)
(purgeZ 0)
(purgeWipeDistance 0)

(Material Settings)
(initialLayerThickness 1270)
(layerThickness 1270)
(layer0extrusionWidth 5334)
(extrusionWidth 5334)
(initialSpeedupLayers 0)
(initialLayerSpeed 49)
(printSpeed 49)
(inset0Speed 49)
(insetXSpeed 49)
(infillSpeed 56)
(travelSpeed 100)
(liftSpeed 25)
(supportSpeed 49)
(initialSupportSpeed 49)
(powderSpeed 49)
(tipWipeSpeed 56)
(prestartSpeed 49)
(skeletonSpeed 0)
(zTableSpeed 25)
(raftSpeed 0)
(spiralLiftSpeed 0)
(retamperSpeed 0)
(upSkinSpeed 49)
(downSkinSpeed 49)
(buildUpSpeed 0)
(slowDownSpeed 0)
(minimumSpeed 0)
(useAccel 0)
(defaultAccel 0.000000)
(perimAccel 0.000000)
(insetAccel 0.000000)
(infillAccel 0.000000)
(skinAccel 0.000000)
(travelAccel 0.000000)
(useArcFitting 0)
(numPointArcFitting 0)
(centerThreshold 0)
(pointDistanceThreshold 0)
(useSmoothing 1)
(smoothingType 7)
(smoothingTolerance 250)
(nPoint 0)
(perpNumPasses 0)
(opheimMinimum 0)
(opheimMaximum 0)
(langLookAhead 0)
(noSkins 1)
(upSkinCount 0)
(downSkinCount 0)
(skinExtrusionWidth 0)
(skinOverlap 0)
(skinPattern 0)
(insetCount 1)
(insetWidth 5334)
(layer0insetWidth 5334)
(skeletonMinThreshold 0)
(skeletonMaxThreshold 0)
(noInfill 1)
(sparseInfillLineDistance 0)
(infillExtrusionWidth 0)
(infillOverlap 0)
(infillPattern 0)
(fillAngle 90)
(fillRotation 90)
(infillLayerSkip 0)
(usePrestart 0)
(prestartDistance 0)
(infillPumpRPM 75)
(prestartPumpID 0)
(useSupport 0)
(supportExtruder 0)
(supportType 0)
(supportAngle 0)
(supportLineDistance 0)
(supportXYDistance 0)
(printSupportFirst 0)
(minSupportInfillArea 0)
(minSupportArea 0)
(usePowder 0)
(powderExtruder 0)
(powderRaise 0)
(powderLayers 0)
(powderOnTime 0)
(powderOffTime 0)
(useThumper 0)
(thumperOn 0)
(thumperOff 0)
(extruderServo 0)
(pumpOffMinimalDistance 0)
(usePumpTime 0)
(pumpOffMinimalTime 0)
(pumpOnDelay 80)
(pumpOffDelay 0)
(useExtruderID 0)
(initialPumpRPM 75)
(pumpRPM 111)
(insetPumpRPM 111)
(infillPumpRPM 75)
(skinPumpRPM 0)
(initialPumpID 0)
(pumpID 0)
(insetPumpID 0)
(infillPumpID 0)
(skinPumpID 0)
(useTipWipe 1)
(reverseTipWipe 0)
(wipeDistance 25400)
(retamper 0)
(useBuildUp 0)
(buildUpDistance 0)
(buildUpPumpRPM 0)
(buildUpPumpID 0)
(useSlowDown 0)
(slowDownDistance 0)
(slowDownPumpRPM 0)
(slowDownPumpID 0)
(spiralLift 0)
(spiralLiftPerimeter 0)
(spiralLiftInsets 0)
(spiralLiftInfill 0)
(spiralLiftSkins 0)
(spiralLiftEndOfLayer 0)
(spiralLiftDistance 0)
(spiralLiftHeight 0)
(spiralLiftPoints 0)
(spiralLiftContourThreshold 0)
(spiralLiftLineThreshold 0)
(travelLift 6350)
(useTamper 0)
(tamperVoltage 0)
(mainExtruder 0)
(nozzleDiameter 3000)
(minimalExtrudeLength 2000)
(minimumTravelDistance 10000)
(useFilament 0)
(filamentRetractionDistance 0)
(filamentExtrusionMultiplier 0)
(forceMinimumLayerTime 0)
(minimalLayerTime 0)
(minimumPumpRPM 0)
(parkBeforePurge 0)
(parkAfterPurge 0)
(addRaft 0)
(raftMargin 0)
(raftLineSpacing 0)
(usePercentagePaths 0)
(useSkeletons 0)
(minInfillLineSize 10000)
(minSkeletonSize 0)
(minContourSize 10000)
(useExtendSharpCorners 0)
(sharpCornerExtensionDistance 0)
(sharpCornerAngleThreshold 0)
(cornerClosePointsThreshold 0)
(randomStartPoint 0)
(seamOptimization 1)
(seamSelectionX 0)
(seamSelectionY 0)
(purgeRPM 300)
(purgeDuration 30000)
(wipeDelayTime 1000)
(purgeDelay 0)
(initialPurgeRPM 1000)
(initialPurgeDuration 1000)
(initialWipeDelayTime 1000)
(perimeterStartCode )
(insetStartCode )
(infillStartCode )
(skinStartCode )
(fixHorrible 1)
(multiVolumeOverlap 0)
(dontMergePolygons 0)
(oversizePart 0)
(distanceToOversize 0)
(disableOptimization 0)
(spiralizeMode 0)
(removeComments 0)
(manualDensity 0)
(plasticType 1)
(actualDensity 0.000000)
